( Generated by Carbide Copper )
( Material Size )
( X= 68.000, Y= 50.000, Z= 1.580 )
()
G17
G21
G54
G90
M05
(  )
T502 M06
( Contour )
M03 S10000
G0  X0.933 Y49.696
G0  Z3.000
G01 F400 Z0
G01 F400 Z-0.100
G01F400X0.821 Y49.672
X0.716 Y49.626
X0.622 Y49.558
X0.545 Y49.472
X0.488 Y49.373
X0.452 Y49.263
X0.440 Y49.149
X0.452 Y49.035
X0.488 Y48.925
X0.545 Y48.826
X0.617 Y48.746
X0.641 Y48.715
X0.636 Y48.669
X0.636 Y1.344
X0.639 Y1.310
X0.622 Y1.298
X0.545 Y1.212
X0.488 Y1.113
X0.452 Y1.003
X0.440 Y0.889
X0.452 Y0.775
X0.488 Y0.665
X0.545 Y0.566
X0.622 Y0.480
X0.716 Y0.412
X0.821 Y0.366
X0.933 Y0.342
X1.048 Y0.342
X1.161 Y0.366
X1.266 Y0.412
X1.359 Y0.480
X1.413 Y0.541
X1.436 Y0.536
X66.585 Y0.536
X66.608 Y0.540
X66.662 Y0.480
X66.755 Y0.412
X66.861 Y0.366
X66.973 Y0.342
X67.088 Y0.342
X67.201 Y0.366
X67.306 Y0.412
X67.399 Y0.480
X67.476 Y0.566
X67.533 Y0.665
X67.569 Y0.775
X67.581 Y0.889
X67.569 Y1.003
X67.533 Y1.113
X67.476 Y1.212
X67.399 Y1.298
X67.382 Y1.310
X67.385 Y1.344
X67.385 Y48.670
X67.377 Y48.724
X67.399 Y48.740
X67.476 Y48.826
X67.533 Y48.925
X67.569 Y49.035
X67.581 Y49.149
X67.569 Y49.263
X67.533 Y49.373
X67.476 Y49.472
X67.399 Y49.558
X67.306 Y49.626
X67.201 Y49.672
X67.088 Y49.696
X66.973 Y49.696
X66.861 Y49.672
X66.755 Y49.626
X66.662 Y49.558
X66.608 Y49.497
X66.585 Y49.502
X1.436 Y49.502
X1.413 Y49.498
X1.359 Y49.558
X1.266 Y49.626
X1.161 Y49.672
X1.048 Y49.696
X0.933 Y49.696
G0 Z3.000
G0  X1.413 Y48.801
G0  Z3.000
G01 F400 Z0
G01 F400 Z-0.100
G01F400X1.436 Y48.796
X66.585 Y48.796
X66.608 Y48.800
X66.657 Y48.746
X66.681 Y48.715
X66.676 Y48.669
X66.676 Y1.344
X66.679 Y1.310
X66.662 Y1.298
X66.608 Y1.237
X66.585 Y1.242
X1.436 Y1.242
X1.413 Y1.238
X1.359 Y1.298
X1.342 Y1.310
X1.345 Y1.344
X1.345 Y48.670
X1.337 Y48.724
X1.359 Y48.740
X1.413 Y48.801
G0 Z3.000
G0  X53.290 Y47.650
G0  Z3.000
G01 F400 Z0
G01 F400 Z-0.100
G01F400X53.290 Y45.568
X55.371 Y45.568
X55.371 Y47.650
X53.290 Y47.650
G0 Z3.000
G0  X56.762 Y47.644
G0  Z3.000
G01 F400 Z0
G01 F400 Z-0.100
G01F400X56.549 Y47.599
X56.350 Y47.510
X56.174 Y47.383
X56.029 Y47.221
X55.920 Y47.032
X55.852 Y46.825
X55.830 Y46.609
X55.852 Y46.393
X55.920 Y46.186
X56.029 Y45.997
X56.174 Y45.836
X56.350 Y45.708
X56.549 Y45.619
X56.762 Y45.574
X56.979 Y45.574
X57.192 Y45.619
X57.391 Y45.708
X57.567 Y45.836
X57.713 Y45.997
X57.822 Y46.186
X57.889 Y46.393
X57.912 Y46.609
X57.889 Y46.825
X57.822 Y47.032
X57.713 Y47.221
X57.567 Y47.383
X57.391 Y47.510
X57.192 Y47.599
X56.979 Y47.644
X56.762 Y47.644
G0 Z3.000
G0  X59.302 Y47.644
G0  Z3.000
G01 F400 Z0
G01 F400 Z-0.100
G01F400X59.089 Y47.599
X58.890 Y47.510
X58.714 Y47.383
X58.569 Y47.221
X58.460 Y47.032
X58.393 Y46.825
X58.370 Y46.609
X58.393 Y46.393
X58.460 Y46.186
X58.569 Y45.997
X58.714 Y45.836
X58.890 Y45.708
X59.056 Y45.634
X59.056 Y44.397
X46.699 Y44.397
X46.626 Y44.381
X46.559 Y44.351
X46.498 Y44.308
X46.449 Y44.252
X46.412 Y44.188
X46.389 Y44.117
X46.381 Y44.046
X46.381 Y42.508
X46.194 Y42.424
X46.019 Y42.297
X45.874 Y42.137
X45.766 Y41.950
X45.699 Y41.744
X45.677 Y41.529
X45.699 Y41.314
X45.766 Y41.108
X45.874 Y40.921
X46.019 Y40.761
X46.194 Y40.634
X46.391 Y40.546
X46.602 Y40.501
X46.819 Y40.501
X47.030 Y40.546
X47.227 Y40.634
X47.402 Y40.761
X47.547 Y40.921
X47.655 Y41.108
X47.722 Y41.314
X47.744 Y41.529
X47.722 Y41.744
X47.655 Y41.950
X47.547 Y42.137
X47.402 Y42.297
X47.227 Y42.424
X47.091 Y42.485
X47.091 Y43.691
X59.448 Y43.691
X59.520 Y43.706
X59.588 Y43.736
X59.648 Y43.780
X59.698 Y43.835
X59.735 Y43.899
X59.758 Y43.970
X59.765 Y44.041
X59.767 Y45.634
X59.931 Y45.708
X60.107 Y45.836
X60.253 Y45.997
X60.361 Y46.186
X60.429 Y46.393
X60.452 Y46.609
X60.429 Y46.825
X60.361 Y47.032
X60.253 Y47.221
X60.107 Y47.383
X59.931 Y47.510
X59.732 Y47.599
X59.519 Y47.644
X59.302 Y47.644
G0 Z3.000
G0  X36.468 Y42.557
G0  Z3.000
G01 F400 Z0
G01 F400 Z-0.100
G01F400X36.257 Y42.512
X36.059 Y42.424
X35.884 Y42.297
X35.740 Y42.137
X35.632 Y41.950
X35.565 Y41.744
X35.542 Y41.529
X35.565 Y41.314
X35.632 Y41.108
X35.740 Y40.921
X35.884 Y40.761
X36.059 Y40.634
X36.257 Y40.546
X36.468 Y40.501
X36.684 Y40.501
X36.895 Y40.546
X37.093 Y40.634
X37.268 Y40.761
X37.412 Y40.921
X37.520 Y41.108
X37.587 Y41.314
X37.610 Y41.529
X37.587 Y41.744
X37.520 Y41.950
X37.412 Y42.137
X37.268 Y42.297
X37.093 Y42.424
X36.895 Y42.512
X36.684 Y42.557
X36.468 Y42.557
G0 Z3.000
G0  X33.903 Y42.557
G0  Z3.000
G01 F400 Z0
G01 F400 Z-0.100
G01F400X33.691 Y42.512
X33.494 Y42.424
X33.319 Y42.297
X33.174 Y42.137
X33.066 Y41.950
X32.999 Y41.744
X32.977 Y41.529
X32.999 Y41.314
X33.066 Y41.108
X33.174 Y40.921
X33.319 Y40.761
X33.494 Y40.634
X33.691 Y40.546
X33.903 Y40.501
X34.119 Y40.501
X34.330 Y40.546
X34.528 Y40.634
X34.702 Y40.761
X34.847 Y40.921
X34.955 Y41.108
X35.022 Y41.314
X35.044 Y41.529
X35.022 Y41.744
X34.955 Y41.950
X34.847 Y42.137
X34.702 Y42.297
X34.528 Y42.424
X34.330 Y42.512
X34.119 Y42.557
X33.903 Y42.557
G0 Z3.000
G0  X41.523 Y42.557
G0  Z3.000
G01 F400 Z0
G01 F400 Z-0.100
G01F400X41.311 Y42.512
X41.114 Y42.424
X40.939 Y42.297
X40.794 Y42.137
X40.686 Y41.950
X40.619 Y41.744
X40.597 Y41.529
X40.619 Y41.314
X40.686 Y41.108
X40.794 Y40.921
X40.939 Y40.761
X41.114 Y40.634
X41.311 Y40.546
X41.523 Y40.501
X41.739 Y40.501
X41.950 Y40.546
X42.148 Y40.634
X42.322 Y40.761
X42.467 Y40.921
X42.575 Y41.108
X42.642 Y41.314
X42.664 Y41.529
X42.642 Y41.744
X42.575 Y41.950
X42.467 Y42.137
X42.322 Y42.297
X42.148 Y42.424
X41.950 Y42.512
X41.739 Y42.557
X41.523 Y42.557
G0 Z3.000
G0  X38.983 Y42.557
G0  Z3.000
G01 F400 Z0
G01 F400 Z-0.100
G01F400X38.771 Y42.512
X38.574 Y42.424
X38.399 Y42.297
X38.254 Y42.137
X38.146 Y41.950
X38.079 Y41.744
X38.057 Y41.529
X38.079 Y41.314
X38.146 Y41.108
X38.254 Y40.921
X38.399 Y40.761
X38.574 Y40.634
X38.771 Y40.546
X38.983 Y40.501
X39.199 Y40.501
X39.410 Y40.546
X39.608 Y40.634
X39.782 Y40.761
X39.927 Y40.921
X40.035 Y41.108
X40.102 Y41.314
X40.124 Y41.529
X40.102 Y41.744
X40.035 Y41.950
X39.927 Y42.137
X39.782 Y42.297
X39.608 Y42.424
X39.410 Y42.512
X39.199 Y42.557
X38.983 Y42.557
G0 Z3.000
G0  X26.283 Y42.557
G0  Z3.000
G01 F400 Z0
G01 F400 Z-0.100
G01F400X26.071 Y42.512
X25.874 Y42.424
X25.699 Y42.297
X25.554 Y42.137
X25.446 Y41.950
X25.379 Y41.744
X25.357 Y41.529
X25.379 Y41.314
X25.446 Y41.108
X25.554 Y40.921
X25.699 Y40.761
X25.874 Y40.634
X26.071 Y40.546
X26.283 Y40.501
X26.499 Y40.501
X26.710 Y40.546
X26.908 Y40.634
X27.082 Y40.761
X27.227 Y40.921
X27.335 Y41.108
X27.402 Y41.314
X27.424 Y41.529
X27.402 Y41.744
X27.335 Y41.950
X27.227 Y42.137
X27.082 Y42.297
X26.908 Y42.424
X26.710 Y42.512
X26.499 Y42.557
X26.283 Y42.557
G0 Z3.000
G0  X23.742 Y42.557
G0  Z3.000
G01 F400 Z0
G01 F400 Z-0.100
G01F400X23.531 Y42.512
X23.334 Y42.424
X23.159 Y42.297
X23.014 Y42.137
X22.906 Y41.950
X22.839 Y41.744
X22.817 Y41.529
X22.839 Y41.314
X22.906 Y41.108
X23.014 Y40.921
X23.159 Y40.761
X23.334 Y40.634
X23.531 Y40.546
X23.742 Y40.501
X23.959 Y40.501
X24.170 Y40.546
X24.367 Y40.634
X24.542 Y40.761
X24.687 Y40.921
X24.795 Y41.108
X24.862 Y41.314
X24.884 Y41.529
X24.862 Y41.744
X24.795 Y41.950
X24.687 Y42.137
X24.542 Y42.297
X24.367 Y42.424
X24.170 Y42.512
X23.959 Y42.557
X23.742 Y42.557
G0 Z3.000
G0  X31.363 Y42.557
G0  Z3.000
G01 F400 Z0
G01 F400 Z-0.100
G01F400X31.151 Y42.512
X30.954 Y42.424
X30.779 Y42.297
X30.634 Y42.137
X30.526 Y41.950
X30.459 Y41.744
X30.437 Y41.529
X30.459 Y41.314
X30.526 Y41.108
X30.634 Y40.921
X30.779 Y40.761
X30.954 Y40.634
X31.151 Y40.546
X31.363 Y40.501
X31.579 Y40.501
X31.790 Y40.546
X31.988 Y40.634
X32.162 Y40.761
X32.307 Y40.921
X32.415 Y41.108
X32.482 Y41.314
X32.504 Y41.529
X32.482 Y41.744
X32.415 Y41.950
X32.307 Y42.137
X32.162 Y42.297
X31.988 Y42.424
X31.790 Y42.512
X31.579 Y42.557
X31.363 Y42.557
G0 Z3.000
G0  X28.823 Y42.557
G0  Z3.000
G01 F400 Z0
G01 F400 Z-0.100
G01F400X28.611 Y42.512
X28.414 Y42.424
X28.239 Y42.297
X28.094 Y42.137
X27.986 Y41.950
X27.919 Y41.744
X27.897 Y41.529
X27.919 Y41.314
X27.986 Y41.108
X28.094 Y40.921
X28.239 Y40.761
X28.414 Y40.634
X28.611 Y40.546
X28.823 Y40.501
X29.039 Y40.501
X29.250 Y40.546
X29.448 Y40.634
X29.622 Y40.761
X29.767 Y40.921
X29.875 Y41.108
X29.942 Y41.314
X29.964 Y41.529
X29.942 Y41.744
X29.875 Y41.950
X29.767 Y42.137
X29.622 Y42.297
X29.448 Y42.424
X29.250 Y42.512
X29.039 Y42.557
X28.823 Y42.557
G0 Z3.000
G0  X56.763 Y42.557
G0  Z3.000
G01 F400 Z0
G01 F400 Z-0.100
G01F400X56.551 Y42.512
X56.354 Y42.424
X56.179 Y42.297
X56.034 Y42.137
X55.926 Y41.950
X55.859 Y41.744
X55.837 Y41.529
X55.859 Y41.314
X55.926 Y41.108
X56.034 Y40.921
X56.179 Y40.761
X56.354 Y40.634
X56.551 Y40.546
X56.763 Y40.501
X56.979 Y40.501
X57.190 Y40.546
X57.388 Y40.634
X57.562 Y40.761
X57.707 Y40.921
X57.815 Y41.108
X57.882 Y41.314
X57.904 Y41.529
X57.882 Y41.744
X57.815 Y41.950
X57.707 Y42.137
X57.562 Y42.297
X57.388 Y42.424
X57.190 Y42.512
X56.979 Y42.557
X56.763 Y42.557
G0 Z3.000
G0  X54.223 Y42.557
G0  Z3.000
G01 F400 Z0
G01 F400 Z-0.100
G01F400X54.011 Y42.512
X53.814 Y42.424
X53.639 Y42.297
X53.494 Y42.137
X53.386 Y41.950
X53.319 Y41.744
X53.297 Y41.529
X53.319 Y41.314
X53.386 Y41.108
X53.494 Y40.921
X53.639 Y40.761
X53.814 Y40.634
X54.011 Y40.546
X54.223 Y40.501
X54.439 Y40.501
X54.650 Y40.546
X54.848 Y40.634
X55.022 Y40.761
X55.167 Y40.921
X55.275 Y41.108
X55.342 Y41.314
X55.364 Y41.529
X55.342 Y41.744
X55.275 Y41.950
X55.167 Y42.137
X55.022 Y42.297
X54.848 Y42.424
X54.650 Y42.512
X54.439 Y42.557
X54.223 Y42.557
G0 Z3.000
G0  X59.303 Y42.557
G0  Z3.000
G01 F400 Z0
G01 F400 Z-0.100
G01F400X59.091 Y42.512
X58.894 Y42.424
X58.719 Y42.297
X58.574 Y42.137
X58.466 Y41.950
X58.399 Y41.744
X58.377 Y41.529
X58.399 Y41.314
X58.466 Y41.108
X58.574 Y40.921
X58.719 Y40.761
X58.894 Y40.634
X59.091 Y40.546
X59.303 Y40.501
X59.519 Y40.501
X59.730 Y40.546
X59.928 Y40.634
X60.102 Y40.761
X60.247 Y40.921
X60.355 Y41.108
X60.422 Y41.314
X60.444 Y41.529
X60.422 Y41.744
X60.355 Y41.950
X60.247 Y42.137
X60.102 Y42.297
X59.928 Y42.424
X59.730 Y42.512
X59.519 Y42.557
X59.303 Y42.557
G0 Z3.000
G0  X44.063 Y42.557
G0  Z3.000
G01 F400 Z0
G01 F400 Z-0.100
G01F400X43.851 Y42.512
X43.654 Y42.424
X43.479 Y42.297
X43.334 Y42.137
X43.226 Y41.950
X43.159 Y41.744
X43.137 Y41.529
X43.159 Y41.314
X43.226 Y41.108
X43.334 Y40.921
X43.479 Y40.761
X43.654 Y40.634
X43.851 Y40.546
X44.063 Y40.501
X44.279 Y40.501
X44.490 Y40.546
X44.688 Y40.634
X44.862 Y40.761
X45.007 Y40.921
X45.115 Y41.108
X45.182 Y41.314
X45.204 Y41.529
X45.182 Y41.744
X45.115 Y41.950
X45.007 Y42.137
X44.862 Y42.297
X44.688 Y42.424
X44.490 Y42.512
X44.279 Y42.557
X44.063 Y42.557
G0 Z3.000
G0  X51.683 Y42.557
G0  Z3.000
G01 F400 Z0
G01 F400 Z-0.100
G01F400X51.471 Y42.512
X51.274 Y42.424
X51.099 Y42.297
X50.954 Y42.137
X50.846 Y41.950
X50.779 Y41.744
X50.757 Y41.529
X50.779 Y41.314
X50.846 Y41.108
X50.954 Y40.921
X51.099 Y40.761
X51.274 Y40.634
X51.471 Y40.546
X51.683 Y40.501
X51.899 Y40.501
X52.110 Y40.546
X52.308 Y40.634
X52.482 Y40.761
X52.627 Y40.921
X52.735 Y41.108
X52.802 Y41.314
X52.824 Y41.529
X52.802 Y41.744
X52.735 Y41.950
X52.627 Y42.137
X52.482 Y42.297
X52.308 Y42.424
X52.110 Y42.512
X51.899 Y42.557
X51.683 Y42.557
G0 Z3.000
G0  X49.143 Y42.557
G0  Z3.000
G01 F400 Z0
G01 F400 Z-0.100
G01F400X48.931 Y42.512
X48.734 Y42.424
X48.559 Y42.297
X48.414 Y42.137
X48.306 Y41.950
X48.239 Y41.744
X48.217 Y41.529
X48.239 Y41.314
X48.306 Y41.108
X48.414 Y40.921
X48.559 Y40.761
X48.734 Y40.634
X48.931 Y40.546
X49.143 Y40.501
X49.359 Y40.501
X49.570 Y40.546
X49.768 Y40.634
X49.942 Y40.761
X50.087 Y40.921
X50.195 Y41.108
X50.262 Y41.314
X50.284 Y41.529
X50.262 Y41.744
X50.195 Y41.950
X50.087 Y42.137
X49.942 Y42.297
X49.768 Y42.424
X49.570 Y42.512
X49.359 Y42.557
X49.143 Y42.557
G0 Z3.000
G0  X16.148 Y42.557
G0  Z3.000
G01 F400 Z0
G01 F400 Z-0.100
G01F400X15.937 Y42.512
X15.739 Y42.424
X15.564 Y42.297
X15.420 Y42.137
X15.312 Y41.950
X15.245 Y41.744
X15.222 Y41.529
X15.245 Y41.314
X15.312 Y41.108
X15.420 Y40.921
X15.564 Y40.761
X15.739 Y40.634
X15.937 Y40.546
X16.148 Y40.501
X16.364 Y40.501
X16.576 Y40.546
X16.773 Y40.634
X16.948 Y40.761
X17.092 Y40.921
X17.200 Y41.108
X17.267 Y41.314
X17.290 Y41.529
X17.267 Y41.744
X17.200 Y41.950
X17.092 Y42.137
X16.948 Y42.297
X16.773 Y42.424
X16.576 Y42.512
X16.364 Y42.557
X16.148 Y42.557
G0 Z3.000
G0  X13.583 Y42.557
G0  Z3.000
G01 F400 Z0
G01 F400 Z-0.100
G01F400X13.371 Y42.512
X13.174 Y42.424
X12.999 Y42.297
X12.854 Y42.137
X12.746 Y41.950
X12.679 Y41.744
X12.657 Y41.529
X12.679 Y41.314
X12.746 Y41.108
X12.854 Y40.921
X12.999 Y40.761
X13.174 Y40.634
X13.371 Y40.546
X13.583 Y40.501
X13.799 Y40.501
X14.010 Y40.546
X14.208 Y40.634
X14.382 Y40.761
X14.527 Y40.921
X14.635 Y41.108
X14.702 Y41.314
X14.724 Y41.529
X14.702 Y41.744
X14.635 Y41.950
X14.527 Y42.137
X14.382 Y42.297
X14.208 Y42.424
X14.010 Y42.512
X13.799 Y42.557
X13.583 Y42.557
G0 Z3.000
G0  X21.203 Y42.557
G0  Z3.000
G01 F400 Z0
G01 F400 Z-0.100
G01F400X20.991 Y42.512
X20.794 Y42.424
X20.619 Y42.297
X20.474 Y42.137
X20.366 Y41.950
X20.299 Y41.744
X20.277 Y41.529
X20.299 Y41.314
X20.366 Y41.108
X20.474 Y40.921
X20.619 Y40.761
X20.794 Y40.634
X20.991 Y40.546
X21.203 Y40.501
X21.419 Y40.501
X21.630 Y40.546
X21.828 Y40.634
X22.002 Y40.761
X22.147 Y40.921
X22.255 Y41.108
X22.322 Y41.314
X22.344 Y41.529
X22.322 Y41.744
X22.255 Y41.950
X22.147 Y42.137
X22.002 Y42.297
X21.828 Y42.424
X21.630 Y42.512
X21.419 Y42.557
X21.203 Y42.557
G0 Z3.000
G0  X18.688 Y42.557
G0  Z3.000
G01 F400 Z0
G01 F400 Z-0.100
G01F400X18.477 Y42.512
X18.279 Y42.424
X18.104 Y42.297
X17.960 Y42.137
X17.852 Y41.950
X17.785 Y41.744
X17.762 Y41.529
X17.785 Y41.314
X17.852 Y41.108
X17.960 Y40.921
X18.104 Y40.761
X18.279 Y40.634
X18.477 Y40.546
X18.688 Y40.501
X18.904 Y40.501
X19.116 Y40.546
X19.313 Y40.634
X19.488 Y40.761
X19.632 Y40.921
X19.740 Y41.108
X19.807 Y41.314
X19.830 Y41.529
X19.807 Y41.744
X19.740 Y41.950
X19.632 Y42.137
X19.488 Y42.297
X19.313 Y42.424
X19.116 Y42.512
X18.904 Y42.557
X18.688 Y42.557
G0 Z3.000
G0  X11.043 Y42.557
G0  Z3.000
G01 F400 Z0
G01 F400 Z-0.100
G01F400X10.831 Y42.512
X10.634 Y42.424
X10.459 Y42.297
X10.314 Y42.137
X10.206 Y41.950
X10.139 Y41.744
X10.117 Y41.529
X10.139 Y41.314
X10.206 Y41.108
X10.314 Y40.921
X10.459 Y40.761
X10.634 Y40.634
X10.831 Y40.546
X11.043 Y40.501
X11.259 Y40.501
X11.470 Y40.546
X11.668 Y40.634
X11.842 Y40.761
X11.987 Y40.921
X12.095 Y41.108
X12.162 Y41.314
X12.184 Y41.529
X12.162 Y41.744
X12.095 Y41.950
X11.987 Y42.137
X11.842 Y42.297
X11.668 Y42.424
X11.470 Y42.512
X11.259 Y42.557
X11.043 Y42.557
G0 Z3.000
G0  X59.328 Y40.017
G0  Z3.000
G01 F400 Z0
G01 F400 Z-0.100
G01F400X59.117 Y39.972
X58.919 Y39.884
X58.744 Y39.757
X58.600 Y39.597
X58.492 Y39.410
X58.425 Y39.204
X58.402 Y38.989
X58.425 Y38.774
X58.492 Y38.569
X58.600 Y38.381
X58.744 Y38.221
X58.919 Y38.094
X59.117 Y38.006
X59.328 Y37.961
X59.544 Y37.961
X59.756 Y38.006
X59.953 Y38.094
X60.128 Y38.221
X60.272 Y38.381
X60.380 Y38.569
X60.394 Y38.611
X64.160 Y38.611
X64.113 Y19.593
X63.989 Y19.537
X63.820 Y19.414
X63.679 Y19.258
X63.575 Y19.077
X63.543 Y18.981
X59.468 Y19.022
X59.399 Y19.022
X59.326 Y19.007
X59.259 Y18.977
X59.198 Y18.933
X59.149 Y18.878
X59.112 Y18.813
X59.089 Y18.743
X59.081 Y18.672
X59.063 Y17.079
X58.903 Y17.008
X58.731 Y16.884
X58.589 Y16.726
X58.483 Y16.542
X58.417 Y16.340
X58.395 Y16.129
X58.417 Y15.918
X58.483 Y15.716
X58.589 Y15.532
X58.731 Y15.374
X58.903 Y15.250
X59.097 Y15.163
X59.305 Y15.119
X59.517 Y15.119
X59.724 Y15.163
X59.918 Y15.250
X60.090 Y15.374
X60.232 Y15.532
X60.338 Y15.716
X60.404 Y15.918
X60.426 Y16.129
X60.404 Y16.340
X60.338 Y16.542
X60.232 Y16.726
X60.090 Y16.884
X59.918 Y17.008
X59.791 Y17.065
X59.791 Y18.312
X63.570 Y18.274
X63.574 Y18.263
X63.654 Y18.096
X63.661 Y18.036
X63.684 Y17.966
X63.721 Y17.902
X63.770 Y17.846
X63.831 Y17.803
X63.898 Y17.773
X63.971 Y17.757
X64.045 Y17.757
X64.073 Y17.763
X64.181 Y17.715
X64.386 Y17.672
X64.595 Y17.672
X64.800 Y17.715
X64.992 Y17.801
X65.162 Y17.924
X65.302 Y18.080
X65.407 Y18.261
X65.472 Y18.460
X65.493 Y18.669
X65.472 Y18.878
X65.407 Y19.077
X65.302 Y19.258
X65.162 Y19.414
X64.992 Y19.538
X64.823 Y19.610
X64.871 Y38.966
X64.863 Y39.037
X64.840 Y39.108
X64.803 Y39.172
X64.754 Y39.227
X64.694 Y39.271
X64.626 Y39.301
X64.553 Y39.317
X60.411 Y39.317
X60.380 Y39.410
X60.272 Y39.597
X60.128 Y39.757
X59.953 Y39.884
X59.756 Y39.972
X59.544 Y40.017
X59.328 Y40.017
G0 Z3.000
G0  X44.063 Y40.017
G0  Z3.000
G01 F400 Z0
G01 F400 Z-0.100
G01F400X43.851 Y39.972
X43.654 Y39.884
X43.479 Y39.757
X43.334 Y39.597
X43.226 Y39.410
X43.159 Y39.204
X43.137 Y38.989
X43.159 Y38.774
X43.226 Y38.569
X43.334 Y38.381
X43.479 Y38.221
X43.654 Y38.094
X43.851 Y38.006
X44.063 Y37.961
X44.279 Y37.961
X44.490 Y38.006
X44.688 Y38.094
X44.862 Y38.221
X45.007 Y38.381
X45.115 Y38.569
X45.182 Y38.774
X45.204 Y38.989
X45.182 Y39.204
X45.115 Y39.410
X45.007 Y39.597
X44.862 Y39.757
X44.688 Y39.884
X44.490 Y39.972
X44.279 Y40.017
X44.063 Y40.017
G0 Z3.000
G0  X46.602 Y40.017
G0  Z3.000
G01 F400 Z0
G01 F400 Z-0.100
G01F400X46.391 Y39.972
X46.194 Y39.884
X46.019 Y39.757
X45.874 Y39.597
X45.766 Y39.410
X45.699 Y39.204
X45.677 Y38.989
X45.699 Y38.774
X45.766 Y38.569
X45.874 Y38.381
X46.019 Y38.221
X46.194 Y38.094
X46.391 Y38.006
X46.602 Y37.961
X46.819 Y37.961
X47.030 Y38.006
X47.227 Y38.094
X47.402 Y38.221
X47.547 Y38.381
X47.655 Y38.569
X47.722 Y38.774
X47.744 Y38.989
X47.722 Y39.204
X47.655 Y39.410
X47.547 Y39.597
X47.402 Y39.757
X47.227 Y39.884
X47.030 Y39.972
X46.819 Y40.017
X46.602 Y40.017
G0 Z3.000
G0  X41.523 Y40.017
G0  Z3.000
G01 F400 Z0
G01 F400 Z-0.100
G01F400X41.311 Y39.972
X41.114 Y39.884
X40.939 Y39.757
X40.794 Y39.597
X40.686 Y39.410
X40.619 Y39.204
X40.597 Y38.989
X40.619 Y38.774
X40.686 Y38.569
X40.794 Y38.381
X40.939 Y38.221
X41.114 Y38.094
X41.311 Y38.006
X41.523 Y37.961
X41.739 Y37.961
X41.950 Y38.006
X42.148 Y38.094
X42.322 Y38.221
X42.467 Y38.381
X42.575 Y38.569
X42.642 Y38.774
X42.664 Y38.989
X42.642 Y39.204
X42.575 Y39.410
X42.467 Y39.597
X42.322 Y39.757
X42.148 Y39.884
X41.950 Y39.972
X41.739 Y40.017
X41.523 Y40.017
G0 Z3.000
G0  X54.223 Y40.017
G0  Z3.000
G01 F400 Z0
G01 F400 Z-0.100
G01F400X54.011 Y39.972
X53.814 Y39.884
X53.639 Y39.757
X53.494 Y39.597
X53.386 Y39.410
X53.319 Y39.204
X53.297 Y38.989
X53.319 Y38.774
X53.386 Y38.569
X53.494 Y38.381
X53.639 Y38.221
X53.814 Y38.094
X54.001 Y38.010
X54.001 Y36.777
X44.134 Y36.777
X44.061 Y36.761
X43.993 Y36.731
X43.933 Y36.688
X43.883 Y36.632
X43.846 Y36.568
X43.823 Y36.497
X43.816 Y36.426
X43.816 Y32.971
X43.661 Y32.939
X43.346 Y32.798
X43.066 Y32.595
X42.836 Y32.339
X42.663 Y32.040
X42.556 Y31.712
X42.520 Y31.369
X42.556 Y31.026
X42.663 Y30.698
X42.836 Y30.399
X43.066 Y30.143
X43.346 Y29.940
X43.661 Y29.800
X43.816 Y29.767
X43.816 Y19.022
X41.593 Y19.022
X41.521 Y19.007
X41.453 Y18.977
X41.393 Y18.933
X41.343 Y18.878
X41.306 Y18.813
X41.283 Y18.743
X41.276 Y18.672
X41.276 Y13.942
X19.125 Y13.942
X19.125 Y15.264
X19.240 Y15.316
X19.399 Y15.431
X19.530 Y15.577
X19.629 Y15.747
X19.689 Y15.934
X19.710 Y16.129
X19.689 Y16.324
X19.629 Y16.511
X19.530 Y16.681
X19.399 Y16.827
X19.240 Y16.942
X19.061 Y17.022
X18.869 Y17.063
X18.672 Y17.063
X18.480 Y17.022
X18.301 Y16.942
X18.142 Y16.827
X18.011 Y16.681
X17.913 Y16.511
X17.852 Y16.324
X17.831 Y16.129
X17.852 Y15.934
X17.913 Y15.747
X18.011 Y15.577
X18.142 Y15.431
X18.301 Y15.316
X18.416 Y15.264
X18.416 Y13.586
X18.423 Y13.515
X18.446 Y13.445
X18.483 Y13.380
X18.533 Y13.325
X18.593 Y13.282
X18.661 Y13.251
X18.733 Y13.236
X41.668 Y13.236
X41.740 Y13.251
X41.808 Y13.282
X41.868 Y13.325
X41.918 Y13.380
X41.955 Y13.445
X41.978 Y13.515
X41.985 Y13.586
X41.985 Y18.316
X43.816 Y18.316
X43.816 Y17.076
X43.663 Y17.008
X43.491 Y16.884
X43.349 Y16.726
X43.243 Y16.542
X43.177 Y16.340
X43.155 Y16.129
X43.177 Y15.918
X43.243 Y15.716
X43.349 Y15.532
X43.491 Y15.374
X43.663 Y15.250
X43.857 Y15.163
X44.065 Y15.119
X44.277 Y15.119
X44.484 Y15.163
X44.678 Y15.250
X44.850 Y15.374
X44.992 Y15.532
X45.098 Y15.716
X45.164 Y15.918
X45.186 Y16.129
X45.164 Y16.340
X45.098 Y16.542
X44.992 Y16.726
X44.850 Y16.884
X44.678 Y17.008
X44.525 Y17.076
X44.525 Y29.767
X44.681 Y29.800
X44.996 Y29.940
X45.275 Y30.143
X45.506 Y30.399
X45.678 Y30.698
X45.785 Y31.026
X45.821 Y31.369
X45.785 Y31.712
X45.678 Y32.040
X45.506 Y32.339
X45.275 Y32.595
X44.996 Y32.798
X44.681 Y32.939
X44.525 Y32.971
X44.525 Y36.071
X54.393 Y36.071
X54.466 Y36.086
X54.534 Y36.116
X54.594 Y36.160
X54.643 Y36.215
X54.680 Y36.279
X54.703 Y36.350
X54.711 Y36.421
X54.711 Y38.033
X54.848 Y38.094
X55.022 Y38.221
X55.167 Y38.381
X55.275 Y38.569
X55.342 Y38.774
X55.364 Y38.989
X55.342 Y39.204
X55.275 Y39.410
X55.167 Y39.597
X55.022 Y39.757
X54.848 Y39.884
X54.650 Y39.972
X54.439 Y40.017
X54.223 Y40.017
G0 Z3.000
G0  X56.763 Y40.017
G0  Z3.000
G01 F400 Z0
G01 F400 Z-0.100
G01F400X56.551 Y39.972
X56.354 Y39.884
X56.179 Y39.757
X56.034 Y39.597
X55.926 Y39.410
X55.859 Y39.204
X55.837 Y38.989
X55.859 Y38.774
X55.926 Y38.569
X56.034 Y38.381
X56.179 Y38.221
X56.354 Y38.094
X56.541 Y38.010
X56.541 Y34.237
X46.750 Y34.237
X46.677 Y34.221
X46.609 Y34.191
X46.549 Y34.148
X46.500 Y34.092
X46.462 Y34.028
X46.440 Y33.957
X46.432 Y33.887
X46.367 Y29.768
X46.209 Y29.697
X46.040 Y29.574
X45.899 Y29.418
X45.794 Y29.237
X45.730 Y29.038
X45.708 Y28.829
X45.730 Y28.620
X45.794 Y28.421
X45.899 Y28.240
X46.040 Y28.084
X46.069 Y28.063
X46.081 Y28.024
X46.119 Y27.960
X46.168 Y27.905
X46.228 Y27.861
X46.296 Y27.831
X46.356 Y27.818
X46.356 Y17.076
X46.203 Y17.008
X46.031 Y16.884
X45.889 Y16.726
X45.783 Y16.542
X45.717 Y16.340
X45.695 Y16.129
X45.717 Y15.918
X45.783 Y15.716
X45.889 Y15.532
X46.031 Y15.374
X46.203 Y15.250
X46.397 Y15.163
X46.605 Y15.119
X46.817 Y15.119
X47.024 Y15.163
X47.218 Y15.250
X47.390 Y15.374
X47.532 Y15.532
X47.638 Y15.716
X47.704 Y15.918
X47.726 Y16.129
X47.704 Y16.340
X47.638 Y16.542
X47.532 Y16.726
X47.390 Y16.884
X47.218 Y17.008
X47.065 Y17.076
X47.065 Y27.895
X47.212 Y27.961
X47.382 Y28.084
X47.522 Y28.240
X47.627 Y28.421
X47.692 Y28.620
X47.713 Y28.829
X47.692 Y29.038
X47.627 Y29.237
X47.522 Y29.418
X47.382 Y29.574
X47.212 Y29.697
X47.080 Y29.756
X47.136 Y33.531
X56.933 Y33.531
X57.006 Y33.546
X57.074 Y33.576
X57.134 Y33.620
X57.183 Y33.675
X57.220 Y33.739
X57.243 Y33.810
X57.251 Y33.881
X57.251 Y38.033
X57.388 Y38.094
X57.562 Y38.221
X57.707 Y38.381
X57.815 Y38.569
X57.882 Y38.774
X57.904 Y38.989
X57.882 Y39.204
X57.815 Y39.410
X57.707 Y39.597
X57.562 Y39.757
X57.388 Y39.884
X57.190 Y39.972
X56.979 Y40.017
X56.763 Y40.017
G0 Z3.000
G0  X49.143 Y40.017
G0  Z3.000
G01 F400 Z0
G01 F400 Z-0.100
G01F400X48.931 Y39.972
X48.734 Y39.884
X48.559 Y39.757
X48.414 Y39.597
X48.306 Y39.410
X48.239 Y39.204
X48.217 Y38.989
X48.239 Y38.774
X48.306 Y38.569
X48.414 Y38.381
X48.559 Y38.221
X48.734 Y38.094
X48.931 Y38.006
X49.143 Y37.961
X49.359 Y37.961
X49.570 Y38.006
X49.768 Y38.094
X49.942 Y38.221
X50.087 Y38.381
X50.195 Y38.569
X50.262 Y38.774
X50.284 Y38.989
X50.262 Y39.204
X50.195 Y39.410
X50.087 Y39.597
X49.942 Y39.757
X49.768 Y39.884
X49.570 Y39.972
X49.359 Y40.017
X49.143 Y40.017
G0 Z3.000
G0  X51.683 Y40.017
G0  Z3.000
G01 F400 Z0
G01 F400 Z-0.100
G01F400X51.471 Y39.972
X51.274 Y39.884
X51.099 Y39.757
X50.954 Y39.597
X50.846 Y39.410
X50.779 Y39.204
X50.757 Y38.989
X50.779 Y38.774
X50.846 Y38.569
X50.954 Y38.381
X51.099 Y38.221
X51.274 Y38.094
X51.471 Y38.006
X51.683 Y37.961
X51.899 Y37.961
X52.110 Y38.006
X52.308 Y38.094
X52.482 Y38.221
X52.627 Y38.381
X52.735 Y38.569
X52.802 Y38.774
X52.824 Y38.989
X52.802 Y39.204
X52.735 Y39.410
X52.627 Y39.597
X52.482 Y39.757
X52.308 Y39.884
X52.110 Y39.972
X51.899 Y40.017
X51.683 Y40.017
G0 Z3.000
G0  X23.742 Y40.017
G0  Z3.000
G01 F400 Z0
G01 F400 Z-0.100
G01F400X23.531 Y39.972
X23.334 Y39.884
X23.159 Y39.757
X23.014 Y39.597
X22.906 Y39.410
X22.839 Y39.204
X22.817 Y38.989
X22.839 Y38.774
X22.906 Y38.569
X23.014 Y38.381
X23.159 Y38.221
X23.334 Y38.094
X23.531 Y38.006
X23.742 Y37.961
X23.959 Y37.961
X24.170 Y38.006
X24.367 Y38.094
X24.542 Y38.221
X24.687 Y38.381
X24.795 Y38.569
X24.862 Y38.774
X24.884 Y38.989
X24.862 Y39.204
X24.795 Y39.410
X24.687 Y39.597
X24.542 Y39.757
X24.367 Y39.884
X24.170 Y39.972
X23.959 Y40.017
X23.742 Y40.017
G0 Z3.000
G0  X26.283 Y40.017
G0  Z3.000
G01 F400 Z0
G01 F400 Z-0.100
G01F400X26.071 Y39.972
X25.874 Y39.884
X25.699 Y39.757
X25.554 Y39.597
X25.446 Y39.410
X25.379 Y39.204
X25.357 Y38.989
X25.379 Y38.774
X25.446 Y38.569
X25.554 Y38.381
X25.699 Y38.221
X25.874 Y38.094
X26.071 Y38.006
X26.283 Y37.961
X26.499 Y37.961
X26.710 Y38.006
X26.908 Y38.094
X27.082 Y38.221
X27.227 Y38.381
X27.335 Y38.569
X27.402 Y38.774
X27.424 Y38.989
X27.402 Y39.204
X27.335 Y39.410
X27.227 Y39.597
X27.082 Y39.757
X26.908 Y39.884
X26.710 Y39.972
X26.499 Y40.017
X26.283 Y40.017
G0 Z3.000
G0  X18.688 Y40.017
G0  Z3.000
G01 F400 Z0
G01 F400 Z-0.100
G01F400X18.477 Y39.972
X18.279 Y39.884
X18.104 Y39.757
X17.960 Y39.597
X17.852 Y39.410
X17.785 Y39.204
X17.762 Y38.989
X17.785 Y38.774
X17.852 Y38.569
X17.960 Y38.381
X18.104 Y38.221
X18.279 Y38.094
X18.477 Y38.006
X18.688 Y37.961
X18.904 Y37.961
X19.116 Y38.006
X19.313 Y38.094
X19.488 Y38.221
X19.632 Y38.381
X19.740 Y38.569
X19.807 Y38.774
X19.830 Y38.989
X19.807 Y39.204
X19.740 Y39.410
X19.632 Y39.597
X19.488 Y39.757
X19.313 Y39.884
X19.116 Y39.972
X18.904 Y40.017
X18.688 Y40.017
G0 Z3.000
G0  X21.203 Y40.017
G0  Z3.000
G01 F400 Z0
G01 F400 Z-0.100
G01F400X20.991 Y39.972
X20.794 Y39.884
X20.619 Y39.757
X20.474 Y39.597
X20.366 Y39.410
X20.299 Y39.204
X20.277 Y38.989
X20.299 Y38.774
X20.366 Y38.569
X20.474 Y38.381
X20.619 Y38.221
X20.794 Y38.094
X20.991 Y38.006
X21.203 Y37.961
X21.419 Y37.961
X21.630 Y38.006
X21.828 Y38.094
X22.002 Y38.221
X22.147 Y38.381
X22.255 Y38.569
X22.322 Y38.774
X22.344 Y38.989
X22.322 Y39.204
X22.255 Y39.410
X22.147 Y39.597
X22.002 Y39.757
X21.828 Y39.884
X21.630 Y39.972
X21.419 Y40.017
X21.203 Y40.017
G0 Z3.000
G0  X33.903 Y40.017
G0  Z3.000
G01 F400 Z0
G01 F400 Z-0.100
G01F400X33.691 Y39.972
X33.494 Y39.884
X33.319 Y39.757
X33.174 Y39.597
X33.066 Y39.410
X32.999 Y39.204
X32.977 Y38.989
X32.999 Y38.774
X33.066 Y38.569
X33.174 Y38.381
X33.319 Y38.221
X33.494 Y38.094
X33.691 Y38.006
X33.903 Y37.961
X34.119 Y37.961
X34.330 Y38.006
X34.528 Y38.094
X34.702 Y38.221
X34.847 Y38.381
X34.955 Y38.569
X35.022 Y38.774
X35.044 Y38.989
X35.022 Y39.204
X34.955 Y39.410
X34.847 Y39.597
X34.702 Y39.757
X34.528 Y39.884
X34.330 Y39.972
X34.119 Y40.017
X33.903 Y40.017
G0 Z3.000
G0  X36.443 Y40.017
G0  Z3.000
G01 F400 Z0
G01 F400 Z-0.100
G01F400X36.231 Y39.972
X36.034 Y39.884
X35.859 Y39.757
X35.714 Y39.597
X35.606 Y39.410
X35.539 Y39.204
X35.517 Y38.989
X35.539 Y38.774
X35.606 Y38.569
X35.714 Y38.381
X35.859 Y38.221
X36.034 Y38.094
X36.231 Y38.006
X36.443 Y37.961
X36.659 Y37.961
X36.870 Y38.006
X37.068 Y38.094
X37.242 Y38.221
X37.387 Y38.381
X37.495 Y38.569
X37.562 Y38.774
X37.584 Y38.989
X37.562 Y39.204
X37.495 Y39.410
X37.387 Y39.597
X37.242 Y39.757
X37.068 Y39.884
X36.870 Y39.972
X36.659 Y40.017
X36.443 Y40.017
G0 Z3.000
G0  X28.823 Y40.017
G0  Z3.000
G01 F400 Z0
G01 F400 Z-0.100
G01F400X28.611 Y39.972
X28.414 Y39.884
X28.239 Y39.757
X28.094 Y39.597
X27.986 Y39.410
X27.919 Y39.204
X27.897 Y38.989
X27.919 Y38.774
X27.986 Y38.569
X28.094 Y38.381
X28.239 Y38.221
X28.414 Y38.094
X28.611 Y38.006
X28.823 Y37.961
X29.039 Y37.961
X29.250 Y38.006
X29.448 Y38.094
X29.622 Y38.221
X29.767 Y38.381
X29.875 Y38.569
X29.942 Y38.774
X29.964 Y38.989
X29.942 Y39.204
X29.875 Y39.410
X29.767 Y39.597
X29.622 Y39.757
X29.448 Y39.884
X29.250 Y39.972
X29.039 Y40.017
X28.823 Y40.017
G0 Z3.000
G0  X31.363 Y40.017
G0  Z3.000
G01 F400 Z0
G01 F400 Z-0.100
G01F400X31.151 Y39.972
X30.954 Y39.884
X30.779 Y39.757
X30.634 Y39.597
X30.526 Y39.410
X30.459 Y39.204
X30.437 Y38.989
X30.459 Y38.774
X30.526 Y38.569
X30.634 Y38.381
X30.779 Y38.221
X30.954 Y38.094
X31.151 Y38.006
X31.363 Y37.961
X31.579 Y37.961
X31.790 Y38.006
X31.988 Y38.094
X32.162 Y38.221
X32.307 Y38.381
X32.415 Y38.569
X32.482 Y38.774
X32.504 Y38.989
X32.482 Y39.204
X32.415 Y39.410
X32.307 Y39.597
X32.162 Y39.757
X31.988 Y39.884
X31.790 Y39.972
X31.579 Y40.017
X31.363 Y40.017
G0 Z3.000
G0  X13.583 Y40.017
G0  Z3.000
G01 F400 Z0
G01 F400 Z-0.100
G01F400X13.371 Y39.972
X13.174 Y39.884
X12.999 Y39.757
X12.854 Y39.597
X12.746 Y39.410
X12.679 Y39.204
X12.657 Y38.989
X12.679 Y38.774
X12.746 Y38.569
X12.854 Y38.381
X12.999 Y38.221
X13.174 Y38.094
X13.371 Y38.006
X13.583 Y37.961
X13.799 Y37.961
X14.010 Y38.006
X14.208 Y38.094
X14.382 Y38.221
X14.527 Y38.381
X14.635 Y38.569
X14.702 Y38.774
X14.724 Y38.989
X14.702 Y39.204
X14.635 Y39.410
X14.527 Y39.597
X14.382 Y39.757
X14.208 Y39.884
X14.010 Y39.972
X13.799 Y40.017
X13.583 Y40.017
G0 Z3.000
G0  X16.148 Y40.017
G0  Z3.000
G01 F400 Z0
G01 F400 Z-0.100
G01F400X15.937 Y39.972
X15.739 Y39.884
X15.564 Y39.757
X15.420 Y39.597
X15.312 Y39.410
X15.245 Y39.204
X15.222 Y38.989
X15.245 Y38.774
X15.312 Y38.569
X15.420 Y38.381
X15.564 Y38.221
X15.739 Y38.094
X15.937 Y38.006
X16.148 Y37.961
X16.364 Y37.961
X16.576 Y38.006
X16.773 Y38.094
X16.948 Y38.221
X17.092 Y38.381
X17.200 Y38.569
X17.267 Y38.774
X17.290 Y38.989
X17.267 Y39.204
X17.200 Y39.410
X17.092 Y39.597
X16.948 Y39.757
X16.773 Y39.884
X16.576 Y39.972
X16.364 Y40.017
X16.148 Y40.017
G0 Z3.000
G0  X11.043 Y40.017
G0  Z3.000
G01 F400 Z0
G01 F400 Z-0.100
G01F400X10.831 Y39.972
X10.634 Y39.884
X10.459 Y39.757
X10.314 Y39.597
X10.206 Y39.410
X10.176 Y39.317
X3.544 Y39.317
X3.472 Y39.301
X3.404 Y39.271
X3.344 Y39.227
X3.294 Y39.172
X3.257 Y39.108
X3.234 Y39.037
X3.227 Y38.966
X3.227 Y18.641
X3.234 Y18.570
X3.257 Y18.499
X3.294 Y18.435
X3.344 Y18.380
X3.404 Y18.336
X3.472 Y18.306
X3.544 Y18.291
X3.613 Y18.291
X15.901 Y18.315
X15.901 Y17.005
X15.761 Y16.942
X15.602 Y16.827
X15.471 Y16.681
X15.373 Y16.511
X15.312 Y16.324
X15.291 Y16.129
X15.312 Y15.934
X15.373 Y15.747
X15.471 Y15.577
X15.602 Y15.431
X15.761 Y15.316
X15.901 Y15.253
X15.901 Y8.506
X15.909 Y8.435
X15.932 Y8.365
X15.969 Y8.300
X16.018 Y8.245
X16.079 Y8.202
X16.146 Y8.171
X16.219 Y8.156
X56.933 Y8.156
X57.006 Y8.171
X57.074 Y8.202
X57.134 Y8.245
X57.183 Y8.300
X57.220 Y8.365
X57.243 Y8.435
X57.251 Y8.507
X57.226 Y15.182
X57.378 Y15.250
X57.550 Y15.374
X57.692 Y15.532
X57.798 Y15.716
X57.864 Y15.918
X57.886 Y16.129
X57.864 Y16.340
X57.798 Y16.542
X57.692 Y16.726
X57.550 Y16.884
X57.378 Y17.008
X57.184 Y17.095
X56.977 Y17.139
X56.765 Y17.139
X56.557 Y17.095
X56.363 Y17.008
X56.191 Y16.884
X56.049 Y16.726
X55.943 Y16.542
X55.877 Y16.340
X55.855 Y16.129
X55.877 Y15.918
X55.943 Y15.716
X56.049 Y15.532
X56.191 Y15.374
X56.363 Y15.250
X56.516 Y15.181
X56.540 Y8.862
X16.611 Y8.862
X16.611 Y15.276
X16.700 Y15.316
X16.859 Y15.431
X16.991 Y15.577
X17.089 Y15.747
X17.149 Y15.934
X17.170 Y16.129
X17.149 Y16.324
X17.089 Y16.511
X16.991 Y16.681
X16.859 Y16.827
X16.700 Y16.942
X16.611 Y16.982
X16.611 Y18.672
X16.603 Y18.743
X16.580 Y18.813
X16.543 Y18.878
X16.494 Y18.933
X16.434 Y18.977
X16.366 Y19.007
X16.293 Y19.022
X16.224 Y19.022
X3.936 Y18.998
X3.936 Y38.611
X10.193 Y38.611
X10.206 Y38.569
X10.314 Y38.381
X10.459 Y38.221
X10.634 Y38.094
X10.831 Y38.006
X11.043 Y37.961
X11.259 Y37.961
X11.470 Y38.006
X11.668 Y38.094
X11.842 Y38.221
X11.987 Y38.381
X12.095 Y38.569
X12.162 Y38.774
X12.184 Y38.989
X12.162 Y39.204
X12.095 Y39.410
X11.987 Y39.597
X11.842 Y39.757
X11.668 Y39.884
X11.470 Y39.972
X11.259 Y40.017
X11.043 Y40.017
G0 Z3.000
G0  X38.983 Y39.966
G0  Z3.000
G01 F400 Z0
G01 F400 Z-0.100
G01F400X38.771 Y39.921
X38.574 Y39.834
X38.399 Y39.706
X38.254 Y39.546
X38.146 Y39.359
X38.079 Y39.153
X38.057 Y38.938
X38.079 Y38.723
X38.146 Y38.518
X38.254 Y38.331
X38.399 Y38.170
X38.574 Y38.043
X38.771 Y37.955
X38.983 Y37.910
X39.199 Y37.910
X39.410 Y37.955
X39.608 Y38.043
X39.782 Y38.170
X39.927 Y38.331
X40.035 Y38.518
X40.102 Y38.723
X40.124 Y38.938
X40.102 Y39.153
X40.035 Y39.359
X39.927 Y39.546
X39.782 Y39.706
X39.608 Y39.834
X39.410 Y39.921
X39.199 Y39.966
X38.983 Y39.966
G0 Z3.000
G0  X13.586 Y37.446
G0  Z3.000
G01 F400 Z0
G01 F400 Z-0.100
G01F400X13.381 Y37.403
X13.189 Y37.317
X13.020 Y37.194
X12.879 Y37.038
X12.774 Y36.857
X12.710 Y36.657
X12.688 Y36.449
X12.710 Y36.241
X12.774 Y36.041
X12.879 Y35.860
X13.020 Y35.704
X13.189 Y35.581
X13.381 Y35.495
X13.586 Y35.452
X13.795 Y35.452
X14.001 Y35.495
X14.192 Y35.581
X14.362 Y35.704
X14.502 Y35.860
X14.607 Y36.041
X14.671 Y36.241
X14.693 Y36.449
X14.671 Y36.657
X14.607 Y36.857
X14.502 Y37.038
X14.362 Y37.194
X14.192 Y37.317
X14.001 Y37.403
X13.795 Y37.446
X13.586 Y37.446
G0 Z3.000
G0  X35.701 Y37.299
G0  Z3.000
G01 F400 Z0
G01 F400 Z-0.100
G01F400X35.701 Y35.599
X37.401 Y35.599
X37.401 Y37.299
X35.701 Y37.299
G0 Z3.000
G0  X38.976 Y37.295
G0  Z3.000
G01 F400 Z0
G01 F400 Z-0.100
G01F400X38.803 Y37.258
X38.640 Y37.185
X38.496 Y37.081
X38.377 Y36.949
X38.288 Y36.795
X38.233 Y36.626
X38.215 Y36.449
X38.233 Y36.272
X38.288 Y36.103
X38.377 Y35.949
X38.496 Y35.817
X38.640 Y35.713
X38.803 Y35.640
X38.976 Y35.603
X39.154 Y35.603
X39.328 Y35.640
X39.490 Y35.713
X39.634 Y35.817
X39.753 Y35.949
X39.842 Y36.103
X39.897 Y36.272
X39.916 Y36.449
X39.897 Y36.626
X39.842 Y36.795
X39.753 Y36.949
X39.634 Y37.081
X39.490 Y37.185
X39.328 Y37.258
X39.154 Y37.295
X38.976 Y37.295
G0 Z3.000
G0  X59.306 Y34.906
G0  Z3.000
G01 F400 Z0
G01 F400 Z-0.100
G01F400X59.101 Y34.863
X58.909 Y34.777
X58.740 Y34.654
X58.599 Y34.498
X58.495 Y34.317
X58.430 Y34.117
X58.408 Y33.909
X58.430 Y33.700
X58.495 Y33.501
X58.599 Y33.320
X58.740 Y33.164
X58.909 Y33.041
X59.101 Y32.955
X59.306 Y32.912
X59.515 Y32.912
X59.721 Y32.955
X59.912 Y33.041
X60.082 Y33.164
X60.222 Y33.320
X60.327 Y33.501
X60.392 Y33.700
X60.413 Y33.909
X60.392 Y34.117
X60.327 Y34.317
X60.222 Y34.498
X60.082 Y34.654
X59.912 Y34.777
X59.721 Y34.863
X59.515 Y34.906
X59.306 Y34.906
G0 Z3.000
G0  X11.046 Y34.906
G0  Z3.000
G01 F400 Z0
G01 F400 Z-0.100
G01F400X10.841 Y34.863
X10.649 Y34.777
X10.480 Y34.654
X10.339 Y34.498
X10.235 Y34.317
X10.170 Y34.117
X10.148 Y33.909
X10.170 Y33.700
X10.235 Y33.501
X10.339 Y33.320
X10.480 Y33.164
X10.649 Y33.041
X10.841 Y32.955
X11.046 Y32.912
X11.255 Y32.912
X11.460 Y32.955
X11.652 Y33.041
X11.822 Y33.164
X11.962 Y33.320
X12.067 Y33.501
X12.132 Y33.700
X12.153 Y33.909
X12.132 Y34.117
X12.067 Y34.317
X11.962 Y34.498
X11.822 Y34.654
X11.652 Y34.777
X11.460 Y34.863
X11.255 Y34.906
X11.046 Y34.906
G0 Z3.000
G0  X61.778 Y33.010
G0  Z3.000
G01 F400 Z0
G01 F400 Z-0.100
G01F400X61.441 Y32.939
X61.126 Y32.798
X60.846 Y32.595
X60.616 Y32.339
X60.443 Y32.040
X60.336 Y31.712
X60.300 Y31.369
X60.336 Y31.026
X60.443 Y30.698
X60.616 Y30.399
X60.846 Y30.143
X61.126 Y29.940
X61.441 Y29.800
X61.778 Y29.728
X62.123 Y29.728
X62.461 Y29.800
X62.776 Y29.940
X63.055 Y30.143
X63.286 Y30.399
X63.458 Y30.698
X63.565 Y31.026
X63.601 Y31.369
X63.565 Y31.712
X63.458 Y32.040
X63.286 Y32.339
X63.055 Y32.595
X62.776 Y32.798
X62.461 Y32.939
X62.123 Y33.010
X61.778 Y33.010
G0 Z3.000
G0  X41.526 Y29.826
G0  Z3.000
G01 F400 Z0
G01 F400 Z-0.100
G01F400X41.321 Y29.783
X41.129 Y29.697
X40.960 Y29.574
X40.819 Y29.418
X40.715 Y29.237
X40.650 Y29.038
X40.628 Y28.829
X40.650 Y28.620
X40.715 Y28.421
X40.819 Y28.240
X40.960 Y28.084
X41.129 Y27.961
X41.321 Y27.875
X41.526 Y27.832
X41.735 Y27.832
X41.941 Y27.875
X42.132 Y27.961
X42.302 Y28.084
X42.442 Y28.240
X42.547 Y28.421
X42.611 Y28.620
X42.633 Y28.829
X42.611 Y29.038
X42.547 Y29.237
X42.442 Y29.418
X42.302 Y29.574
X42.132 Y29.697
X41.941 Y29.783
X41.735 Y29.826
X41.526 Y29.826
G0 Z3.000
G0  X28.826 Y29.826
G0  Z3.000
G01 F400 Z0
G01 F400 Z-0.100
G01F400X28.621 Y29.783
X28.429 Y29.697
X28.260 Y29.574
X28.119 Y29.418
X28.015 Y29.237
X27.950 Y29.038
X27.928 Y28.829
X27.950 Y28.620
X28.015 Y28.421
X28.119 Y28.240
X28.260 Y28.084
X28.429 Y27.961
X28.576 Y27.895
X28.601 Y16.482
X22.178 Y16.482
X22.169 Y16.511
X22.071 Y16.681
X21.939 Y16.827
X21.780 Y16.942
X21.601 Y17.022
X21.409 Y17.063
X21.212 Y17.063
X21.020 Y17.022
X20.841 Y16.942
X20.682 Y16.827
X20.551 Y16.681
X20.453 Y16.511
X20.392 Y16.324
X20.371 Y16.129
X20.392 Y15.934
X20.453 Y15.747
X20.551 Y15.577
X20.682 Y15.431
X20.841 Y15.316
X21.020 Y15.236
X21.212 Y15.195
X21.409 Y15.195
X21.601 Y15.236
X21.780 Y15.316
X21.939 Y15.431
X22.071 Y15.577
X22.169 Y15.747
X22.178 Y15.776
X28.993 Y15.776
X29.066 Y15.791
X29.134 Y15.822
X29.194 Y15.865
X29.243 Y15.920
X29.280 Y15.985
X29.303 Y16.055
X29.311 Y16.126
X29.286 Y27.896
X29.432 Y27.961
X29.602 Y28.084
X29.742 Y28.240
X29.847 Y28.421
X29.912 Y28.620
X29.933 Y28.829
X29.912 Y29.038
X29.847 Y29.237
X29.742 Y29.418
X29.602 Y29.574
X29.432 Y29.697
X29.241 Y29.783
X29.035 Y29.826
X28.826 Y29.826
G0 Z3.000
G0  X20.270 Y27.330
G0  Z3.000
G01 F400 Z0
G01 F400 Z-0.100
G01F400X20.270 Y25.248
X22.351 Y25.248
X22.351 Y27.330
X20.270 Y27.330
G0 Z3.000
G0  X18.662 Y27.324
G0  Z3.000
G01 F400 Z0
G01 F400 Z-0.100
G01F400X18.449 Y27.279
X18.250 Y27.190
X18.074 Y27.063
X17.928 Y26.901
X17.820 Y26.712
X17.753 Y26.505
X17.730 Y26.289
X17.753 Y26.073
X17.820 Y25.866
X17.928 Y25.677
X18.074 Y25.516
X18.250 Y25.388
X18.449 Y25.299
X18.662 Y25.254
X18.879 Y25.254
X19.092 Y25.299
X19.291 Y25.388
X19.467 Y25.516
X19.613 Y25.677
X19.722 Y25.866
X19.789 Y26.073
X19.812 Y26.289
X19.789 Y26.505
X19.722 Y26.712
X19.613 Y26.901
X19.467 Y27.063
X19.291 Y27.190
X19.092 Y27.279
X18.879 Y27.324
X18.662 Y27.324
G0 Z3.000
G0  X33.906 Y24.746
G0  Z3.000
G01 F400 Z0
G01 F400 Z-0.100
G01F400X33.701 Y24.703
X33.509 Y24.617
X33.484 Y24.599
X33.211 Y24.599
X33.211 Y24.352
X33.199 Y24.338
X33.095 Y24.157
X33.030 Y23.957
X33.008 Y23.749
X33.030 Y23.541
X33.095 Y23.341
X33.199 Y23.160
X33.211 Y23.146
X33.211 Y22.899
X33.484 Y22.899
X33.509 Y22.881
X33.701 Y22.795
X33.906 Y22.752
X34.115 Y22.752
X34.321 Y22.795
X34.512 Y22.881
X34.537 Y22.899
X34.911 Y22.899
X34.911 Y23.315
X34.927 Y23.341
X34.992 Y23.541
X35.013 Y23.749
X34.992 Y23.957
X34.927 Y24.157
X34.911 Y24.183
X34.911 Y24.599
X34.537 Y24.599
X34.512 Y24.617
X34.321 Y24.703
X34.115 Y24.746
X33.906 Y24.746
G0 Z3.000
G0  X13.586 Y24.746
G0  Z3.000
G01 F400 Z0
G01 F400 Z-0.100
G01F400X13.381 Y24.703
X13.189 Y24.617
X13.020 Y24.494
X12.879 Y24.338
X12.774 Y24.157
X12.710 Y23.957
X12.688 Y23.749
X12.710 Y23.541
X12.774 Y23.341
X12.879 Y23.160
X13.020 Y23.004
X13.189 Y22.881
X13.381 Y22.795
X13.586 Y22.752
X13.795 Y22.752
X14.001 Y22.795
X14.192 Y22.881
X14.362 Y23.004
X14.502 Y23.160
X14.607 Y23.341
X14.671 Y23.541
X14.693 Y23.749
X14.671 Y23.957
X14.607 Y24.157
X14.502 Y24.338
X14.362 Y24.494
X14.192 Y24.617
X14.001 Y24.703
X13.795 Y24.746
X13.586 Y24.746
G0 Z3.000
G0  X59.306 Y24.746
G0  Z3.000
G01 F400 Z0
G01 F400 Z-0.100
G01F400X59.101 Y24.703
X58.909 Y24.617
X58.740 Y24.494
X58.599 Y24.338
X58.495 Y24.157
X58.430 Y23.957
X58.408 Y23.749
X58.430 Y23.541
X58.495 Y23.341
X58.599 Y23.160
X58.740 Y23.004
X58.909 Y22.881
X59.101 Y22.795
X59.306 Y22.752
X59.515 Y22.752
X59.721 Y22.795
X59.912 Y22.881
X60.082 Y23.004
X60.222 Y23.160
X60.327 Y23.341
X60.392 Y23.541
X60.413 Y23.749
X60.392 Y23.957
X60.327 Y24.157
X60.222 Y24.338
X60.082 Y24.494
X59.912 Y24.617
X59.721 Y24.703
X59.515 Y24.746
X59.306 Y24.746
G0 Z3.000
G0  X56.766 Y24.746
G0  Z3.000
G01 F400 Z0
G01 F400 Z-0.100
G01F400X56.561 Y24.703
X56.369 Y24.617
X56.200 Y24.494
X56.059 Y24.338
X55.955 Y24.157
X55.890 Y23.957
X55.868 Y23.749
X55.890 Y23.541
X55.955 Y23.341
X56.059 Y23.160
X56.200 Y23.004
X56.369 Y22.881
X56.561 Y22.795
X56.766 Y22.752
X56.975 Y22.752
X57.181 Y22.795
X57.372 Y22.881
X57.542 Y23.004
X57.682 Y23.160
X57.787 Y23.341
X57.852 Y23.541
X57.873 Y23.749
X57.852 Y23.957
X57.787 Y24.157
X57.682 Y24.338
X57.542 Y24.494
X57.372 Y24.617
X57.181 Y24.703
X56.975 Y24.746
X56.766 Y24.746
G0 Z3.000
G0  X61.846 Y24.746
G0  Z3.000
G01 F400 Z0
G01 F400 Z-0.100
G01F400X61.641 Y24.703
X61.449 Y24.617
X61.280 Y24.494
X61.139 Y24.338
X61.035 Y24.157
X60.970 Y23.957
X60.948 Y23.749
X60.970 Y23.541
X61.035 Y23.341
X61.139 Y23.160
X61.280 Y23.004
X61.449 Y22.881
X61.641 Y22.795
X61.846 Y22.752
X62.055 Y22.752
X62.261 Y22.795
X62.452 Y22.881
X62.622 Y23.004
X62.762 Y23.160
X62.867 Y23.341
X62.931 Y23.541
X62.953 Y23.749
X62.931 Y23.957
X62.867 Y24.157
X62.762 Y24.338
X62.622 Y24.494
X62.452 Y24.617
X62.261 Y24.703
X62.055 Y24.746
X61.846 Y24.746
G0 Z3.000
G0  X11.046 Y24.746
G0  Z3.000
G01 F400 Z0
G01 F400 Z-0.100
G01F400X10.841 Y24.703
X10.649 Y24.617
X10.480 Y24.494
X10.339 Y24.338
X10.235 Y24.157
X10.170 Y23.957
X10.148 Y23.749
X10.170 Y23.541
X10.235 Y23.341
X10.339 Y23.160
X10.480 Y23.004
X10.649 Y22.881
X10.841 Y22.795
X11.046 Y22.752
X11.255 Y22.752
X11.460 Y22.795
X11.652 Y22.881
X11.822 Y23.004
X11.962 Y23.160
X12.067 Y23.341
X12.132 Y23.541
X12.153 Y23.749
X12.132 Y23.957
X12.067 Y24.157
X11.962 Y24.338
X11.822 Y24.494
X11.652 Y24.617
X11.460 Y24.703
X11.255 Y24.746
X11.046 Y24.746
G0 Z3.000
G0  X41.526 Y24.746
G0  Z3.000
G01 F400 Z0
G01 F400 Z-0.100
G01F400X41.321 Y24.703
X41.129 Y24.617
X40.960 Y24.494
X40.819 Y24.338
X40.715 Y24.157
X40.650 Y23.957
X40.628 Y23.749
X40.650 Y23.541
X40.715 Y23.341
X40.819 Y23.160
X40.960 Y23.004
X41.129 Y22.881
X41.321 Y22.795
X41.526 Y22.752
X41.735 Y22.752
X41.941 Y22.795
X42.132 Y22.881
X42.302 Y23.004
X42.442 Y23.160
X42.547 Y23.341
X42.611 Y23.541
X42.633 Y23.749
X42.611 Y23.957
X42.547 Y24.157
X42.442 Y24.338
X42.302 Y24.494
X42.132 Y24.617
X41.941 Y24.703
X41.735 Y24.746
X41.526 Y24.746
G0 Z3.000
G0  X16.126 Y24.746
G0  Z3.000
G01 F400 Z0
G01 F400 Z-0.100
G01F400X15.921 Y24.703
X15.729 Y24.617
X15.560 Y24.494
X15.419 Y24.338
X15.315 Y24.157
X15.250 Y23.957
X15.228 Y23.749
X15.250 Y23.541
X15.315 Y23.341
X15.419 Y23.160
X15.560 Y23.004
X15.729 Y22.881
X15.921 Y22.795
X16.126 Y22.752
X16.335 Y22.752
X16.541 Y22.795
X16.732 Y22.881
X16.902 Y23.004
X17.042 Y23.160
X17.147 Y23.341
X17.212 Y23.541
X17.233 Y23.749
X17.212 Y23.957
X17.147 Y24.157
X17.042 Y24.338
X16.902 Y24.494
X16.732 Y24.617
X16.541 Y24.703
X16.335 Y24.746
X16.126 Y24.746
G0 Z3.000
G0  X23.747 Y24.734
G0  Z3.000
G01 F400 Z0
G01 F400 Z-0.100
G01F400X23.545 Y24.691
X23.356 Y24.606
X23.188 Y24.485
X23.050 Y24.331
X22.946 Y24.152
X22.882 Y23.955
X22.861 Y23.749
X22.882 Y23.543
X22.946 Y23.346
X23.050 Y23.167
X23.188 Y23.013
X23.356 Y22.892
X23.545 Y22.807
X23.747 Y22.764
X23.954 Y22.764
X24.157 Y22.807
X24.346 Y22.892
X24.513 Y23.013
X24.652 Y23.167
X24.755 Y23.346
X24.819 Y23.543
X24.841 Y23.749
X24.819 Y23.955
X24.755 Y24.152
X24.652 Y24.331
X24.513 Y24.485
X24.346 Y24.606
X24.157 Y24.691
X23.954 Y24.734
X23.747 Y24.734
G0 Z3.000
G0  X49.147 Y24.734
G0  Z3.000
G01 F400 Z0
G01 F400 Z-0.100
G01F400X48.945 Y24.691
X48.756 Y24.606
X48.588 Y24.485
X48.450 Y24.331
X48.346 Y24.152
X48.282 Y23.955
X48.261 Y23.749
X48.282 Y23.543
X48.346 Y23.346
X48.450 Y23.167
X48.588 Y23.013
X48.756 Y22.892
X48.945 Y22.807
X49.147 Y22.764
X49.354 Y22.764
X49.557 Y22.807
X49.746 Y22.892
X49.913 Y23.013
X50.052 Y23.167
X50.155 Y23.346
X50.219 Y23.543
X50.241 Y23.749
X50.219 Y23.955
X50.155 Y24.152
X50.052 Y24.331
X49.913 Y24.485
X49.746 Y24.606
X49.557 Y24.691
X49.354 Y24.734
X49.147 Y24.734
G0 Z3.000
G0  X36.462 Y24.595
G0  Z3.000
G01 F400 Z0
G01 F400 Z-0.100
G01F400X36.288 Y24.558
X36.126 Y24.485
X35.982 Y24.381
X35.863 Y24.249
X35.774 Y24.095
X35.719 Y23.926
X35.700 Y23.749
X35.719 Y23.572
X35.774 Y23.403
X35.863 Y23.249
X35.982 Y23.117
X36.126 Y23.013
X36.288 Y22.940
X36.462 Y22.903
X36.640 Y22.903
X36.813 Y22.940
X36.976 Y23.013
X37.120 Y23.117
X37.239 Y23.249
X37.327 Y23.403
X37.382 Y23.572
X37.401 Y23.749
X37.382 Y23.926
X37.327 Y24.095
X37.239 Y24.249
X37.120 Y24.381
X36.976 Y24.485
X36.813 Y24.558
X36.640 Y24.595
X36.462 Y24.595
G0 Z3.000
G0  X53.290 Y22.250
G0  Z3.000
G01 F400 Z0
G01 F400 Z-0.100
G01F400X53.290 Y20.168
X55.371 Y20.168
X55.371 Y22.250
X53.290 Y22.250
G0 Z3.000
G0  X51.682 Y22.244
G0  Z3.000
G01 F400 Z0
G01 F400 Z-0.100
G01F400X51.469 Y22.199
X51.270 Y22.110
X51.094 Y21.983
X50.949 Y21.821
X50.840 Y21.632
X50.773 Y21.425
X50.750 Y21.209
X50.773 Y20.993
X50.840 Y20.786
X50.949 Y20.597
X51.094 Y20.436
X51.270 Y20.308
X51.469 Y20.219
X51.682 Y20.174
X51.899 Y20.174
X52.112 Y20.219
X52.311 Y20.308
X52.487 Y20.436
X52.633 Y20.597
X52.742 Y20.786
X52.809 Y20.993
X52.832 Y21.209
X52.809 Y21.425
X52.742 Y21.632
X52.633 Y21.821
X52.487 Y21.983
X52.311 Y22.110
X52.112 Y22.199
X51.899 Y22.244
X51.682 Y22.244
G0 Z3.000
G0  X38.986 Y22.206
G0  Z3.000
G01 F400 Z0
G01 F400 Z-0.100
G01F400X38.781 Y22.163
X38.589 Y22.077
X38.420 Y21.954
X38.279 Y21.798
X38.175 Y21.617
X38.110 Y21.418
X38.088 Y21.209
X38.110 Y21.001
X38.175 Y20.801
X38.279 Y20.620
X38.420 Y20.464
X38.589 Y20.341
X38.781 Y20.255
X38.986 Y20.212
X39.195 Y20.212
X39.401 Y20.255
X39.592 Y20.341
X39.762 Y20.464
X39.902 Y20.620
X40.007 Y20.801
X40.072 Y21.001
X40.093 Y21.209
X40.072 Y21.418
X40.007 Y21.617
X39.902 Y21.798
X39.762 Y21.954
X39.592 Y22.077
X39.401 Y22.163
X39.195 Y22.206
X38.986 Y22.206
G0 Z3.000
G0  X32.970 Y19.710
G0  Z3.000
G01 F400 Z0
G01 F400 Z-0.100
G01F400X32.970 Y17.628
X35.051 Y17.628
X35.051 Y19.710
X32.970 Y19.710
G0 Z3.000
G0  X31.362 Y19.704
G0  Z3.000
G01 F400 Z0
G01 F400 Z-0.100
G01F400X31.149 Y19.659
X30.950 Y19.570
X30.774 Y19.443
X30.629 Y19.281
X30.520 Y19.092
X30.453 Y18.885
X30.430 Y18.669
X30.453 Y18.453
X30.520 Y18.246
X30.629 Y18.057
X30.774 Y17.896
X30.950 Y17.768
X31.149 Y17.679
X31.362 Y17.634
X31.579 Y17.634
X31.792 Y17.679
X31.991 Y17.768
X32.167 Y17.896
X32.313 Y18.057
X32.422 Y18.246
X32.489 Y18.453
X32.511 Y18.669
X32.489 Y18.885
X32.422 Y19.092
X32.313 Y19.281
X32.167 Y19.443
X31.991 Y19.570
X31.792 Y19.659
X31.579 Y19.704
X31.362 Y19.704
G0 Z3.000
G0  X51.684 Y17.139
G0  Z3.000
G01 F400 Z0
G01 F400 Z-0.100
G01F400X51.477 Y17.095
X51.283 Y17.008
X51.111 Y16.884
X50.969 Y16.726
X50.863 Y16.542
X50.797 Y16.340
X50.775 Y16.129
X50.797 Y15.918
X50.863 Y15.716
X50.969 Y15.532
X51.111 Y15.374
X51.283 Y15.250
X51.477 Y15.163
X51.684 Y15.119
X51.897 Y15.119
X52.104 Y15.163
X52.298 Y15.250
X52.470 Y15.374
X52.612 Y15.532
X52.718 Y15.716
X52.784 Y15.918
X52.806 Y16.129
X52.784 Y16.340
X52.718 Y16.542
X52.612 Y16.726
X52.470 Y16.884
X52.298 Y17.008
X52.104 Y17.095
X51.897 Y17.139
X51.684 Y17.139
G0 Z3.000
G0  X49.145 Y17.139
G0  Z3.000
G01 F400 Z0
G01 F400 Z-0.100
G01F400X48.937 Y17.095
X48.743 Y17.008
X48.571 Y16.884
X48.429 Y16.726
X48.323 Y16.542
X48.257 Y16.340
X48.235 Y16.129
X48.257 Y15.918
X48.323 Y15.716
X48.429 Y15.532
X48.571 Y15.374
X48.743 Y15.250
X48.937 Y15.163
X49.145 Y15.119
X49.357 Y15.119
X49.564 Y15.163
X49.758 Y15.250
X49.930 Y15.374
X50.072 Y15.532
X50.178 Y15.716
X50.244 Y15.918
X50.266 Y16.129
X50.244 Y16.340
X50.178 Y16.542
X50.072 Y16.726
X49.930 Y16.884
X49.758 Y17.008
X49.564 Y17.095
X49.357 Y17.139
X49.145 Y17.139
G0 Z3.000
G0  X61.845 Y17.139
G0  Z3.000
G01 F400 Z0
G01 F400 Z-0.100
G01F400X61.637 Y17.095
X61.443 Y17.008
X61.271 Y16.884
X61.129 Y16.726
X61.023 Y16.542
X60.957 Y16.340
X60.935 Y16.129
X60.957 Y15.918
X61.023 Y15.716
X61.129 Y15.532
X61.271 Y15.374
X61.443 Y15.250
X61.637 Y15.163
X61.845 Y15.119
X62.057 Y15.119
X62.264 Y15.163
X62.458 Y15.250
X62.630 Y15.374
X62.772 Y15.532
X62.878 Y15.716
X62.944 Y15.918
X62.966 Y16.129
X62.944 Y16.340
X62.878 Y16.542
X62.772 Y16.726
X62.630 Y16.884
X62.458 Y17.008
X62.264 Y17.095
X62.057 Y17.139
X61.845 Y17.139
G0 Z3.000
G0  X54.225 Y17.139
G0  Z3.000
G01 F400 Z0
G01 F400 Z-0.100
G01F400X54.017 Y17.095
X53.823 Y17.008
X53.651 Y16.884
X53.509 Y16.726
X53.403 Y16.542
X53.337 Y16.340
X53.315 Y16.129
X53.337 Y15.918
X53.403 Y15.716
X53.509 Y15.532
X53.651 Y15.374
X53.823 Y15.250
X54.017 Y15.163
X54.225 Y15.119
X54.437 Y15.119
X54.644 Y15.163
X54.838 Y15.250
X55.010 Y15.374
X55.152 Y15.532
X55.258 Y15.716
X55.324 Y15.918
X55.346 Y16.129
X55.324 Y16.340
X55.258 Y16.542
X55.152 Y16.726
X55.010 Y16.884
X54.838 Y17.008
X54.644 Y17.095
X54.437 Y17.139
X54.225 Y17.139
G0 Z3.000
G0  X33.906 Y17.126
G0  Z3.000
G01 F400 Z0
G01 F400 Z-0.100
G01F400X33.701 Y17.083
X33.509 Y16.997
X33.340 Y16.874
X33.199 Y16.718
X33.095 Y16.537
X33.030 Y16.338
X33.008 Y16.129
X33.030 Y15.921
X33.095 Y15.721
X33.199 Y15.540
X33.340 Y15.384
X33.509 Y15.261
X33.701 Y15.175
X33.906 Y15.132
X34.115 Y15.132
X34.321 Y15.175
X34.512 Y15.261
X34.682 Y15.384
X34.822 Y15.540
X34.927 Y15.721
X34.992 Y15.921
X35.013 Y16.129
X34.992 Y16.338
X34.927 Y16.537
X34.822 Y16.718
X34.682 Y16.874
X34.512 Y16.997
X34.321 Y17.083
X34.115 Y17.126
X33.906 Y17.126
G0 Z3.000
G0  X13.592 Y17.063
G0  Z3.000
G01 F400 Z0
G01 F400 Z-0.100
G01F400X13.400 Y17.022
X13.221 Y16.942
X13.062 Y16.827
X12.931 Y16.681
X12.833 Y16.511
X12.772 Y16.324
X12.751 Y16.129
X12.772 Y15.934
X12.833 Y15.747
X12.931 Y15.577
X13.062 Y15.431
X13.221 Y15.316
X13.400 Y15.236
X13.592 Y15.195
X13.789 Y15.195
X13.981 Y15.236
X14.160 Y15.316
X14.319 Y15.431
X14.450 Y15.577
X14.549 Y15.747
X14.609 Y15.934
X14.630 Y16.129
X14.609 Y16.324
X14.549 Y16.511
X14.450 Y16.681
X14.319 Y16.827
X14.160 Y16.942
X13.981 Y17.022
X13.789 Y17.063
X13.592 Y17.063
G0 Z3.000
G0  X11.052 Y17.063
G0  Z3.000
G01 F400 Z0
G01 F400 Z-0.100
G01F400X10.956 Y17.043
X10.212 Y17.043
X10.212 Y15.165
X10.796 Y15.165
X10.796 Y5.941
X10.803 Y5.870
X10.826 Y5.799
X10.863 Y5.735
X10.913 Y5.680
X10.973 Y5.636
X11.041 Y5.606
X11.114 Y5.591
X64.553 Y5.591
X64.626 Y5.606
X64.694 Y5.636
X64.754 Y5.680
X64.803 Y5.735
X64.840 Y5.799
X64.863 Y5.870
X64.871 Y5.941
X64.871 Y10.127
X64.992 Y10.181
X65.162 Y10.304
X65.302 Y10.460
X65.407 Y10.641
X65.472 Y10.841
X65.493 Y11.049
X65.472 Y11.258
X65.407 Y11.457
X65.302 Y11.638
X65.162 Y11.794
X64.992 Y11.917
X64.800 Y12.003
X64.595 Y12.046
X64.386 Y12.046
X64.181 Y12.003
X63.989 Y11.917
X63.820 Y11.794
X63.679 Y11.638
X63.575 Y11.457
X63.510 Y11.258
X63.488 Y11.049
X63.510 Y10.841
X63.575 Y10.641
X63.679 Y10.460
X63.820 Y10.304
X63.989 Y10.180
X64.161 Y10.107
X64.161 Y6.297
X11.505 Y6.297
X11.505 Y15.165
X12.090 Y15.165
X12.090 Y17.043
X11.345 Y17.043
X11.249 Y17.063
X11.052 Y17.063
G0 Z3.000
G0  X36.522 Y12.123
G0  Z3.000
G01 F400 Z0
G01 F400 Z-0.100
G01F400X36.317 Y12.079
X36.125 Y11.994
X35.956 Y11.870
X35.816 Y11.715
X35.711 Y11.533
X35.646 Y11.334
X35.624 Y11.125
X35.646 Y10.917
X35.711 Y10.717
X35.816 Y10.536
X35.956 Y10.380
X36.125 Y10.257
X36.317 Y10.171
X36.522 Y10.128
X36.732 Y10.128
X36.937 Y10.171
X37.128 Y10.257
X37.298 Y10.380
X37.438 Y10.536
X37.543 Y10.717
X37.608 Y10.917
X37.630 Y11.125
X37.608 Y11.334
X37.543 Y11.533
X37.438 Y11.715
X37.298 Y11.870
X37.128 Y11.994
X36.937 Y12.079
X36.732 Y12.123
X36.522 Y12.123
G0 Z3.000
G0  X33.982 Y12.123
G0  Z3.000
G01 F400 Z0
G01 F400 Z-0.100
G01F400X33.777 Y12.079
X33.585 Y11.994
X33.416 Y11.870
X33.276 Y11.715
X33.171 Y11.533
X33.106 Y11.334
X33.084 Y11.125
X33.106 Y10.917
X33.171 Y10.717
X33.276 Y10.536
X33.416 Y10.380
X33.585 Y10.257
X33.777 Y10.171
X33.982 Y10.128
X34.192 Y10.128
X34.397 Y10.171
X34.588 Y10.257
X34.758 Y10.380
X34.898 Y10.536
X35.003 Y10.717
X35.068 Y10.917
X35.090 Y11.125
X35.068 Y11.334
X35.003 Y11.533
X34.898 Y11.715
X34.758 Y11.870
X34.588 Y11.994
X34.397 Y12.079
X34.192 Y12.123
X33.982 Y12.123
G0 Z3.000
G0  X41.602 Y12.123
G0  Z3.000
G01 F400 Z0
G01 F400 Z-0.100
G01F400X41.397 Y12.079
X41.205 Y11.994
X41.036 Y11.870
X40.895 Y11.715
X40.791 Y11.533
X40.726 Y11.334
X40.704 Y11.125
X40.726 Y10.917
X40.791 Y10.717
X40.895 Y10.536
X41.036 Y10.380
X41.205 Y10.257
X41.397 Y10.171
X41.602 Y10.128
X41.812 Y10.128
X42.017 Y10.171
X42.208 Y10.257
X42.378 Y10.380
X42.518 Y10.536
X42.623 Y10.717
X42.688 Y10.917
X42.710 Y11.125
X42.688 Y11.334
X42.623 Y11.533
X42.518 Y11.715
X42.378 Y11.870
X42.208 Y11.994
X42.017 Y12.079
X41.812 Y12.123
X41.602 Y12.123
G0 Z3.000
G0  X39.062 Y12.123
G0  Z3.000
G01 F400 Z0
G01 F400 Z-0.100
G01F400X38.857 Y12.079
X38.665 Y11.994
X38.496 Y11.870
X38.441 Y11.810
X38.420 Y11.794
X38.279 Y11.638
X38.175 Y11.457
X38.110 Y11.258
X38.088 Y11.049
X38.110 Y10.841
X38.175 Y10.641
X38.279 Y10.460
X38.420 Y10.304
X38.589 Y10.181
X38.781 Y10.095
X38.986 Y10.052
X39.195 Y10.052
X39.401 Y10.095
X39.592 Y10.181
X39.762 Y10.304
X39.816 Y10.364
X39.838 Y10.380
X39.978 Y10.536
X40.083 Y10.717
X40.148 Y10.917
X40.170 Y11.125
X40.148 Y11.334
X40.083 Y11.533
X39.978 Y11.715
X39.838 Y11.870
X39.668 Y11.994
X39.477 Y12.079
X39.272 Y12.123
X39.062 Y12.123
G0 Z3.000
G0  X26.362 Y12.123
G0  Z3.000
G01 F400 Z0
G01 F400 Z-0.100
G01F400X26.157 Y12.079
X25.965 Y11.994
X25.796 Y11.870
X25.655 Y11.715
X25.551 Y11.533
X25.486 Y11.334
X25.464 Y11.125
X25.486 Y10.917
X25.551 Y10.717
X25.655 Y10.536
X25.796 Y10.380
X25.965 Y10.257
X26.157 Y10.171
X26.362 Y10.128
X26.572 Y10.128
X26.777 Y10.171
X26.968 Y10.257
X27.138 Y10.380
X27.278 Y10.536
X27.383 Y10.717
X27.448 Y10.917
X27.470 Y11.125
X27.448 Y11.334
X27.383 Y11.533
X27.278 Y11.715
X27.138 Y11.870
X26.968 Y11.994
X26.777 Y12.079
X26.572 Y12.123
X26.362 Y12.123
G0 Z3.000
G0  X23.822 Y12.123
G0  Z3.000
G01 F400 Z0
G01 F400 Z-0.100
G01F400X23.617 Y12.079
X23.425 Y11.994
X23.256 Y11.870
X23.116 Y11.715
X23.011 Y11.533
X22.946 Y11.334
X22.924 Y11.125
X22.946 Y10.917
X23.011 Y10.717
X23.116 Y10.536
X23.256 Y10.380
X23.425 Y10.257
X23.617 Y10.171
X23.822 Y10.128
X24.032 Y10.128
X24.237 Y10.171
X24.428 Y10.257
X24.598 Y10.380
X24.738 Y10.536
X24.843 Y10.717
X24.908 Y10.917
X24.930 Y11.125
X24.908 Y11.334
X24.843 Y11.533
X24.738 Y11.715
X24.598 Y11.870
X24.428 Y11.994
X24.237 Y12.079
X24.032 Y12.123
X23.822 Y12.123
G0 Z3.000
G0  X31.442 Y12.123
G0  Z3.000
G01 F400 Z0
G01 F400 Z-0.100
G01F400X31.237 Y12.079
X31.045 Y11.994
X30.876 Y11.870
X30.736 Y11.715
X30.631 Y11.533
X30.566 Y11.334
X30.544 Y11.125
X30.566 Y10.917
X30.631 Y10.717
X30.736 Y10.536
X30.876 Y10.380
X31.045 Y10.257
X31.237 Y10.171
X31.442 Y10.128
X31.652 Y10.128
X31.857 Y10.171
X32.048 Y10.257
X32.218 Y10.380
X32.358 Y10.536
X32.463 Y10.717
X32.528 Y10.917
X32.550 Y11.125
X32.528 Y11.334
X32.463 Y11.533
X32.358 Y11.715
X32.218 Y11.870
X32.048 Y11.994
X31.857 Y12.079
X31.652 Y12.123
X31.442 Y12.123
G0 Z3.000
G0  X28.902 Y12.123
G0  Z3.000
G01 F400 Z0
G01 F400 Z-0.100
G01F400X28.697 Y12.079
X28.505 Y11.994
X28.336 Y11.870
X28.196 Y11.715
X28.091 Y11.533
X28.026 Y11.334
X28.004 Y11.125
X28.026 Y10.917
X28.091 Y10.717
X28.196 Y10.536
X28.336 Y10.380
X28.505 Y10.257
X28.697 Y10.171
X28.902 Y10.128
X29.112 Y10.128
X29.317 Y10.171
X29.508 Y10.257
X29.678 Y10.380
X29.818 Y10.536
X29.923 Y10.717
X29.988 Y10.917
X30.010 Y11.125
X29.988 Y11.334
X29.923 Y11.533
X29.818 Y11.715
X29.678 Y11.870
X29.508 Y11.994
X29.317 Y12.079
X29.112 Y12.123
X28.902 Y12.123
G0 Z3.000
G0  X40.704 Y4.508
G0  Z3.000
G01 F400 Z0
G01 F400 Z-0.100
G01F400X40.704 Y2.503
X42.709 Y2.503
X42.709 Y4.508
X40.704 Y4.508
G0 Z3.000
G0  X33.982 Y4.503
G0  Z3.000
G01 F400 Z0
G01 F400 Z-0.100
G01F400X33.777 Y4.459
X33.585 Y4.374
X33.416 Y4.250
X33.276 Y4.095
X33.171 Y3.913
X33.106 Y3.714
X33.084 Y3.505
X33.106 Y3.297
X33.171 Y3.097
X33.276 Y2.916
X33.416 Y2.760
X33.585 Y2.637
X33.777 Y2.552
X33.982 Y2.508
X34.192 Y2.508
X34.397 Y2.552
X34.588 Y2.637
X34.758 Y2.760
X34.898 Y2.916
X35.003 Y3.097
X35.068 Y3.297
X35.090 Y3.505
X35.068 Y3.714
X35.003 Y3.913
X34.898 Y4.095
X34.758 Y4.250
X34.588 Y4.374
X34.397 Y4.459
X34.192 Y4.503
X33.982 Y4.503
G0 Z3.000
G0  X31.442 Y4.503
G0  Z3.000
G01 F400 Z0
G01 F400 Z-0.100
G01F400X31.237 Y4.459
X31.045 Y4.374
X30.876 Y4.250
X30.736 Y4.095
X30.631 Y3.913
X30.566 Y3.714
X30.544 Y3.505
X30.566 Y3.297
X30.631 Y3.097
X30.736 Y2.916
X30.876 Y2.760
X31.045 Y2.637
X31.237 Y2.552
X31.442 Y2.508
X31.652 Y2.508
X31.857 Y2.552
X32.048 Y2.637
X32.218 Y2.760
X32.358 Y2.916
X32.463 Y3.097
X32.528 Y3.297
X32.550 Y3.505
X32.528 Y3.714
X32.463 Y3.913
X32.358 Y4.095
X32.218 Y4.250
X32.048 Y4.374
X31.857 Y4.459
X31.652 Y4.503
X31.442 Y4.503
G0 Z3.000
G0  X39.062 Y4.503
G0  Z3.000
G01 F400 Z0
G01 F400 Z-0.100
G01F400X38.857 Y4.459
X38.665 Y4.374
X38.496 Y4.250
X38.355 Y4.095
X38.251 Y3.913
X38.186 Y3.714
X38.164 Y3.505
X38.186 Y3.297
X38.251 Y3.097
X38.355 Y2.916
X38.496 Y2.760
X38.665 Y2.637
X38.857 Y2.552
X39.062 Y2.508
X39.272 Y2.508
X39.477 Y2.552
X39.668 Y2.637
X39.838 Y2.760
X39.978 Y2.916
X40.083 Y3.097
X40.148 Y3.297
X40.170 Y3.505
X40.148 Y3.714
X40.083 Y3.913
X39.978 Y4.095
X39.838 Y4.250
X39.668 Y4.374
X39.477 Y4.459
X39.272 Y4.503
X39.062 Y4.503
G0 Z3.000
G0  X36.522 Y4.503
G0  Z3.000
G01 F400 Z0
G01 F400 Z-0.100
G01F400X36.317 Y4.459
X36.125 Y4.374
X35.956 Y4.250
X35.816 Y4.095
X35.711 Y3.913
X35.646 Y3.714
X35.624 Y3.505
X35.646 Y3.297
X35.711 Y3.097
X35.816 Y2.916
X35.956 Y2.760
X36.125 Y2.637
X36.317 Y2.552
X36.522 Y2.508
X36.732 Y2.508
X36.937 Y2.552
X37.128 Y2.637
X37.298 Y2.760
X37.438 Y2.916
X37.543 Y3.097
X37.608 Y3.297
X37.630 Y3.505
X37.608 Y3.714
X37.543 Y3.913
X37.438 Y4.095
X37.298 Y4.250
X37.128 Y4.374
X36.937 Y4.459
X36.732 Y4.503
X36.522 Y4.503
G0 Z3.000
G0  X23.822 Y4.503
G0  Z3.000
G01 F400 Z0
G01 F400 Z-0.100
G01F400X23.617 Y4.459
X23.425 Y4.374
X23.256 Y4.250
X23.116 Y4.095
X23.011 Y3.913
X22.946 Y3.714
X22.924 Y3.505
X22.946 Y3.297
X23.011 Y3.097
X23.116 Y2.916
X23.256 Y2.760
X23.425 Y2.637
X23.617 Y2.552
X23.822 Y2.508
X24.032 Y2.508
X24.237 Y2.552
X24.428 Y2.637
X24.598 Y2.760
X24.738 Y2.916
X24.843 Y3.097
X24.908 Y3.297
X24.930 Y3.505
X24.908 Y3.714
X24.843 Y3.913
X24.738 Y4.095
X24.598 Y4.250
X24.428 Y4.374
X24.237 Y4.459
X24.032 Y4.503
X23.822 Y4.503
G0 Z3.000
G0  X28.902 Y4.503
G0  Z3.000
G01 F400 Z0
G01 F400 Z-0.100
G01F400X28.697 Y4.459
X28.505 Y4.374
X28.336 Y4.250
X28.196 Y4.095
X28.091 Y3.913
X28.026 Y3.714
X28.004 Y3.505
X28.026 Y3.297
X28.091 Y3.097
X28.196 Y2.916
X28.336 Y2.760
X28.505 Y2.637
X28.697 Y2.552
X28.902 Y2.508
X29.112 Y2.508
X29.317 Y2.552
X29.508 Y2.637
X29.678 Y2.760
X29.818 Y2.916
X29.923 Y3.097
X29.988 Y3.297
X30.010 Y3.505
X29.988 Y3.714
X29.923 Y3.913
X29.818 Y4.095
X29.678 Y4.250
X29.508 Y4.374
X29.317 Y4.459
X29.112 Y4.503
X28.902 Y4.503
G0 Z3.000
G0  X26.362 Y4.503
G0  Z3.000
G01 F400 Z0
G01 F400 Z-0.100
G01F400X26.157 Y4.459
X25.965 Y4.374
X25.796 Y4.250
X25.655 Y4.095
X25.551 Y3.913
X25.486 Y3.714
X25.464 Y3.505
X25.486 Y3.297
X25.551 Y3.097
X25.655 Y2.916
X25.796 Y2.760
X25.965 Y2.637
X26.157 Y2.552
X26.362 Y2.508
X26.572 Y2.508
X26.777 Y2.552
X26.968 Y2.637
X27.138 Y2.760
X27.278 Y2.916
X27.383 Y3.097
X27.448 Y3.297
X27.470 Y3.505
X27.448 Y3.714
X27.383 Y3.913
X27.278 Y4.095
X27.138 Y4.250
X26.968 Y4.374
X26.777 Y4.459
X26.572 Y4.503
X26.362 Y4.503
G0 Z3.000
G0  X0.924 Y49.786
G0  Z3.000
G01 F400 Z0
G01 F400 Z-0.100
G01F400X0.793 Y49.758
X0.670 Y49.704
X0.562 Y49.625
X0.472 Y49.526
X0.405 Y49.410
X0.364 Y49.282
X0.350 Y49.149
X0.364 Y49.016
X0.405 Y48.888
X0.472 Y48.772
X0.547 Y48.689
X0.546 Y48.674
X0.546 Y1.347
X0.472 Y1.266
X0.405 Y1.150
X0.364 Y1.022
X0.350 Y0.889
X0.364 Y0.756
X0.405 Y0.628
X0.472 Y0.512
X0.562 Y0.413
X0.670 Y0.334
X0.793 Y0.280
X0.924 Y0.252
X1.058 Y0.252
X1.189 Y0.280
X1.311 Y0.334
X1.419 Y0.413
X1.449 Y0.446
X66.572 Y0.446
X66.602 Y0.413
X66.710 Y0.334
X66.833 Y0.280
X66.964 Y0.252
X67.098 Y0.252
X67.229 Y0.280
X67.351 Y0.334
X67.459 Y0.413
X67.549 Y0.512
X67.616 Y0.628
X67.657 Y0.756
X67.671 Y0.889
X67.657 Y1.022
X67.616 Y1.150
X67.549 Y1.266
X67.475 Y1.347
X67.475 Y48.677
X67.474 Y48.689
X67.549 Y48.772
X67.616 Y48.888
X67.657 Y49.016
X67.671 Y49.149
X67.657 Y49.282
X67.616 Y49.410
X67.549 Y49.526
X67.459 Y49.625
X67.351 Y49.704
X67.229 Y49.758
X67.098 Y49.786
X66.964 Y49.786
X66.833 Y49.758
X66.710 Y49.704
X66.602 Y49.625
X66.572 Y49.592
X1.449 Y49.592
X1.419 Y49.625
X1.311 Y49.704
X1.189 Y49.758
X1.058 Y49.786
X0.924 Y49.786
G0 Z3.000
G0  X1.449 Y48.706
G0  Z3.000
G01 F400 Z0
G01 F400 Z-0.100
G01F400X66.572 Y48.706
X66.587 Y48.689
X66.586 Y48.674
X66.586 Y1.347
X66.572 Y1.332
X1.449 Y1.332
X1.435 Y1.347
X1.435 Y48.677
X1.434 Y48.689
X1.449 Y48.706
G0 Z3.000
G0  X53.200 Y47.740
G0  Z3.000
G01 F400 Z0
G01 F400 Z-0.100
G01F400X53.200 Y45.478
X55.461 Y45.478
X55.461 Y47.740
X53.200 Y47.740
G0 Z3.000
G0  X59.292 Y47.734
G0  Z3.000
G01 F400 Z0
G01 F400 Z-0.100
G01F400X59.061 Y47.685
X58.845 Y47.589
X58.654 Y47.450
X58.495 Y47.274
X58.377 Y47.069
X58.304 Y46.844
X58.279 Y46.609
X58.304 Y46.374
X58.377 Y46.149
X58.495 Y45.944
X58.654 Y45.768
X58.845 Y45.629
X58.966 Y45.576
X58.966 Y44.487
X46.690 Y44.487
X46.598 Y44.467
X46.513 Y44.430
X46.438 Y44.375
X46.376 Y44.306
X46.329 Y44.225
X46.300 Y44.136
X46.291 Y44.051
X46.291 Y42.566
X46.149 Y42.503
X45.958 Y42.365
X45.801 Y42.190
X45.684 Y41.986
X45.611 Y41.763
X45.586 Y41.529
X45.611 Y41.295
X45.684 Y41.072
X45.801 Y40.868
X45.958 Y40.693
X46.149 Y40.555
X46.363 Y40.460
X46.593 Y40.411
X46.828 Y40.411
X47.058 Y40.460
X47.273 Y40.555
X47.463 Y40.693
X47.620 Y40.868
X47.738 Y41.072
X47.810 Y41.295
X47.835 Y41.529
X47.810 Y41.763
X47.738 Y41.986
X47.620 Y42.190
X47.463 Y42.365
X47.273 Y42.503
X47.181 Y42.544
X47.181 Y43.601
X59.457 Y43.601
X59.548 Y43.620
X59.633 Y43.658
X59.709 Y43.712
X59.771 Y43.782
X59.818 Y43.862
X59.846 Y43.951
X59.855 Y44.036
X59.857 Y45.576
X59.976 Y45.629
X60.168 Y45.768
X60.326 Y45.944
X60.444 Y46.149
X60.517 Y46.374
X60.542 Y46.609
X60.517 Y46.844
X60.444 Y47.069
X60.326 Y47.274
X60.168 Y47.450
X59.976 Y47.589
X59.760 Y47.685
X59.529 Y47.734
X59.292 Y47.734
G0 Z3.000
G0  X56.752 Y47.734
G0  Z3.000
G01 F400 Z0
G01 F400 Z-0.100
G01F400X56.521 Y47.685
X56.305 Y47.589
X56.114 Y47.450
X55.955 Y47.274
X55.837 Y47.069
X55.764 Y46.844
X55.739 Y46.609
X55.764 Y46.374
X55.837 Y46.149
X55.955 Y45.944
X56.114 Y45.768
X56.305 Y45.629
X56.521 Y45.533
X56.752 Y45.484
X56.989 Y45.484
X57.220 Y45.533
X57.436 Y45.629
X57.628 Y45.768
X57.786 Y45.944
X57.904 Y46.149
X57.977 Y46.374
X58.002 Y46.609
X57.977 Y46.844
X57.904 Y47.069
X57.786 Y47.274
X57.628 Y47.450
X57.436 Y47.589
X57.220 Y47.685
X56.989 Y47.734
X56.752 Y47.734
G0 Z3.000
G0  X11.033 Y42.647
G0  Z3.000
G01 F400 Z0
G01 F400 Z-0.100
G01F400X10.803 Y42.598
X10.588 Y42.503
X10.398 Y42.365
X10.241 Y42.190
X10.123 Y41.986
X10.051 Y41.763
X10.026 Y41.529
X10.051 Y41.295
X10.123 Y41.072
X10.241 Y40.868
X10.398 Y40.693
X10.588 Y40.555
X10.803 Y40.460
X11.033 Y40.411
X11.268 Y40.411
X11.498 Y40.460
X11.713 Y40.555
X11.903 Y40.693
X12.060 Y40.868
X12.178 Y41.072
X12.250 Y41.295
X12.275 Y41.529
X12.250 Y41.763
X12.178 Y41.986
X12.060 Y42.190
X11.903 Y42.365
X11.713 Y42.503
X11.498 Y42.598
X11.268 Y42.647
X11.033 Y42.647
G0 Z3.000
G0  X18.678 Y42.647
G0  Z3.000
G01 F400 Z0
G01 F400 Z-0.100
G01F400X18.448 Y42.598
X18.234 Y42.503
X18.044 Y42.365
X17.886 Y42.190
X17.769 Y41.986
X17.696 Y41.763
X17.672 Y41.529
X17.696 Y41.295
X17.769 Y41.072
X17.886 Y40.868
X18.044 Y40.693
X18.234 Y40.555
X18.448 Y40.460
X18.678 Y40.411
X18.914 Y40.411
X19.143 Y40.460
X19.358 Y40.555
X19.548 Y40.693
X19.706 Y40.868
X19.823 Y41.072
X19.896 Y41.295
X19.920 Y41.529
X19.896 Y41.763
X19.823 Y41.986
X19.706 Y42.190
X19.548 Y42.365
X19.358 Y42.503
X19.143 Y42.598
X18.914 Y42.647
X18.678 Y42.647
G0 Z3.000
G0  X21.193 Y42.647
G0  Z3.000
G01 F400 Z0
G01 F400 Z-0.100
G01F400X20.963 Y42.598
X20.748 Y42.503
X20.558 Y42.365
X20.401 Y42.190
X20.284 Y41.986
X20.211 Y41.763
X20.186 Y41.529
X20.211 Y41.295
X20.284 Y41.072
X20.401 Y40.868
X20.558 Y40.693
X20.748 Y40.555
X20.963 Y40.460
X21.193 Y40.411
X21.428 Y40.411
X21.658 Y40.460
X21.873 Y40.555
X22.063 Y40.693
X22.220 Y40.868
X22.338 Y41.072
X22.410 Y41.295
X22.435 Y41.529
X22.410 Y41.763
X22.338 Y41.986
X22.220 Y42.190
X22.063 Y42.365
X21.873 Y42.503
X21.658 Y42.598
X21.428 Y42.647
X21.193 Y42.647
G0 Z3.000
G0  X13.573 Y42.647
G0  Z3.000
G01 F400 Z0
G01 F400 Z-0.100
G01F400X13.343 Y42.598
X13.129 Y42.503
X12.938 Y42.365
X12.781 Y42.190
X12.664 Y41.986
X12.591 Y41.763
X12.566 Y41.529
X12.591 Y41.295
X12.664 Y41.072
X12.781 Y40.868
X12.938 Y40.693
X13.129 Y40.555
X13.343 Y40.460
X13.573 Y40.411
X13.808 Y40.411
X14.038 Y40.460
X14.253 Y40.555
X14.443 Y40.693
X14.600 Y40.868
X14.718 Y41.072
X14.790 Y41.295
X14.815 Y41.529
X14.790 Y41.763
X14.718 Y41.986
X14.600 Y42.190
X14.443 Y42.365
X14.253 Y42.503
X14.038 Y42.598
X13.808 Y42.647
X13.573 Y42.647
G0 Z3.000
G0  X16.138 Y42.647
G0  Z3.000
G01 F400 Z0
G01 F400 Z-0.100
G01F400X15.909 Y42.598
X15.694 Y42.503
X15.504 Y42.365
X15.346 Y42.190
X15.229 Y41.986
X15.156 Y41.763
X15.132 Y41.529
X15.156 Y41.295
X15.229 Y41.072
X15.346 Y40.868
X15.504 Y40.693
X15.694 Y40.555
X15.909 Y40.460
X16.138 Y40.411
X16.374 Y40.411
X16.604 Y40.460
X16.818 Y40.555
X17.008 Y40.693
X17.166 Y40.868
X17.283 Y41.072
X17.356 Y41.295
X17.380 Y41.529
X17.356 Y41.763
X17.283 Y41.986
X17.166 Y42.190
X17.008 Y42.365
X16.818 Y42.503
X16.604 Y42.598
X16.374 Y42.647
X16.138 Y42.647
G0 Z3.000
G0  X49.133 Y42.647
G0  Z3.000
G01 F400 Z0
G01 F400 Z-0.100
G01F400X48.903 Y42.598
X48.689 Y42.503
X48.498 Y42.365
X48.341 Y42.190
X48.224 Y41.986
X48.151 Y41.763
X48.126 Y41.529
X48.151 Y41.295
X48.224 Y41.072
X48.341 Y40.868
X48.498 Y40.693
X48.689 Y40.555
X48.903 Y40.460
X49.133 Y40.411
X49.368 Y40.411
X49.598 Y40.460
X49.813 Y40.555
X50.003 Y40.693
X50.160 Y40.868
X50.278 Y41.072
X50.350 Y41.295
X50.375 Y41.529
X50.350 Y41.763
X50.278 Y41.986
X50.160 Y42.190
X50.003 Y42.365
X49.813 Y42.503
X49.598 Y42.598
X49.368 Y42.647
X49.133 Y42.647
G0 Z3.000
G0  X51.673 Y42.647
G0  Z3.000
G01 F400 Z0
G01 F400 Z-0.100
G01F400X51.443 Y42.598
X51.229 Y42.503
X51.038 Y42.365
X50.881 Y42.190
X50.764 Y41.986
X50.691 Y41.763
X50.666 Y41.529
X50.691 Y41.295
X50.764 Y41.072
X50.881 Y40.868
X51.038 Y40.693
X51.229 Y40.555
X51.443 Y40.460
X51.673 Y40.411
X51.908 Y40.411
X52.138 Y40.460
X52.353 Y40.555
X52.543 Y40.693
X52.700 Y40.868
X52.818 Y41.072
X52.890 Y41.295
X52.915 Y41.529
X52.890 Y41.763
X52.818 Y41.986
X52.700 Y42.190
X52.543 Y42.365
X52.353 Y42.503
X52.138 Y42.598
X51.908 Y42.647
X51.673 Y42.647
G0 Z3.000
G0  X44.053 Y42.647
G0  Z3.000
G01 F400 Z0
G01 F400 Z-0.100
G01F400X43.823 Y42.598
X43.608 Y42.503
X43.418 Y42.365
X43.261 Y42.190
X43.144 Y41.986
X43.071 Y41.763
X43.046 Y41.529
X43.071 Y41.295
X43.144 Y41.072
X43.261 Y40.868
X43.418 Y40.693
X43.608 Y40.555
X43.823 Y40.460
X44.053 Y40.411
X44.288 Y40.411
X44.518 Y40.460
X44.733 Y40.555
X44.923 Y40.693
X45.080 Y40.868
X45.198 Y41.072
X45.270 Y41.295
X45.295 Y41.529
X45.270 Y41.763
X45.198 Y41.986
X45.080 Y42.190
X44.923 Y42.365
X44.733 Y42.503
X44.518 Y42.598
X44.288 Y42.647
X44.053 Y42.647
G0 Z3.000
G0  X59.293 Y42.647
G0  Z3.000
G01 F400 Z0
G01 F400 Z-0.100
G01F400X59.063 Y42.598
X58.849 Y42.503
X58.658 Y42.365
X58.501 Y42.190
X58.384 Y41.986
X58.311 Y41.763
X58.286 Y41.529
X58.311 Y41.295
X58.384 Y41.072
X58.501 Y40.868
X58.658 Y40.693
X58.849 Y40.555
X59.063 Y40.460
X59.293 Y40.411
X59.528 Y40.411
X59.758 Y40.460
X59.973 Y40.555
X60.163 Y40.693
X60.320 Y40.868
X60.438 Y41.072
X60.510 Y41.295
X60.535 Y41.529
X60.510 Y41.763
X60.438 Y41.986
X60.320 Y42.190
X60.163 Y42.365
X59.973 Y42.503
X59.758 Y42.598
X59.528 Y42.647
X59.293 Y42.647
G0 Z3.000
G0  X54.213 Y42.647
G0  Z3.000
G01 F400 Z0
G01 F400 Z-0.100
G01F400X53.983 Y42.598
X53.769 Y42.503
X53.578 Y42.365
X53.421 Y42.190
X53.303 Y41.986
X53.231 Y41.763
X53.206 Y41.529
X53.231 Y41.295
X53.303 Y41.072
X53.421 Y40.868
X53.578 Y40.693
X53.769 Y40.555
X53.983 Y40.460
X54.213 Y40.411
X54.448 Y40.411
X54.678 Y40.460
X54.893 Y40.555
X55.083 Y40.693
X55.240 Y40.868
X55.358 Y41.072
X55.430 Y41.295
X55.455 Y41.529
X55.430 Y41.763
X55.358 Y41.986
X55.240 Y42.190
X55.083 Y42.365
X54.893 Y42.503
X54.678 Y42.598
X54.448 Y42.647
X54.213 Y42.647
G0 Z3.000
G0  X56.753 Y42.647
G0  Z3.000
G01 F400 Z0
G01 F400 Z-0.100
G01F400X56.523 Y42.598
X56.309 Y42.503
X56.118 Y42.365
X55.961 Y42.190
X55.844 Y41.986
X55.771 Y41.763
X55.746 Y41.529
X55.771 Y41.295
X55.844 Y41.072
X55.961 Y40.868
X56.118 Y40.693
X56.309 Y40.555
X56.523 Y40.460
X56.753 Y40.411
X56.988 Y40.411
X57.218 Y40.460
X57.433 Y40.555
X57.623 Y40.693
X57.780 Y40.868
X57.898 Y41.072
X57.970 Y41.295
X57.995 Y41.529
X57.970 Y41.763
X57.898 Y41.986
X57.780 Y42.190
X57.623 Y42.365
X57.433 Y42.503
X57.218 Y42.598
X56.988 Y42.647
X56.753 Y42.647
G0 Z3.000
G0  X28.813 Y42.647
G0  Z3.000
G01 F400 Z0
G01 F400 Z-0.100
G01F400X28.583 Y42.598
X28.369 Y42.503
X28.178 Y42.365
X28.021 Y42.190
X27.904 Y41.986
X27.831 Y41.763
X27.806 Y41.529
X27.831 Y41.295
X27.904 Y41.072
X28.021 Y40.868
X28.178 Y40.693
X28.369 Y40.555
X28.583 Y40.460
X28.813 Y40.411
X29.048 Y40.411
X29.278 Y40.460
X29.493 Y40.555
X29.683 Y40.693
X29.840 Y40.868
X29.958 Y41.072
X30.030 Y41.295
X30.055 Y41.529
X30.030 Y41.763
X29.958 Y41.986
X29.840 Y42.190
X29.683 Y42.365
X29.493 Y42.503
X29.278 Y42.598
X29.048 Y42.647
X28.813 Y42.647
G0 Z3.000
G0  X31.353 Y42.647
G0  Z3.000
G01 F400 Z0
G01 F400 Z-0.100
G01F400X31.123 Y42.598
X30.909 Y42.503
X30.718 Y42.365
X30.561 Y42.190
X30.444 Y41.986
X30.371 Y41.763
X30.346 Y41.529
X30.371 Y41.295
X30.444 Y41.072
X30.561 Y40.868
X30.718 Y40.693
X30.909 Y40.555
X31.123 Y40.460
X31.353 Y40.411
X31.588 Y40.411
X31.818 Y40.460
X32.033 Y40.555
X32.223 Y40.693
X32.380 Y40.868
X32.498 Y41.072
X32.570 Y41.295
X32.595 Y41.529
X32.570 Y41.763
X32.498 Y41.986
X32.380 Y42.190
X32.223 Y42.365
X32.033 Y42.503
X31.818 Y42.598
X31.588 Y42.647
X31.353 Y42.647
G0 Z3.000
G0  X23.733 Y42.647
G0  Z3.000
G01 F400 Z0
G01 F400 Z-0.100
G01F400X23.503 Y42.598
X23.289 Y42.503
X23.098 Y42.365
X22.941 Y42.190
X22.824 Y41.986
X22.751 Y41.763
X22.726 Y41.529
X22.751 Y41.295
X22.824 Y41.072
X22.941 Y40.868
X23.098 Y40.693
X23.289 Y40.555
X23.503 Y40.460
X23.733 Y40.411
X23.968 Y40.411
X24.198 Y40.460
X24.413 Y40.555
X24.603 Y40.693
X24.760 Y40.868
X24.878 Y41.072
X24.950 Y41.295
X24.975 Y41.529
X24.950 Y41.763
X24.878 Y41.986
X24.760 Y42.190
X24.603 Y42.365
X24.413 Y42.503
X24.198 Y42.598
X23.968 Y42.647
X23.733 Y42.647
G0 Z3.000
G0  X26.273 Y42.647
G0  Z3.000
G01 F400 Z0
G01 F400 Z-0.100
G01F400X26.043 Y42.598
X25.829 Y42.503
X25.638 Y42.365
X25.481 Y42.190
X25.364 Y41.986
X25.291 Y41.763
X25.266 Y41.529
X25.291 Y41.295
X25.364 Y41.072
X25.481 Y40.868
X25.638 Y40.693
X25.829 Y40.555
X26.043 Y40.460
X26.273 Y40.411
X26.508 Y40.411
X26.738 Y40.460
X26.953 Y40.555
X27.143 Y40.693
X27.300 Y40.868
X27.418 Y41.072
X27.490 Y41.295
X27.515 Y41.529
X27.490 Y41.763
X27.418 Y41.986
X27.300 Y42.190
X27.143 Y42.365
X26.953 Y42.503
X26.738 Y42.598
X26.508 Y42.647
X26.273 Y42.647
G0 Z3.000
G0  X38.973 Y42.647
G0  Z3.000
G01 F400 Z0
G01 F400 Z-0.100
G01F400X38.743 Y42.598
X38.529 Y42.503
X38.338 Y42.365
X38.181 Y42.190
X38.064 Y41.986
X37.991 Y41.763
X37.966 Y41.529
X37.991 Y41.295
X38.064 Y41.072
X38.181 Y40.868
X38.338 Y40.693
X38.529 Y40.555
X38.743 Y40.460
X38.973 Y40.411
X39.208 Y40.411
X39.438 Y40.460
X39.653 Y40.555
X39.843 Y40.693
X40.000 Y40.868
X40.118 Y41.072
X40.190 Y41.295
X40.215 Y41.529
X40.190 Y41.763
X40.118 Y41.986
X40.000 Y42.190
X39.843 Y42.365
X39.653 Y42.503
X39.438 Y42.598
X39.208 Y42.647
X38.973 Y42.647
G0 Z3.000
G0  X41.513 Y42.647
G0  Z3.000
G01 F400 Z0
G01 F400 Z-0.100
G01F400X41.283 Y42.598
X41.069 Y42.503
X40.878 Y42.365
X40.721 Y42.190
X40.604 Y41.986
X40.531 Y41.763
X40.506 Y41.529
X40.531 Y41.295
X40.604 Y41.072
X40.721 Y40.868
X40.878 Y40.693
X41.069 Y40.555
X41.283 Y40.460
X41.513 Y40.411
X41.748 Y40.411
X41.978 Y40.460
X42.193 Y40.555
X42.383 Y40.693
X42.540 Y40.868
X42.658 Y41.072
X42.730 Y41.295
X42.755 Y41.529
X42.730 Y41.763
X42.658 Y41.986
X42.540 Y42.190
X42.383 Y42.365
X42.193 Y42.503
X41.978 Y42.598
X41.748 Y42.647
X41.513 Y42.647
G0 Z3.000
G0  X33.893 Y42.647
G0  Z3.000
G01 F400 Z0
G01 F400 Z-0.100
G01F400X33.663 Y42.598
X33.449 Y42.503
X33.258 Y42.365
X33.101 Y42.190
X32.983 Y41.986
X32.911 Y41.763
X32.886 Y41.529
X32.911 Y41.295
X32.983 Y41.072
X33.101 Y40.868
X33.258 Y40.693
X33.449 Y40.555
X33.663 Y40.460
X33.893 Y40.411
X34.128 Y40.411
X34.358 Y40.460
X34.573 Y40.555
X34.763 Y40.693
X34.920 Y40.868
X35.038 Y41.072
X35.110 Y41.295
X35.135 Y41.529
X35.110 Y41.763
X35.038 Y41.986
X34.920 Y42.190
X34.763 Y42.365
X34.573 Y42.503
X34.358 Y42.598
X34.128 Y42.647
X33.893 Y42.647
G0 Z3.000
G0  X36.458 Y42.647
G0  Z3.000
G01 F400 Z0
G01 F400 Z-0.100
G01F400X36.229 Y42.598
X36.014 Y42.503
X35.824 Y42.365
X35.666 Y42.190
X35.549 Y41.986
X35.476 Y41.763
X35.452 Y41.529
X35.476 Y41.295
X35.549 Y41.072
X35.666 Y40.868
X35.824 Y40.693
X36.014 Y40.555
X36.229 Y40.460
X36.458 Y40.411
X36.694 Y40.411
X36.924 Y40.460
X37.138 Y40.555
X37.328 Y40.693
X37.486 Y40.868
X37.603 Y41.072
X37.676 Y41.295
X37.700 Y41.529
X37.676 Y41.763
X37.603 Y41.986
X37.486 Y42.190
X37.328 Y42.365
X37.138 Y42.503
X36.924 Y42.598
X36.694 Y42.647
X36.458 Y42.647
G0 Z3.000
G0  X11.033 Y40.107
G0  Z3.000
G01 F400 Z0
G01 F400 Z-0.100
G01F400X10.803 Y40.058
X10.588 Y39.963
X10.398 Y39.825
X10.241 Y39.650
X10.123 Y39.446
X10.111 Y39.407
X3.535 Y39.407
X3.444 Y39.387
X3.359 Y39.349
X3.283 Y39.295
X3.221 Y39.226
X3.174 Y39.145
X3.146 Y39.056
X3.137 Y38.971
X3.137 Y18.636
X3.146 Y18.551
X3.174 Y18.462
X3.221 Y18.382
X3.283 Y18.312
X3.359 Y18.258
X3.444 Y18.220
X3.535 Y18.201
X3.613 Y18.201
X15.811 Y18.225
X15.811 Y17.063
X15.716 Y17.021
X15.542 Y16.894
X15.398 Y16.734
X15.290 Y16.548
X15.223 Y16.343
X15.201 Y16.129
X15.223 Y15.915
X15.290 Y15.710
X15.398 Y15.524
X15.542 Y15.364
X15.716 Y15.237
X15.811 Y15.195
X15.811 Y8.502
X15.820 Y8.416
X15.849 Y8.328
X15.896 Y8.247
X15.958 Y8.178
X16.033 Y8.123
X16.118 Y8.085
X16.210 Y8.066
X56.943 Y8.066
X57.034 Y8.085
X57.119 Y8.123
X57.194 Y8.178
X57.257 Y8.247
X57.303 Y8.328
X57.332 Y8.416
X57.341 Y8.502
X57.316 Y15.123
X57.424 Y15.171
X57.611 Y15.307
X57.765 Y15.479
X57.881 Y15.679
X57.952 Y15.899
X57.977 Y16.129
X57.952 Y16.359
X57.881 Y16.579
X57.765 Y16.779
X57.611 Y16.951
X57.424 Y17.087
X57.212 Y17.181
X56.986 Y17.229
X56.755 Y17.229
X56.529 Y17.181
X56.318 Y17.087
X56.131 Y16.951
X55.976 Y16.779
X55.860 Y16.579
X55.789 Y16.359
X55.765 Y16.129
X55.789 Y15.899
X55.860 Y15.679
X55.976 Y15.479
X56.131 Y15.307
X56.318 Y15.171
X56.427 Y15.123
X56.450 Y8.952
X16.701 Y8.952
X16.701 Y15.217
X16.745 Y15.237
X16.920 Y15.364
X17.064 Y15.524
X17.171 Y15.710
X17.238 Y15.915
X17.260 Y16.129
X17.238 Y16.343
X17.171 Y16.548
X17.064 Y16.734
X16.920 Y16.894
X16.745 Y17.021
X16.701 Y17.041
X16.701 Y18.676
X16.692 Y18.762
X16.663 Y18.850
X16.617 Y18.931
X16.554 Y19.000
X16.479 Y19.055
X16.394 Y19.093
X16.303 Y19.112
X16.224 Y19.112
X4.026 Y19.088
X4.026 Y38.520
X10.130 Y38.520
X10.241 Y38.328
X10.398 Y38.153
X10.588 Y38.015
X10.803 Y37.920
X11.033 Y37.871
X11.268 Y37.871
X11.498 Y37.920
X11.713 Y38.015
X11.903 Y38.153
X12.060 Y38.328
X12.178 Y38.532
X12.250 Y38.755
X12.275 Y38.989
X12.250 Y39.223
X12.178 Y39.446
X12.060 Y39.650
X11.903 Y39.825
X11.713 Y39.963
X11.498 Y40.058
X11.268 Y40.107
X11.033 Y40.107
G0 Z3.000
G0  X16.138 Y40.107
G0  Z3.000
G01 F400 Z0
G01 F400 Z-0.100
G01F400X15.909 Y40.058
X15.694 Y39.963
X15.504 Y39.825
X15.346 Y39.650
X15.229 Y39.446
X15.156 Y39.223
X15.132 Y38.989
X15.156 Y38.755
X15.229 Y38.532
X15.346 Y38.328
X15.504 Y38.153
X15.694 Y38.015
X15.909 Y37.920
X16.138 Y37.871
X16.374 Y37.871
X16.604 Y37.920
X16.818 Y38.015
X17.008 Y38.153
X17.166 Y38.328
X17.283 Y38.532
X17.356 Y38.755
X17.380 Y38.989
X17.356 Y39.223
X17.283 Y39.446
X17.166 Y39.650
X17.008 Y39.825
X16.818 Y39.963
X16.604 Y40.058
X16.374 Y40.107
X16.138 Y40.107
G0 Z3.000
G0  X13.573 Y40.107
G0  Z3.000
G01 F400 Z0
G01 F400 Z-0.100
G01F400X13.343 Y40.058
X13.129 Y39.963
X12.938 Y39.825
X12.781 Y39.650
X12.664 Y39.446
X12.591 Y39.223
X12.566 Y38.989
X12.591 Y38.755
X12.664 Y38.532
X12.781 Y38.328
X12.938 Y38.153
X13.129 Y38.015
X13.343 Y37.920
X13.573 Y37.871
X13.808 Y37.871
X14.038 Y37.920
X14.253 Y38.015
X14.443 Y38.153
X14.600 Y38.328
X14.718 Y38.532
X14.790 Y38.755
X14.815 Y38.989
X14.790 Y39.223
X14.718 Y39.446
X14.600 Y39.650
X14.443 Y39.825
X14.253 Y39.963
X14.038 Y40.058
X13.808 Y40.107
X13.573 Y40.107
G0 Z3.000
G0  X31.353 Y40.107
G0  Z3.000
G01 F400 Z0
G01 F400 Z-0.100
G01F400X31.123 Y40.058
X30.909 Y39.963
X30.718 Y39.825
X30.561 Y39.650
X30.444 Y39.446
X30.371 Y39.223
X30.346 Y38.989
X30.371 Y38.755
X30.444 Y38.532
X30.561 Y38.328
X30.718 Y38.153
X30.909 Y38.015
X31.123 Y37.920
X31.353 Y37.871
X31.588 Y37.871
X31.818 Y37.920
X32.033 Y38.015
X32.223 Y38.153
X32.380 Y38.328
X32.498 Y38.532
X32.570 Y38.755
X32.595 Y38.989
X32.570 Y39.223
X32.498 Y39.446
X32.380 Y39.650
X32.223 Y39.825
X32.033 Y39.963
X31.818 Y40.058
X31.588 Y40.107
X31.353 Y40.107
G0 Z3.000
G0  X28.813 Y40.107
G0  Z3.000
G01 F400 Z0
G01 F400 Z-0.100
G01F400X28.583 Y40.058
X28.369 Y39.963
X28.178 Y39.825
X28.021 Y39.650
X27.904 Y39.446
X27.831 Y39.223
X27.806 Y38.989
X27.831 Y38.755
X27.904 Y38.532
X28.021 Y38.328
X28.178 Y38.153
X28.369 Y38.015
X28.583 Y37.920
X28.813 Y37.871
X29.048 Y37.871
X29.278 Y37.920
X29.493 Y38.015
X29.683 Y38.153
X29.840 Y38.328
X29.958 Y38.532
X30.030 Y38.755
X30.055 Y38.989
X30.030 Y39.223
X29.958 Y39.446
X29.840 Y39.650
X29.683 Y39.825
X29.493 Y39.963
X29.278 Y40.058
X29.048 Y40.107
X28.813 Y40.107
G0 Z3.000
G0  X36.433 Y40.107
G0  Z3.000
G01 F400 Z0
G01 F400 Z-0.100
G01F400X36.203 Y40.058
X35.989 Y39.963
X35.798 Y39.825
X35.641 Y39.650
X35.523 Y39.446
X35.451 Y39.223
X35.426 Y38.989
X35.451 Y38.755
X35.523 Y38.532
X35.641 Y38.328
X35.798 Y38.153
X35.989 Y38.015
X36.203 Y37.920
X36.433 Y37.871
X36.668 Y37.871
X36.898 Y37.920
X37.113 Y38.015
X37.303 Y38.153
X37.460 Y38.328
X37.578 Y38.532
X37.650 Y38.755
X37.675 Y38.989
X37.650 Y39.223
X37.578 Y39.446
X37.460 Y39.650
X37.303 Y39.825
X37.113 Y39.963
X36.898 Y40.058
X36.668 Y40.107
X36.433 Y40.107
G0 Z3.000
G0  X33.893 Y40.107
G0  Z3.000
G01 F400 Z0
G01 F400 Z-0.100
G01F400X33.663 Y40.058
X33.449 Y39.963
X33.258 Y39.825
X33.101 Y39.650
X32.983 Y39.446
X32.911 Y39.223
X32.886 Y38.989
X32.911 Y38.755
X32.983 Y38.532
X33.101 Y38.328
X33.258 Y38.153
X33.449 Y38.015
X33.663 Y37.920
X33.893 Y37.871
X34.128 Y37.871
X34.358 Y37.920
X34.573 Y38.015
X34.763 Y38.153
X34.920 Y38.328
X35.038 Y38.532
X35.110 Y38.755
X35.135 Y38.989
X35.110 Y39.223
X35.038 Y39.446
X34.920 Y39.650
X34.763 Y39.825
X34.573 Y39.963
X34.358 Y40.058
X34.128 Y40.107
X33.893 Y40.107
G0 Z3.000
G0  X21.193 Y40.107
G0  Z3.000
G01 F400 Z0
G01 F400 Z-0.100
G01F400X20.963 Y40.058
X20.748 Y39.963
X20.558 Y39.825
X20.401 Y39.650
X20.284 Y39.446
X20.211 Y39.223
X20.186 Y38.989
X20.211 Y38.755
X20.284 Y38.532
X20.401 Y38.328
X20.558 Y38.153
X20.748 Y38.015
X20.963 Y37.920
X21.193 Y37.871
X21.428 Y37.871
X21.658 Y37.920
X21.873 Y38.015
X22.063 Y38.153
X22.220 Y38.328
X22.338 Y38.532
X22.410 Y38.755
X22.435 Y38.989
X22.410 Y39.223
X22.338 Y39.446
X22.220 Y39.650
X22.063 Y39.825
X21.873 Y39.963
X21.658 Y40.058
X21.428 Y40.107
X21.193 Y40.107
G0 Z3.000
G0  X18.678 Y40.107
G0  Z3.000
G01 F400 Z0
G01 F400 Z-0.100
G01F400X18.448 Y40.058
X18.234 Y39.963
X18.044 Y39.825
X17.886 Y39.650
X17.769 Y39.446
X17.696 Y39.223
X17.672 Y38.989
X17.696 Y38.755
X17.769 Y38.532
X17.886 Y38.328
X18.044 Y38.153
X18.234 Y38.015
X18.448 Y37.920
X18.678 Y37.871
X18.914 Y37.871
X19.143 Y37.920
X19.358 Y38.015
X19.548 Y38.153
X19.706 Y38.328
X19.823 Y38.532
X19.896 Y38.755
X19.920 Y38.989
X19.896 Y39.223
X19.823 Y39.446
X19.706 Y39.650
X19.548 Y39.825
X19.358 Y39.963
X19.143 Y40.058
X18.914 Y40.107
X18.678 Y40.107
G0 Z3.000
G0  X26.273 Y40.107
G0  Z3.000
G01 F400 Z0
G01 F400 Z-0.100
G01F400X26.043 Y40.058
X25.829 Y39.963
X25.638 Y39.825
X25.481 Y39.650
X25.364 Y39.446
X25.291 Y39.223
X25.266 Y38.989
X25.291 Y38.755
X25.364 Y38.532
X25.481 Y38.328
X25.638 Y38.153
X25.829 Y38.015
X26.043 Y37.920
X26.273 Y37.871
X26.508 Y37.871
X26.738 Y37.920
X26.953 Y38.015
X27.143 Y38.153
X27.300 Y38.328
X27.418 Y38.532
X27.490 Y38.755
X27.515 Y38.989
X27.490 Y39.223
X27.418 Y39.446
X27.300 Y39.650
X27.143 Y39.825
X26.953 Y39.963
X26.738 Y40.058
X26.508 Y40.107
X26.273 Y40.107
G0 Z3.000
G0  X23.733 Y40.107
G0  Z3.000
G01 F400 Z0
G01 F400 Z-0.100
G01F400X23.503 Y40.058
X23.289 Y39.963
X23.098 Y39.825
X22.941 Y39.650
X22.824 Y39.446
X22.751 Y39.223
X22.726 Y38.989
X22.751 Y38.755
X22.824 Y38.532
X22.941 Y38.328
X23.098 Y38.153
X23.289 Y38.015
X23.503 Y37.920
X23.733 Y37.871
X23.968 Y37.871
X24.198 Y37.920
X24.413 Y38.015
X24.603 Y38.153
X24.760 Y38.328
X24.878 Y38.532
X24.950 Y38.755
X24.975 Y38.989
X24.950 Y39.223
X24.878 Y39.446
X24.760 Y39.650
X24.603 Y39.825
X24.413 Y39.963
X24.198 Y40.058
X23.968 Y40.107
X23.733 Y40.107
G0 Z3.000
G0  X51.673 Y40.107
G0  Z3.000
G01 F400 Z0
G01 F400 Z-0.100
G01F400X51.443 Y40.058
X51.229 Y39.963
X51.038 Y39.825
X50.881 Y39.650
X50.764 Y39.446
X50.691 Y39.223
X50.666 Y38.989
X50.691 Y38.755
X50.764 Y38.532
X50.881 Y38.328
X51.038 Y38.153
X51.229 Y38.015
X51.443 Y37.920
X51.673 Y37.871
X51.908 Y37.871
X52.138 Y37.920
X52.353 Y38.015
X52.543 Y38.153
X52.700 Y38.328
X52.818 Y38.532
X52.890 Y38.755
X52.915 Y38.989
X52.890 Y39.223
X52.818 Y39.446
X52.700 Y39.650
X52.543 Y39.825
X52.353 Y39.963
X52.138 Y40.058
X51.908 Y40.107
X51.673 Y40.107
G0 Z3.000
G0  X49.133 Y40.107
G0  Z3.000
G01 F400 Z0
G01 F400 Z-0.100
G01F400X48.903 Y40.058
X48.689 Y39.963
X48.498 Y39.825
X48.341 Y39.650
X48.224 Y39.446
X48.151 Y39.223
X48.126 Y38.989
X48.151 Y38.755
X48.224 Y38.532
X48.341 Y38.328
X48.498 Y38.153
X48.689 Y38.015
X48.903 Y37.920
X49.133 Y37.871
X49.368 Y37.871
X49.598 Y37.920
X49.813 Y38.015
X50.003 Y38.153
X50.160 Y38.328
X50.278 Y38.532
X50.350 Y38.755
X50.375 Y38.989
X50.350 Y39.223
X50.278 Y39.446
X50.160 Y39.650
X50.003 Y39.825
X49.813 Y39.963
X49.598 Y40.058
X49.368 Y40.107
X49.133 Y40.107
G0 Z3.000
G0  X56.753 Y40.107
G0  Z3.000
G01 F400 Z0
G01 F400 Z-0.100
G01F400X56.523 Y40.058
X56.309 Y39.963
X56.118 Y39.825
X55.961 Y39.650
X55.844 Y39.446
X55.771 Y39.223
X55.746 Y38.989
X55.771 Y38.755
X55.844 Y38.532
X55.961 Y38.328
X56.118 Y38.153
X56.309 Y38.015
X56.451 Y37.952
X56.451 Y34.327
X46.740 Y34.327
X46.649 Y34.307
X46.564 Y34.270
X46.489 Y34.215
X46.426 Y34.145
X46.380 Y34.065
X46.351 Y33.976
X46.342 Y33.892
X46.278 Y29.826
X46.164 Y29.776
X45.979 Y29.642
X45.826 Y29.472
X45.712 Y29.274
X45.641 Y29.056
X45.617 Y28.829
X45.641 Y28.602
X45.712 Y28.384
X45.826 Y28.186
X45.979 Y28.017
X45.992 Y28.007
X45.999 Y27.987
X46.045 Y27.907
X46.108 Y27.837
X46.183 Y27.783
X46.266 Y27.746
X46.266 Y17.135
X46.158 Y17.087
X45.971 Y16.951
X45.816 Y16.779
X45.700 Y16.579
X45.629 Y16.359
X45.605 Y16.129
X45.629 Y15.899
X45.700 Y15.679
X45.816 Y15.479
X45.971 Y15.307
X46.158 Y15.171
X46.369 Y15.077
X46.595 Y15.029
X46.826 Y15.029
X47.052 Y15.077
X47.264 Y15.171
X47.451 Y15.307
X47.605 Y15.479
X47.721 Y15.679
X47.792 Y15.899
X47.817 Y16.129
X47.792 Y16.359
X47.721 Y16.579
X47.605 Y16.779
X47.451 Y16.951
X47.264 Y17.087
X47.155 Y17.135
X47.155 Y27.837
X47.257 Y27.882
X47.442 Y28.017
X47.595 Y28.186
X47.709 Y28.384
X47.780 Y28.602
X47.804 Y28.829
X47.780 Y29.056
X47.709 Y29.274
X47.595 Y29.472
X47.442 Y29.642
X47.257 Y29.776
X47.171 Y29.814
X47.225 Y33.441
X56.943 Y33.441
X57.034 Y33.460
X57.119 Y33.498
X57.194 Y33.552
X57.257 Y33.622
X57.303 Y33.702
X57.332 Y33.791
X57.341 Y33.876
X57.341 Y37.974
X57.433 Y38.015
X57.623 Y38.153
X57.780 Y38.328
X57.898 Y38.532
X57.970 Y38.755
X57.995 Y38.989
X57.970 Y39.223
X57.898 Y39.446
X57.780 Y39.650
X57.623 Y39.825
X57.433 Y39.963
X57.218 Y40.058
X56.988 Y40.107
X56.753 Y40.107
G0 Z3.000
G0  X54.213 Y40.107
G0  Z3.000
G01 F400 Z0
G01 F400 Z-0.100
G01F400X53.983 Y40.058
X53.769 Y39.963
X53.578 Y39.825
X53.421 Y39.650
X53.303 Y39.446
X53.231 Y39.223
X53.206 Y38.989
X53.231 Y38.755
X53.303 Y38.532
X53.421 Y38.328
X53.578 Y38.153
X53.769 Y38.015
X53.911 Y37.952
X53.911 Y36.867
X44.124 Y36.867
X44.033 Y36.847
X43.948 Y36.809
X43.873 Y36.755
X43.810 Y36.686
X43.764 Y36.605
X43.735 Y36.516
X43.726 Y36.431
X43.726 Y33.044
X43.633 Y33.025
X43.300 Y32.877
X43.006 Y32.663
X42.762 Y32.392
X42.580 Y32.077
X42.468 Y31.731
X42.430 Y31.369
X42.468 Y31.007
X42.580 Y30.661
X42.762 Y30.346
X43.006 Y30.075
X43.300 Y29.861
X43.633 Y29.713
X43.726 Y29.694
X43.726 Y19.112
X41.584 Y19.112
X41.493 Y19.093
X41.408 Y19.055
X41.333 Y19.000
X41.270 Y18.931
X41.224 Y18.850
X41.195 Y18.762
X41.186 Y18.676
X41.186 Y14.032
X19.215 Y14.032
X19.215 Y15.206
X19.286 Y15.237
X19.460 Y15.364
X19.604 Y15.524
X19.711 Y15.710
X19.778 Y15.915
X19.800 Y16.129
X19.778 Y16.343
X19.711 Y16.548
X19.604 Y16.734
X19.460 Y16.894
X19.286 Y17.021
X19.089 Y17.108
X18.878 Y17.153
X18.663 Y17.153
X18.452 Y17.108
X18.256 Y17.021
X18.082 Y16.894
X17.938 Y16.734
X17.830 Y16.548
X17.763 Y16.343
X17.741 Y16.129
X17.763 Y15.915
X17.830 Y15.710
X17.938 Y15.524
X18.082 Y15.364
X18.256 Y15.237
X18.326 Y15.206
X18.326 Y13.582
X18.335 Y13.496
X18.364 Y13.408
X18.410 Y13.327
X18.473 Y13.258
X18.548 Y13.203
X18.633 Y13.165
X18.724 Y13.146
X41.677 Y13.146
X41.768 Y13.165
X41.853 Y13.203
X41.929 Y13.258
X41.991 Y13.327
X42.038 Y13.408
X42.066 Y13.496
X42.075 Y13.582
X42.075 Y18.226
X43.726 Y18.226
X43.726 Y17.135
X43.618 Y17.087
X43.431 Y16.951
X43.276 Y16.779
X43.160 Y16.579
X43.089 Y16.359
X43.065 Y16.129
X43.089 Y15.899
X43.160 Y15.679
X43.276 Y15.479
X43.431 Y15.307
X43.618 Y15.171
X43.829 Y15.077
X44.055 Y15.029
X44.286 Y15.029
X44.512 Y15.077
X44.724 Y15.171
X44.911 Y15.307
X45.065 Y15.479
X45.181 Y15.679
X45.252 Y15.899
X45.277 Y16.129
X45.252 Y16.359
X45.181 Y16.579
X45.065 Y16.779
X44.911 Y16.951
X44.724 Y17.087
X44.615 Y17.135
X44.615 Y29.694
X44.709 Y29.713
X45.041 Y29.861
X45.335 Y30.075
X45.579 Y30.346
X45.761 Y30.661
X45.873 Y31.007
X45.911 Y31.369
X45.873 Y31.731
X45.761 Y32.077
X45.579 Y32.392
X45.335 Y32.663
X45.041 Y32.877
X44.709 Y33.025
X44.615 Y33.044
X44.615 Y35.980
X54.403 Y35.980
X54.494 Y36.000
X54.579 Y36.038
X54.654 Y36.092
X54.717 Y36.162
X54.763 Y36.242
X54.792 Y36.331
X54.801 Y36.416
X54.801 Y37.974
X54.893 Y38.015
X55.083 Y38.153
X55.240 Y38.328
X55.358 Y38.532
X55.430 Y38.755
X55.455 Y38.989
X55.430 Y39.223
X55.358 Y39.446
X55.240 Y39.650
X55.083 Y39.825
X54.893 Y39.963
X54.678 Y40.058
X54.448 Y40.107
X54.213 Y40.107
G0 Z3.000
G0  X41.513 Y40.107
G0  Z3.000
G01 F400 Z0
G01 F400 Z-0.100
G01F400X41.283 Y40.058
X41.069 Y39.963
X40.878 Y39.825
X40.721 Y39.650
X40.604 Y39.446
X40.531 Y39.223
X40.506 Y38.989
X40.531 Y38.755
X40.604 Y38.532
X40.721 Y38.328
X40.878 Y38.153
X41.069 Y38.015
X41.283 Y37.920
X41.513 Y37.871
X41.748 Y37.871
X41.978 Y37.920
X42.193 Y38.015
X42.383 Y38.153
X42.540 Y38.328
X42.658 Y38.532
X42.730 Y38.755
X42.755 Y38.989
X42.730 Y39.223
X42.658 Y39.446
X42.540 Y39.650
X42.383 Y39.825
X42.193 Y39.963
X41.978 Y40.058
X41.748 Y40.107
X41.513 Y40.107
G0 Z3.000
G0  X46.593 Y40.107
G0  Z3.000
G01 F400 Z0
G01 F400 Z-0.100
G01F400X46.363 Y40.058
X46.149 Y39.963
X45.958 Y39.825
X45.801 Y39.650
X45.684 Y39.446
X45.611 Y39.223
X45.586 Y38.989
X45.611 Y38.755
X45.684 Y38.532
X45.801 Y38.328
X45.958 Y38.153
X46.149 Y38.015
X46.363 Y37.920
X46.593 Y37.871
X46.828 Y37.871
X47.058 Y37.920
X47.273 Y38.015
X47.463 Y38.153
X47.620 Y38.328
X47.738 Y38.532
X47.810 Y38.755
X47.835 Y38.989
X47.810 Y39.223
X47.738 Y39.446
X47.620 Y39.650
X47.463 Y39.825
X47.273 Y39.963
X47.058 Y40.058
X46.828 Y40.107
X46.593 Y40.107
G0 Z3.000
G0  X44.053 Y40.107
G0  Z3.000
G01 F400 Z0
G01 F400 Z-0.100
G01F400X43.823 Y40.058
X43.608 Y39.963
X43.418 Y39.825
X43.261 Y39.650
X43.144 Y39.446
X43.071 Y39.223
X43.046 Y38.989
X43.071 Y38.755
X43.144 Y38.532
X43.261 Y38.328
X43.418 Y38.153
X43.608 Y38.015
X43.823 Y37.920
X44.053 Y37.871
X44.288 Y37.871
X44.518 Y37.920
X44.733 Y38.015
X44.923 Y38.153
X45.080 Y38.328
X45.198 Y38.532
X45.270 Y38.755
X45.295 Y38.989
X45.270 Y39.223
X45.198 Y39.446
X45.080 Y39.650
X44.923 Y39.825
X44.733 Y39.963
X44.518 Y40.058
X44.288 Y40.107
X44.053 Y40.107
G0 Z3.000
G0  X59.318 Y40.107
G0  Z3.000
G01 F400 Z0
G01 F400 Z-0.100
G01F400X59.089 Y40.058
X58.874 Y39.963
X58.684 Y39.825
X58.526 Y39.650
X58.409 Y39.446
X58.336 Y39.223
X58.312 Y38.989
X58.336 Y38.755
X58.409 Y38.532
X58.526 Y38.328
X58.684 Y38.153
X58.874 Y38.015
X59.089 Y37.920
X59.318 Y37.871
X59.554 Y37.871
X59.784 Y37.920
X59.998 Y38.015
X60.188 Y38.153
X60.346 Y38.328
X60.457 Y38.520
X64.070 Y38.520
X64.023 Y19.651
X63.944 Y19.616
X63.759 Y19.482
X63.606 Y19.312
X63.492 Y19.114
X63.478 Y19.072
X59.469 Y19.112
X59.390 Y19.112
X59.298 Y19.093
X59.213 Y19.055
X59.138 Y19.000
X59.076 Y18.931
X59.029 Y18.850
X59.000 Y18.762
X58.991 Y18.677
X58.973 Y17.138
X58.858 Y17.087
X58.671 Y16.951
X58.516 Y16.779
X58.400 Y16.579
X58.329 Y16.359
X58.305 Y16.129
X58.329 Y15.899
X58.400 Y15.679
X58.516 Y15.479
X58.671 Y15.307
X58.858 Y15.171
X59.069 Y15.077
X59.295 Y15.029
X59.526 Y15.029
X59.752 Y15.077
X59.964 Y15.171
X60.151 Y15.307
X60.305 Y15.479
X60.421 Y15.679
X60.492 Y15.899
X60.517 Y16.129
X60.492 Y16.359
X60.421 Y16.579
X60.305 Y16.779
X60.151 Y16.951
X59.964 Y17.087
X59.881 Y17.124
X59.881 Y18.221
X63.512 Y18.184
X63.567 Y18.072
X63.572 Y18.018
X63.601 Y17.929
X63.648 Y17.848
X63.710 Y17.779
X63.785 Y17.724
X63.870 Y17.686
X63.962 Y17.667
X64.055 Y17.667
X64.064 Y17.669
X64.153 Y17.629
X64.376 Y17.582
X64.605 Y17.582
X64.829 Y17.629
X65.037 Y17.722
X65.222 Y17.857
X65.375 Y18.026
X65.489 Y18.224
X65.560 Y18.442
X65.584 Y18.669
X65.560 Y18.896
X65.489 Y19.114
X65.375 Y19.312
X65.222 Y19.482
X65.037 Y19.616
X64.913 Y19.670
X64.961 Y38.971
X64.952 Y39.056
X64.923 Y39.145
X64.877 Y39.226
X64.814 Y39.295
X64.739 Y39.349
X64.654 Y39.387
X64.563 Y39.407
X60.476 Y39.407
X60.463 Y39.446
X60.346 Y39.650
X60.188 Y39.825
X59.998 Y39.963
X59.784 Y40.058
X59.554 Y40.107
X59.318 Y40.107
G0 Z3.000
G0  X38.973 Y40.056
G0  Z3.000
G01 F400 Z0
G01 F400 Z-0.100
G01F400X38.743 Y40.008
X38.529 Y39.912
X38.338 Y39.774
X38.181 Y39.599
X38.064 Y39.395
X37.991 Y39.172
X37.966 Y38.938
X37.991 Y38.705
X38.064 Y38.481
X38.181 Y38.277
X38.338 Y38.103
X38.529 Y37.965
X38.743 Y37.869
X38.973 Y37.820
X39.208 Y37.820
X39.438 Y37.869
X39.653 Y37.965
X39.843 Y38.103
X40.000 Y38.277
X40.118 Y38.481
X40.190 Y38.705
X40.215 Y38.938
X40.190 Y39.172
X40.118 Y39.395
X40.000 Y39.599
X39.843 Y39.774
X39.653 Y39.912
X39.438 Y40.008
X39.208 Y40.056
X38.973 Y40.056
G0 Z3.000
G0  X13.576 Y37.536
G0  Z3.000
G01 F400 Z0
G01 F400 Z-0.100
G01F400X13.353 Y37.489
X13.144 Y37.396
X12.959 Y37.262
X12.806 Y37.092
X12.692 Y36.894
X12.621 Y36.676
X12.597 Y36.449
X12.621 Y36.222
X12.692 Y36.004
X12.806 Y35.806
X12.959 Y35.637
X13.144 Y35.502
X13.353 Y35.409
X13.576 Y35.362
X13.805 Y35.362
X14.029 Y35.409
X14.237 Y35.502
X14.422 Y35.637
X14.575 Y35.806
X14.689 Y36.004
X14.760 Y36.222
X14.784 Y36.449
X14.760 Y36.676
X14.689 Y36.894
X14.575 Y37.092
X14.422 Y37.262
X14.237 Y37.396
X14.029 Y37.489
X13.805 Y37.536
X13.576 Y37.536
G0 Z3.000
G0  X35.611 Y37.389
G0  Z3.000
G01 F400 Z0
G01 F400 Z-0.100
G01F400X35.611 Y35.509
X37.491 Y35.509
X37.491 Y37.389
X35.611 Y37.389
G0 Z3.000
G0  X38.967 Y37.385
G0  Z3.000
G01 F400 Z0
G01 F400 Z-0.100
G01F400X38.775 Y37.344
X38.595 Y37.264
X38.436 Y37.148
X38.304 Y37.002
X38.206 Y36.832
X38.145 Y36.645
X38.124 Y36.449
X38.145 Y36.253
X38.206 Y36.066
X38.304 Y35.896
X38.436 Y35.750
X38.595 Y35.634
X38.775 Y35.554
X38.967 Y35.513
X39.163 Y35.513
X39.356 Y35.554
X39.536 Y35.634
X39.695 Y35.750
X39.826 Y35.896
X39.925 Y36.066
X39.985 Y36.253
X40.006 Y36.449
X39.985 Y36.645
X39.925 Y36.832
X39.826 Y37.002
X39.695 Y37.148
X39.536 Y37.264
X39.356 Y37.344
X39.163 Y37.385
X38.967 Y37.385
G0 Z3.000
G0  X11.036 Y34.996
G0  Z3.000
G01 F400 Z0
G01 F400 Z-0.100
G01F400X10.813 Y34.949
X10.604 Y34.856
X10.419 Y34.721
X10.266 Y34.552
X10.152 Y34.354
X10.081 Y34.136
X10.057 Y33.909
X10.081 Y33.682
X10.152 Y33.464
X10.266 Y33.266
X10.419 Y33.096
X10.604 Y32.962
X10.813 Y32.869
X11.036 Y32.822
X11.265 Y32.822
X11.489 Y32.869
X11.697 Y32.962
X11.882 Y33.096
X12.035 Y33.266
X12.149 Y33.464
X12.220 Y33.682
X12.244 Y33.909
X12.220 Y34.136
X12.149 Y34.354
X12.035 Y34.552
X11.882 Y34.721
X11.697 Y34.856
X11.489 Y34.949
X11.265 Y34.996
X11.036 Y34.996
G0 Z3.000
G0  X59.296 Y34.996
G0  Z3.000
G01 F400 Z0
G01 F400 Z-0.100
G01F400X59.073 Y34.949
X58.864 Y34.856
X58.679 Y34.721
X58.526 Y34.552
X58.412 Y34.354
X58.341 Y34.136
X58.317 Y33.909
X58.341 Y33.682
X58.412 Y33.464
X58.526 Y33.266
X58.679 Y33.096
X58.864 Y32.962
X59.073 Y32.869
X59.296 Y32.822
X59.525 Y32.822
X59.748 Y32.869
X59.957 Y32.962
X60.142 Y33.096
X60.295 Y33.266
X60.409 Y33.464
X60.480 Y33.682
X60.504 Y33.909
X60.480 Y34.136
X60.409 Y34.354
X60.295 Y34.552
X60.142 Y34.721
X59.957 Y34.856
X59.748 Y34.949
X59.525 Y34.996
X59.296 Y34.996
G0 Z3.000
G0  X61.769 Y33.100
G0  Z3.000
G01 F400 Z0
G01 F400 Z-0.100
G01F400X61.413 Y33.025
X61.080 Y32.877
X60.786 Y32.663
X60.542 Y32.392
X60.360 Y32.077
X60.248 Y31.731
X60.210 Y31.369
X60.248 Y31.007
X60.360 Y30.661
X60.542 Y30.346
X60.786 Y30.075
X61.080 Y29.861
X61.413 Y29.713
X61.769 Y29.638
X62.133 Y29.638
X62.489 Y29.713
X62.821 Y29.861
X63.115 Y30.075
X63.359 Y30.346
X63.541 Y30.661
X63.653 Y31.007
X63.691 Y31.369
X63.653 Y31.731
X63.541 Y32.077
X63.359 Y32.392
X63.115 Y32.663
X62.821 Y32.877
X62.489 Y33.025
X62.133 Y33.100
X61.769 Y33.100
G0 Z3.000
G0  X28.816 Y29.916
G0  Z3.000
G01 F400 Z0
G01 F400 Z-0.100
G01F400X28.593 Y29.869
X28.384 Y29.776
X28.199 Y29.642
X28.046 Y29.472
X27.932 Y29.274
X27.861 Y29.056
X27.837 Y28.829
X27.861 Y28.602
X27.932 Y28.384
X28.046 Y28.186
X28.199 Y28.017
X28.384 Y27.882
X28.486 Y27.837
X28.510 Y16.572
X22.237 Y16.572
X22.144 Y16.734
X22.000 Y16.894
X21.826 Y17.021
X21.629 Y17.108
X21.418 Y17.153
X21.203 Y17.153
X20.992 Y17.108
X20.796 Y17.021
X20.622 Y16.894
X20.478 Y16.734
X20.370 Y16.548
X20.303 Y16.343
X20.281 Y16.129
X20.303 Y15.915
X20.370 Y15.710
X20.478 Y15.524
X20.622 Y15.364
X20.796 Y15.237
X20.992 Y15.150
X21.203 Y15.105
X21.418 Y15.105
X21.629 Y15.150
X21.826 Y15.237
X22.000 Y15.364
X22.144 Y15.524
X22.237 Y15.686
X29.003 Y15.686
X29.094 Y15.705
X29.179 Y15.743
X29.254 Y15.798
X29.317 Y15.867
X29.363 Y15.948
X29.392 Y16.036
X29.401 Y16.122
X29.376 Y27.837
X29.477 Y27.882
X29.662 Y28.017
X29.815 Y28.186
X29.929 Y28.384
X30.000 Y28.602
X30.024 Y28.829
X30.000 Y29.056
X29.929 Y29.274
X29.815 Y29.472
X29.662 Y29.642
X29.477 Y29.776
X29.269 Y29.869
X29.045 Y29.916
X28.816 Y29.916
G0 Z3.000
G0  X41.516 Y29.916
G0  Z3.000
G01 F400 Z0
G01 F400 Z-0.100
G01F400X41.293 Y29.869
X41.084 Y29.776
X40.899 Y29.642
X40.746 Y29.472
X40.632 Y29.274
X40.561 Y29.056
X40.537 Y28.829
X40.561 Y28.602
X40.632 Y28.384
X40.746 Y28.186
X40.899 Y28.017
X41.084 Y27.882
X41.293 Y27.789
X41.516 Y27.742
X41.745 Y27.742
X41.968 Y27.789
X42.177 Y27.882
X42.362 Y28.017
X42.515 Y28.186
X42.629 Y28.384
X42.700 Y28.602
X42.724 Y28.829
X42.700 Y29.056
X42.629 Y29.274
X42.515 Y29.472
X42.362 Y29.642
X42.177 Y29.776
X41.968 Y29.869
X41.745 Y29.916
X41.516 Y29.916
G0 Z3.000
G0  X20.180 Y27.420
G0  Z3.000
G01 F400 Z0
G01 F400 Z-0.100
G01F400X20.180 Y25.158
X22.441 Y25.158
X22.441 Y27.420
X20.180 Y27.420
G0 Z3.000
G0  X18.652 Y27.414
G0  Z3.000
G01 F400 Z0
G01 F400 Z-0.100
G01F400X18.421 Y27.365
X18.205 Y27.269
X18.014 Y27.130
X17.855 Y26.954
X17.737 Y26.749
X17.664 Y26.524
X17.639 Y26.289
X17.664 Y26.054
X17.737 Y25.829
X17.855 Y25.624
X18.014 Y25.448
X18.205 Y25.309
X18.421 Y25.213
X18.652 Y25.164
X18.889 Y25.164
X19.120 Y25.213
X19.336 Y25.309
X19.528 Y25.448
X19.686 Y25.624
X19.804 Y25.829
X19.877 Y26.054
X19.902 Y26.289
X19.877 Y26.524
X19.804 Y26.749
X19.686 Y26.954
