( Generated by Carbide Copper )
( Material Size )
( X= 68.000, Y= 50.000, Z= 1.580 )
()
G17
G21
G54
G90
M05
(  )
T502 M06
( Contour )
M03 S10000
G0  X0.933 Y49.696
G0  Z3.000
G01 F400 Z0
G01 F400 Z-0.100
G01F400X0.821 Y49.672
X0.716 Y49.626
X0.622 Y49.558
X0.545 Y49.472
X0.488 Y49.373
X0.452 Y49.263
X0.440 Y49.149
X0.452 Y49.035
X0.488 Y48.925
X0.545 Y48.826
X0.622 Y48.740
X0.644 Y48.724
X0.636 Y48.670
X0.636 Y1.344
X0.639 Y1.310
X0.622 Y1.298
X0.545 Y1.212
X0.488 Y1.113
X0.452 Y1.003
X0.440 Y0.889
X0.452 Y0.775
X0.488 Y0.665
X0.545 Y0.566
X0.622 Y0.480
X0.716 Y0.412
X0.821 Y0.366
X0.933 Y0.342
X1.048 Y0.342
X1.161 Y0.366
X1.266 Y0.412
X1.359 Y0.480
X1.413 Y0.540
X1.436 Y0.536
X66.585 Y0.536
X66.608 Y0.541
X66.662 Y0.480
X66.755 Y0.412
X66.861 Y0.366
X66.973 Y0.342
X67.088 Y0.342
X67.201 Y0.366
X67.306 Y0.412
X67.399 Y0.480
X67.476 Y0.566
X67.533 Y0.665
X67.569 Y0.775
X67.581 Y0.889
X67.569 Y1.003
X67.533 Y1.113
X67.476 Y1.212
X67.399 Y1.298
X67.382 Y1.310
X67.385 Y1.344
X67.385 Y48.669
X67.381 Y48.715
X67.404 Y48.746
X67.476 Y48.826
X67.533 Y48.925
X67.569 Y49.035
X67.581 Y49.149
X67.569 Y49.263
X67.533 Y49.373
X67.476 Y49.472
X67.399 Y49.558
X67.306 Y49.626
X67.201 Y49.672
X67.088 Y49.696
X66.973 Y49.696
X66.861 Y49.672
X66.755 Y49.626
X66.662 Y49.558
X66.608 Y49.498
X66.585 Y49.502
X1.436 Y49.502
X1.413 Y49.497
X1.359 Y49.558
X1.266 Y49.626
X1.161 Y49.672
X1.048 Y49.696
X0.933 Y49.696
G0 Z3.000
G0  X1.413 Y48.801
G0  Z3.000
G01 F400 Z0
G01 F400 Z-0.100
G01F400X1.436 Y48.796
X66.585 Y48.796
X66.608 Y48.801
X66.662 Y48.740
X66.684 Y48.724
X66.676 Y48.670
X66.676 Y1.344
X66.679 Y1.310
X66.662 Y1.298
X66.608 Y1.238
X66.585 Y1.242
X1.436 Y1.242
X1.413 Y1.237
X1.359 Y1.298
X1.342 Y1.310
X1.345 Y1.344
X1.345 Y48.669
X1.341 Y48.715
X1.363 Y48.745
X1.413 Y48.801
G0 Z3.000
G0  X12.650 Y47.650
G0  Z3.000
G01 F400 Z0
G01 F400 Z-0.100
G01F400X12.650 Y45.568
X13.336 Y45.568
X13.336 Y42.497
X13.174 Y42.424
X12.999 Y42.297
X12.854 Y42.137
X12.746 Y41.950
X12.679 Y41.744
X12.657 Y41.529
X12.679 Y41.314
X12.746 Y41.108
X12.854 Y40.921
X12.999 Y40.761
X13.174 Y40.634
X13.371 Y40.546
X13.583 Y40.501
X13.799 Y40.501
X14.010 Y40.546
X14.208 Y40.634
X14.382 Y40.761
X14.527 Y40.921
X14.635 Y41.108
X14.702 Y41.314
X14.724 Y41.529
X14.702 Y41.744
X14.635 Y41.950
X14.527 Y42.137
X14.382 Y42.297
X14.208 Y42.424
X14.045 Y42.497
X14.045 Y45.568
X14.731 Y45.568
X14.731 Y47.650
X12.650 Y47.650
G0 Z3.000
G0  X11.042 Y47.644
G0  Z3.000
G01 F400 Z0
G01 F400 Z-0.100
G01F400X10.829 Y47.599
X10.630 Y47.510
X10.454 Y47.383
X10.309 Y47.221
X10.200 Y47.032
X10.133 Y46.825
X10.110 Y46.609
X10.133 Y46.393
X10.200 Y46.186
X10.309 Y45.997
X10.454 Y45.836
X10.630 Y45.708
X10.795 Y45.634
X10.796 Y42.497
X10.634 Y42.424
X10.459 Y42.297
X10.314 Y42.137
X10.206 Y41.950
X10.139 Y41.744
X10.117 Y41.529
X10.139 Y41.314
X10.206 Y41.108
X10.314 Y40.921
X10.459 Y40.761
X10.634 Y40.634
X10.831 Y40.546
X11.043 Y40.501
X11.259 Y40.501
X11.470 Y40.546
X11.668 Y40.634
X11.842 Y40.761
X11.987 Y40.921
X12.095 Y41.108
X12.162 Y41.314
X12.184 Y41.529
X12.162 Y41.744
X12.095 Y41.950
X11.987 Y42.137
X11.842 Y42.297
X11.668 Y42.424
X11.505 Y42.497
X11.505 Y45.634
X11.671 Y45.708
X11.847 Y45.836
X11.993 Y45.997
X12.101 Y46.186
X12.169 Y46.393
X12.192 Y46.609
X12.169 Y46.825
X12.101 Y47.032
X11.993 Y47.221
X11.847 Y47.383
X11.671 Y47.510
X11.472 Y47.599
X11.259 Y47.644
X11.042 Y47.644
G0 Z3.000
G0  X8.502 Y47.644
G0  Z3.000
G01 F400 Z0
G01 F400 Z-0.100
G01F400X8.289 Y47.599
X8.090 Y47.510
X7.914 Y47.383
X7.769 Y47.221
X7.660 Y47.032
X7.593 Y46.825
X7.570 Y46.609
X7.593 Y46.393
X7.660 Y46.186
X7.769 Y45.997
X7.914 Y45.836
X8.090 Y45.708
X8.289 Y45.619
X8.502 Y45.574
X8.719 Y45.574
X8.932 Y45.619
X9.131 Y45.708
X9.307 Y45.836
X9.453 Y45.997
X9.562 Y46.186
X9.629 Y46.393
X9.652 Y46.609
X9.629 Y46.825
X9.562 Y47.032
X9.453 Y47.221
X9.307 Y47.383
X9.131 Y47.510
X8.932 Y47.599
X8.719 Y47.644
X8.502 Y47.644
G0 Z3.000
G0  X26.303 Y46.988
G0  Z3.000
G01 F400 Z0
G01 F400 Z-0.100
G01F400X26.230 Y46.972
X26.162 Y46.942
X26.102 Y46.898
X26.053 Y46.843
X26.015 Y46.779
X25.992 Y46.708
X25.985 Y46.637
X26.009 Y42.485
X25.874 Y42.424
X25.699 Y42.297
X25.554 Y42.137
X25.446 Y41.950
X25.379 Y41.744
X25.357 Y41.529
X25.379 Y41.314
X25.446 Y41.108
X25.554 Y40.921
X25.699 Y40.761
X25.874 Y40.634
X26.071 Y40.546
X26.283 Y40.501
X26.499 Y40.501
X26.710 Y40.546
X26.908 Y40.634
X27.082 Y40.761
X27.227 Y40.921
X27.335 Y41.108
X27.402 Y41.314
X27.424 Y41.529
X27.402 Y41.744
X27.335 Y41.950
X27.227 Y42.137
X27.082 Y42.297
X26.908 Y42.424
X26.719 Y42.508
X26.697 Y46.281
X64.110 Y46.231
X64.110 Y19.022
X41.568 Y19.022
X41.495 Y19.007
X41.428 Y18.977
X41.368 Y18.933
X41.318 Y18.878
X41.281 Y18.813
X41.258 Y18.743
X41.250 Y18.672
X41.201 Y12.060
X41.053 Y11.994
X40.883 Y11.870
X40.743 Y11.715
X40.638 Y11.533
X40.574 Y11.334
X40.552 Y11.125
X40.574 Y10.917
X40.638 Y10.717
X40.743 Y10.536
X40.883 Y10.380
X41.053 Y10.257
X41.245 Y10.171
X41.450 Y10.128
X41.659 Y10.128
X41.864 Y10.171
X42.056 Y10.257
X42.225 Y10.380
X42.366 Y10.536
X42.471 Y10.717
X42.535 Y10.917
X42.557 Y11.125
X42.535 Y11.334
X42.471 Y11.533
X42.366 Y11.715
X42.225 Y11.870
X42.056 Y11.994
X41.911 Y12.058
X41.957 Y18.316
X64.502 Y18.316
X64.575 Y18.331
X64.643 Y18.361
X64.703 Y18.405
X64.752 Y18.460
X64.790 Y18.525
X64.813 Y18.595
X64.820 Y18.666
X64.820 Y46.586
X64.813 Y46.657
X64.790 Y46.728
X64.752 Y46.792
X64.703 Y46.848
X64.643 Y46.891
X64.575 Y46.921
X64.502 Y46.937
X26.372 Y46.988
X26.303 Y46.988
G0 Z3.000
G0  X28.894 Y44.448
G0  Z3.000
G01 F400 Z0
G01 F400 Z-0.100
G01F400X28.821 Y44.432
X28.753 Y44.402
X28.693 Y44.358
X28.643 Y44.303
X28.606 Y44.239
X28.583 Y44.168
X28.576 Y44.097
X28.576 Y42.497
X28.414 Y42.424
X28.239 Y42.297
X28.094 Y42.137
X27.986 Y41.950
X27.919 Y41.744
X27.897 Y41.529
X27.919 Y41.314
X27.986 Y41.108
X28.094 Y40.921
X28.239 Y40.761
X28.414 Y40.634
X28.611 Y40.546
X28.823 Y40.501
X29.039 Y40.501
X29.250 Y40.546
X29.448 Y40.634
X29.622 Y40.761
X29.767 Y40.921
X29.875 Y41.108
X29.942 Y41.314
X29.964 Y41.529
X29.942 Y41.744
X29.875 Y41.950
X29.767 Y42.137
X29.622 Y42.297
X29.448 Y42.424
X29.285 Y42.497
X29.285 Y43.741
X61.621 Y43.716
X61.621 Y21.587
X29.865 Y21.562
X29.847 Y21.617
X29.742 Y21.798
X29.602 Y21.954
X29.432 Y22.077
X29.241 Y22.163
X29.035 Y22.206
X28.826 Y22.206
X28.621 Y22.163
X28.429 Y22.077
X28.260 Y21.954
X28.119 Y21.798
X28.015 Y21.617
X27.950 Y21.418
X27.928 Y21.209
X27.950 Y21.001
X28.015 Y20.801
X28.119 Y20.620
X28.260 Y20.464
X28.429 Y20.341
X28.621 Y20.255
X28.826 Y20.212
X29.035 Y20.212
X29.241 Y20.255
X29.432 Y20.341
X29.602 Y20.464
X29.742 Y20.620
X29.847 Y20.801
X29.865 Y20.856
X62.013 Y20.881
X62.086 Y20.897
X62.154 Y20.927
X62.214 Y20.971
X62.263 Y21.026
X62.300 Y21.090
X62.323 Y21.161
X62.331 Y21.232
X62.331 Y44.072
X62.323 Y44.143
X62.300 Y44.213
X62.263 Y44.278
X62.214 Y44.333
X62.154 Y44.377
X62.086 Y44.407
X62.013 Y44.422
X61.969 Y44.422
X28.963 Y44.448
X28.894 Y44.448
G0 Z3.000
G0  X41.523 Y42.557
G0  Z3.000
G01 F400 Z0
G01 F400 Z-0.100
G01F400X41.311 Y42.512
X41.114 Y42.424
X40.939 Y42.297
X40.794 Y42.137
X40.686 Y41.950
X40.619 Y41.744
X40.597 Y41.529
X40.619 Y41.314
X40.686 Y41.108
X40.794 Y40.921
X40.939 Y40.761
X41.114 Y40.634
X41.311 Y40.546
X41.523 Y40.501
X41.739 Y40.501
X41.950 Y40.546
X42.148 Y40.634
X42.322 Y40.761
X42.467 Y40.921
X42.575 Y41.108
X42.642 Y41.314
X42.664 Y41.529
X42.642 Y41.744
X42.575 Y41.950
X42.467 Y42.137
X42.322 Y42.297
X42.148 Y42.424
X41.950 Y42.512
X41.739 Y42.557
X41.523 Y42.557
G0 Z3.000
G0  X44.063 Y42.557
G0  Z3.000
G01 F400 Z0
G01 F400 Z-0.100
G01F400X43.851 Y42.512
X43.654 Y42.424
X43.479 Y42.297
X43.334 Y42.137
X43.226 Y41.950
X43.159 Y41.744
X43.137 Y41.529
X43.159 Y41.314
X43.226 Y41.108
X43.334 Y40.921
X43.479 Y40.761
X43.654 Y40.634
X43.851 Y40.546
X44.063 Y40.501
X44.279 Y40.501
X44.490 Y40.546
X44.688 Y40.634
X44.862 Y40.761
X45.007 Y40.921
X45.115 Y41.108
X45.182 Y41.314
X45.204 Y41.529
X45.182 Y41.744
X45.115 Y41.950
X45.007 Y42.137
X44.862 Y42.297
X44.688 Y42.424
X44.490 Y42.512
X44.279 Y42.557
X44.063 Y42.557
G0 Z3.000
G0  X36.443 Y42.557
G0  Z3.000
G01 F400 Z0
G01 F400 Z-0.100
G01F400X36.231 Y42.512
X36.034 Y42.424
X35.859 Y42.297
X35.714 Y42.137
X35.606 Y41.950
X35.539 Y41.744
X35.517 Y41.529
X35.539 Y41.314
X35.606 Y41.108
X35.714 Y40.921
X35.859 Y40.761
X36.034 Y40.634
X36.231 Y40.546
X36.443 Y40.501
X36.659 Y40.501
X36.870 Y40.546
X37.068 Y40.634
X37.242 Y40.761
X37.387 Y40.921
X37.495 Y41.108
X37.562 Y41.314
X37.584 Y41.529
X37.562 Y41.744
X37.495 Y41.950
X37.387 Y42.137
X37.242 Y42.297
X37.068 Y42.424
X36.870 Y42.512
X36.659 Y42.557
X36.443 Y42.557
G0 Z3.000
G0  X38.983 Y42.557
G0  Z3.000
G01 F400 Z0
G01 F400 Z-0.100
G01F400X38.771 Y42.512
X38.574 Y42.424
X38.399 Y42.297
X38.254 Y42.137
X38.146 Y41.950
X38.079 Y41.744
X38.057 Y41.529
X38.079 Y41.314
X38.146 Y41.108
X38.254 Y40.921
X38.399 Y40.761
X38.574 Y40.634
X38.771 Y40.546
X38.983 Y40.501
X39.199 Y40.501
X39.410 Y40.546
X39.608 Y40.634
X39.782 Y40.761
X39.927 Y40.921
X40.035 Y41.108
X40.102 Y41.314
X40.124 Y41.529
X40.102 Y41.744
X40.035 Y41.950
X39.927 Y42.137
X39.782 Y42.297
X39.608 Y42.424
X39.410 Y42.512
X39.199 Y42.557
X38.983 Y42.557
G0 Z3.000
G0  X51.657 Y42.557
G0  Z3.000
G01 F400 Z0
G01 F400 Z-0.100
G01F400X51.446 Y42.512
X51.248 Y42.424
X51.073 Y42.297
X50.929 Y42.137
X50.821 Y41.950
X50.754 Y41.744
X50.731 Y41.529
X50.754 Y41.314
X50.821 Y41.108
X50.929 Y40.921
X51.073 Y40.761
X51.248 Y40.634
X51.446 Y40.546
X51.657 Y40.501
X51.873 Y40.501
X52.085 Y40.546
X52.282 Y40.634
X52.457 Y40.761
X52.602 Y40.921
X52.710 Y41.108
X52.776 Y41.314
X52.799 Y41.529
X52.776 Y41.744
X52.710 Y41.950
X52.602 Y42.137
X52.457 Y42.297
X52.282 Y42.424
X52.085 Y42.512
X51.873 Y42.557
X51.657 Y42.557
G0 Z3.000
G0  X54.223 Y42.557
G0  Z3.000
G01 F400 Z0
G01 F400 Z-0.100
G01F400X54.011 Y42.512
X53.814 Y42.424
X53.639 Y42.297
X53.494 Y42.137
X53.386 Y41.950
X53.345 Y41.821
X53.306 Y41.793
X53.256 Y41.738
X53.219 Y41.673
X53.196 Y41.603
X53.188 Y41.529
X53.196 Y41.455
X53.219 Y41.385
X53.256 Y41.320
X53.306 Y41.265
X53.345 Y41.237
X53.386 Y41.108
X53.494 Y40.921
X53.639 Y40.761
X53.814 Y40.634
X54.011 Y40.546
X54.223 Y40.501
X54.439 Y40.501
X54.650 Y40.546
X54.848 Y40.634
X55.022 Y40.761
X55.167 Y40.921
X55.275 Y41.108
X55.342 Y41.314
X55.345 Y41.349
X55.366 Y41.385
X55.389 Y41.455
X55.397 Y41.529
X55.389 Y41.603
X55.366 Y41.673
X55.345 Y41.709
X55.342 Y41.744
X55.275 Y41.950
X55.167 Y42.137
X55.022 Y42.297
X54.848 Y42.424
X54.650 Y42.512
X54.439 Y42.557
X54.223 Y42.557
G0 Z3.000
G0  X46.602 Y42.557
G0  Z3.000
G01 F400 Z0
G01 F400 Z-0.100
G01F400X46.391 Y42.512
X46.194 Y42.424
X46.019 Y42.297
X45.874 Y42.137
X45.766 Y41.950
X45.699 Y41.744
X45.677 Y41.529
X45.699 Y41.314
X45.766 Y41.108
X45.874 Y40.921
X46.019 Y40.761
X46.194 Y40.634
X46.391 Y40.546
X46.602 Y40.501
X46.819 Y40.501
X47.030 Y40.546
X47.227 Y40.634
X47.402 Y40.761
X47.547 Y40.921
X47.655 Y41.108
X47.722 Y41.314
X47.744 Y41.529
X47.722 Y41.744
X47.655 Y41.950
X47.547 Y42.137
X47.402 Y42.297
X47.227 Y42.424
X47.030 Y42.512
X46.819 Y42.557
X46.602 Y42.557
G0 Z3.000
G0  X49.117 Y42.557
G0  Z3.000
G01 F400 Z0
G01 F400 Z-0.100
G01F400X48.906 Y42.512
X48.708 Y42.424
X48.533 Y42.297
X48.389 Y42.137
X48.281 Y41.950
X48.214 Y41.744
X48.191 Y41.529
X48.214 Y41.314
X48.281 Y41.108
X48.389 Y40.921
X48.533 Y40.761
X48.708 Y40.634
X48.906 Y40.546
X49.117 Y40.501
X49.333 Y40.501
X49.545 Y40.546
X49.742 Y40.634
X49.917 Y40.761
X50.062 Y40.921
X50.170 Y41.108
X50.236 Y41.314
X50.259 Y41.529
X50.236 Y41.744
X50.170 Y41.950
X50.062 Y42.137
X49.917 Y42.297
X49.742 Y42.424
X49.545 Y42.512
X49.333 Y42.557
X49.117 Y42.557
G0 Z3.000
G0  X21.203 Y42.557
G0  Z3.000
G01 F400 Z0
G01 F400 Z-0.100
G01F400X20.991 Y42.512
X20.794 Y42.424
X20.619 Y42.297
X20.474 Y42.137
X20.366 Y41.950
X20.299 Y41.744
X20.277 Y41.529
X20.299 Y41.314
X20.366 Y41.108
X20.474 Y40.921
X20.619 Y40.761
X20.794 Y40.634
X20.991 Y40.546
X21.203 Y40.501
X21.419 Y40.501
X21.630 Y40.546
X21.828 Y40.634
X22.002 Y40.761
X22.147 Y40.921
X22.255 Y41.108
X22.322 Y41.314
X22.344 Y41.529
X22.322 Y41.744
X22.255 Y41.950
X22.147 Y42.137
X22.002 Y42.297
X21.828 Y42.424
X21.630 Y42.512
X21.419 Y42.557
X21.203 Y42.557
G0 Z3.000
G0  X23.742 Y42.557
G0  Z3.000
G01 F400 Z0
G01 F400 Z-0.100
G01F400X23.531 Y42.512
X23.334 Y42.424
X23.159 Y42.297
X23.014 Y42.137
X22.906 Y41.950
X22.839 Y41.744
X22.817 Y41.529
X22.839 Y41.314
X22.906 Y41.108
X23.014 Y40.921
X23.159 Y40.761
X23.334 Y40.634
X23.531 Y40.546
X23.742 Y40.501
X23.959 Y40.501
X24.170 Y40.546
X24.367 Y40.634
X24.542 Y40.761
X24.687 Y40.921
X24.795 Y41.108
X24.862 Y41.314
X24.884 Y41.529
X24.862 Y41.744
X24.795 Y41.950
X24.687 Y42.137
X24.542 Y42.297
X24.367 Y42.424
X24.170 Y42.512
X23.959 Y42.557
X23.742 Y42.557
G0 Z3.000
G0  X16.123 Y42.557
G0  Z3.000
G01 F400 Z0
G01 F400 Z-0.100
G01F400X15.911 Y42.512
X15.714 Y42.424
X15.539 Y42.297
X15.394 Y42.137
X15.286 Y41.950
X15.219 Y41.744
X15.197 Y41.529
X15.219 Y41.314
X15.286 Y41.108
X15.394 Y40.921
X15.539 Y40.761
X15.714 Y40.634
X15.911 Y40.546
X16.123 Y40.501
X16.339 Y40.501
X16.550 Y40.546
X16.748 Y40.634
X16.922 Y40.761
X17.067 Y40.921
X17.175 Y41.108
X17.242 Y41.314
X17.264 Y41.529
X17.242 Y41.744
X17.175 Y41.950
X17.067 Y42.137
X16.922 Y42.297
X16.748 Y42.424
X16.550 Y42.512
X16.339 Y42.557
X16.123 Y42.557
G0 Z3.000
G0  X18.663 Y42.557
G0  Z3.000
G01 F400 Z0
G01 F400 Z-0.100
G01F400X18.451 Y42.512
X18.254 Y42.424
X18.079 Y42.297
X17.934 Y42.137
X17.826 Y41.950
X17.759 Y41.744
X17.737 Y41.529
X17.759 Y41.314
X17.826 Y41.108
X17.934 Y40.921
X18.079 Y40.761
X18.254 Y40.634
X18.451 Y40.546
X18.663 Y40.501
X18.879 Y40.501
X19.090 Y40.546
X19.288 Y40.634
X19.462 Y40.761
X19.607 Y40.921
X19.715 Y41.108
X19.782 Y41.314
X19.804 Y41.529
X19.782 Y41.744
X19.715 Y41.950
X19.607 Y42.137
X19.462 Y42.297
X19.288 Y42.424
X19.090 Y42.512
X18.879 Y42.557
X18.663 Y42.557
G0 Z3.000
G0  X31.337 Y42.557
G0  Z3.000
G01 F400 Z0
G01 F400 Z-0.100
G01F400X31.126 Y42.512
X30.928 Y42.424
X30.753 Y42.297
X30.609 Y42.137
X30.501 Y41.950
X30.434 Y41.744
X30.411 Y41.529
X30.434 Y41.314
X30.501 Y41.108
X30.609 Y40.921
X30.753 Y40.761
X30.928 Y40.634
X31.126 Y40.546
X31.337 Y40.501
X31.553 Y40.501
X31.765 Y40.546
X31.962 Y40.634
X32.137 Y40.761
X32.282 Y40.921
X32.390 Y41.108
X32.456 Y41.314
X32.479 Y41.529
X32.456 Y41.744
X32.390 Y41.950
X32.282 Y42.137
X32.137 Y42.297
X31.962 Y42.424
X31.765 Y42.512
X31.553 Y42.557
X31.337 Y42.557
G0 Z3.000
G0  X33.903 Y42.557
G0  Z3.000
G01 F400 Z0
G01 F400 Z-0.100
G01F400X33.691 Y42.512
X33.494 Y42.424
X33.319 Y42.297
X33.174 Y42.137
X33.066 Y41.950
X32.999 Y41.744
X32.977 Y41.529
X32.999 Y41.314
X33.066 Y41.108
X33.174 Y40.921
X33.319 Y40.761
X33.494 Y40.634
X33.691 Y40.546
X33.903 Y40.501
X34.119 Y40.501
X34.330 Y40.546
X34.528 Y40.634
X34.702 Y40.761
X34.847 Y40.921
X34.955 Y41.108
X35.022 Y41.314
X35.044 Y41.529
X35.022 Y41.744
X34.955 Y41.950
X34.847 Y42.137
X34.702 Y42.297
X34.528 Y42.424
X34.330 Y42.512
X34.119 Y42.557
X33.903 Y42.557
G0 Z3.000
G0  X56.763 Y42.557
G0  Z3.000
G01 F400 Z0
G01 F400 Z-0.100
G01F400X56.551 Y42.512
X56.354 Y42.424
X56.179 Y42.297
X56.034 Y42.137
X55.926 Y41.950
X55.885 Y41.821
X55.846 Y41.793
X55.796 Y41.738
X55.759 Y41.673
X55.736 Y41.603
X55.728 Y41.529
X55.736 Y41.455
X55.759 Y41.385
X55.796 Y41.320
X55.846 Y41.265
X55.885 Y41.237
X55.926 Y41.108
X56.034 Y40.921
X56.179 Y40.761
X56.354 Y40.634
X56.551 Y40.546
X56.763 Y40.501
X56.979 Y40.501
X57.190 Y40.546
X57.388 Y40.634
X57.562 Y40.761
X57.707 Y40.921
X57.815 Y41.108
X57.882 Y41.314
X57.885 Y41.349
X57.906 Y41.385
X57.929 Y41.455
X57.937 Y41.529
X57.929 Y41.603
X57.906 Y41.673
X57.885 Y41.709
X57.882 Y41.744
X57.815 Y41.950
X57.707 Y42.137
X57.562 Y42.297
X57.388 Y42.424
X57.190 Y42.512
X56.979 Y42.557
X56.763 Y42.557
G0 Z3.000
G0  X8.503 Y42.557
G0  Z3.000
G01 F400 Z0
G01 F400 Z-0.100
G01F400X8.291 Y42.512
X8.094 Y42.424
X7.919 Y42.297
X7.774 Y42.137
X7.666 Y41.950
X7.599 Y41.744
X7.577 Y41.529
X7.599 Y41.314
X7.666 Y41.108
X7.774 Y40.921
X7.919 Y40.761
X8.094 Y40.634
X8.291 Y40.546
X8.503 Y40.501
X8.719 Y40.501
X8.930 Y40.546
X9.128 Y40.634
X9.302 Y40.761
X9.447 Y40.921
X9.555 Y41.108
X9.622 Y41.314
X9.644 Y41.529
X9.622 Y41.744
X9.555 Y41.950
X9.447 Y42.137
X9.302 Y42.297
X9.128 Y42.424
X8.930 Y42.512
X8.719 Y42.557
X8.503 Y42.557
G0 Z3.000
G0  X13.583 Y40.017
G0  Z3.000
G01 F400 Z0
G01 F400 Z-0.100
G01F400X13.371 Y39.972
X13.174 Y39.884
X12.999 Y39.757
X12.854 Y39.597
X12.746 Y39.410
X12.679 Y39.204
X12.657 Y38.989
X12.679 Y38.774
X12.746 Y38.569
X12.854 Y38.381
X12.999 Y38.221
X13.174 Y38.094
X13.371 Y38.006
X13.583 Y37.961
X13.799 Y37.961
X14.010 Y38.006
X14.208 Y38.094
X14.382 Y38.221
X14.527 Y38.381
X14.635 Y38.569
X14.702 Y38.774
X14.724 Y38.989
X14.702 Y39.204
X14.635 Y39.410
X14.527 Y39.597
X14.382 Y39.757
X14.208 Y39.884
X14.010 Y39.972
X13.799 Y40.017
X13.583 Y40.017
G0 Z3.000
G0  X11.043 Y40.017
G0  Z3.000
G01 F400 Z0
G01 F400 Z-0.100
G01F400X10.831 Y39.972
X10.634 Y39.884
X10.459 Y39.757
X10.314 Y39.597
X10.206 Y39.410
X10.139 Y39.204
X10.117 Y38.989
X10.139 Y38.774
X10.206 Y38.569
X10.314 Y38.381
X10.459 Y38.221
X10.634 Y38.094
X10.831 Y38.006
X11.043 Y37.961
X11.259 Y37.961
X11.470 Y38.006
X11.668 Y38.094
X11.842 Y38.221
X11.987 Y38.381
X12.095 Y38.569
X12.162 Y38.774
X12.184 Y38.989
X12.162 Y39.204
X12.095 Y39.410
X11.987 Y39.597
X11.842 Y39.757
X11.668 Y39.884
X11.470 Y39.972
X11.259 Y40.017
X11.043 Y40.017
G0 Z3.000
G0  X18.663 Y40.017
G0  Z3.000
G01 F400 Z0
G01 F400 Z-0.100
G01F400X18.451 Y39.972
X18.254 Y39.884
X18.079 Y39.757
X17.934 Y39.597
X17.826 Y39.410
X17.759 Y39.204
X17.737 Y38.989
X17.759 Y38.774
X17.826 Y38.569
X17.934 Y38.381
X18.079 Y38.221
X18.254 Y38.094
X18.390 Y38.033
X18.390 Y36.777
X3.468 Y36.777
X3.396 Y36.761
X3.328 Y36.731
X3.268 Y36.688
X3.218 Y36.632
X3.181 Y36.568
X3.158 Y36.497
X3.150 Y36.426
X3.176 Y31.369
X3.176 Y26.239
X3.150 Y23.747
X3.158 Y23.675
X3.181 Y23.605
X3.218 Y23.540
X3.268 Y23.485
X3.328 Y23.442
X3.396 Y23.411
X3.468 Y23.396
X5.137 Y23.396
X5.155 Y23.341
X5.259 Y23.160
X5.400 Y23.004
X5.569 Y22.881
X5.761 Y22.795
X5.966 Y22.752
X6.175 Y22.752
X6.381 Y22.795
X6.572 Y22.881
X6.742 Y23.004
X6.882 Y23.160
X6.987 Y23.341
X7.052 Y23.541
X7.073 Y23.749
X7.052 Y23.957
X6.987 Y24.157
X6.882 Y24.338
X6.742 Y24.494
X6.572 Y24.617
X6.381 Y24.703
X6.175 Y24.746
X5.966 Y24.746
X5.761 Y24.703
X5.569 Y24.617
X5.400 Y24.494
X5.259 Y24.338
X5.155 Y24.157
X5.137 Y24.102
X3.864 Y24.102
X3.882 Y25.885
X33.656 Y25.885
X33.656 Y24.683
X33.509 Y24.617
X33.484 Y24.599
X33.110 Y24.599
X33.110 Y24.183
X33.095 Y24.157
X33.051 Y24.024
X33.036 Y24.013
X32.987 Y23.958
X32.950 Y23.893
X32.927 Y23.823
X32.919 Y23.749
X32.927 Y23.675
X32.950 Y23.605
X32.987 Y23.540
X33.036 Y23.485
X33.051 Y23.474
X33.095 Y23.341
X33.110 Y23.315
X33.110 Y22.899
X33.484 Y22.899
X33.509 Y22.881
X33.701 Y22.795
X33.906 Y22.752
X34.115 Y22.752
X34.321 Y22.795
X34.512 Y22.881
X34.537 Y22.899
X34.810 Y22.899
X34.810 Y23.146
X34.822 Y23.160
X34.927 Y23.341
X34.992 Y23.541
X35.013 Y23.749
X34.992 Y23.957
X34.927 Y24.157
X34.822 Y24.338
X34.810 Y24.352
X34.810 Y24.599
X34.537 Y24.599
X34.512 Y24.617
X34.365 Y24.683
X34.365 Y26.241
X34.358 Y26.312
X34.335 Y26.383
X34.298 Y26.447
X34.248 Y26.502
X34.188 Y26.546
X34.120 Y26.576
X34.048 Y26.591
X3.885 Y26.591
X3.885 Y31.016
X4.460 Y31.015
X4.563 Y30.698
X4.736 Y30.399
X4.966 Y30.143
X5.245 Y29.940
X5.561 Y29.800
X5.898 Y29.728
X6.243 Y29.728
X6.581 Y29.800
X6.896 Y29.940
X7.175 Y30.143
X7.406 Y30.399
X7.578 Y30.698
X7.681 Y31.014
X22.247 Y31.007
X22.343 Y30.698
X22.515 Y30.399
X22.746 Y30.143
X23.026 Y29.940
X23.341 Y29.800
X23.678 Y29.728
X24.023 Y29.728
X24.361 Y29.800
X24.676 Y29.940
X24.955 Y30.143
X25.186 Y30.399
X25.358 Y30.698
X25.452 Y30.986
X56.516 Y30.991
X56.516 Y24.683
X56.369 Y24.617
X56.200 Y24.494
X56.059 Y24.338
X55.955 Y24.157
X55.890 Y23.957
X55.868 Y23.749
X55.890 Y23.541
X55.955 Y23.341
X56.059 Y23.160
X56.200 Y23.004
X56.369 Y22.881
X56.561 Y22.795
X56.766 Y22.752
X56.975 Y22.752
X57.181 Y22.795
X57.372 Y22.881
X57.542 Y23.004
X57.682 Y23.160
X57.787 Y23.341
X57.852 Y23.541
X57.873 Y23.749
X57.852 Y23.957
X57.787 Y24.157
X57.682 Y24.338
X57.542 Y24.494
X57.372 Y24.617
X57.225 Y24.683
X57.225 Y31.346
X57.218 Y31.417
X57.195 Y31.488
X57.158 Y31.552
X57.108 Y31.608
X57.048 Y31.651
X56.980 Y31.681
X56.908 Y31.697
X25.465 Y31.712
X25.465 Y31.712
X25.358 Y32.040
X25.186 Y32.339
X24.955 Y32.595
X24.676 Y32.798
X24.361 Y32.939
X24.023 Y33.010
X23.678 Y33.010
X23.341 Y32.939
X23.026 Y32.798
X22.746 Y32.595
X22.515 Y32.339
X22.343 Y32.040
X22.237 Y31.713
X7.682 Y31.720
X7.578 Y32.040
X7.406 Y32.339
X7.175 Y32.595
X6.896 Y32.798
X6.581 Y32.939
X6.243 Y33.010
X5.898 Y33.010
X5.561 Y32.939
X5.245 Y32.798
X4.966 Y32.595
X4.736 Y32.339
X4.563 Y32.040
X4.460 Y31.722
X3.884 Y31.722
X3.862 Y36.071
X28.198 Y36.071
X28.268 Y35.949
X28.387 Y35.817
X28.531 Y35.713
X28.693 Y35.640
X28.867 Y35.603
X29.045 Y35.603
X29.219 Y35.640
X29.381 Y35.713
X29.525 Y35.817
X29.644 Y35.949
X29.733 Y36.103
X29.788 Y36.272
X29.806 Y36.449
X29.788 Y36.626
X29.733 Y36.795
X29.644 Y36.949
X29.525 Y37.081
X29.381 Y37.185
X29.219 Y37.258
X29.045 Y37.295
X28.867 Y37.295
X28.693 Y37.258
X28.531 Y37.185
X28.387 Y37.081
X28.268 Y36.949
X28.179 Y36.795
X28.173 Y36.777
X19.100 Y36.777
X19.100 Y38.010
X19.288 Y38.094
X19.462 Y38.221
X19.607 Y38.381
X19.715 Y38.569
X19.782 Y38.774
X19.804 Y38.989
X19.782 Y39.204
X19.715 Y39.410
X19.607 Y39.597
X19.462 Y39.757
X19.288 Y39.884
X19.090 Y39.972
X18.879 Y40.017
X18.663 Y40.017
G0 Z3.000
G0  X16.123 Y40.017
G0  Z3.000
G01 F400 Z0
G01 F400 Z-0.100
G01F400X15.911 Y39.972
X15.714 Y39.884
X15.539 Y39.757
X15.394 Y39.597
X15.286 Y39.410
X15.219 Y39.204
X15.197 Y38.989
X15.219 Y38.774
X15.286 Y38.569
X15.394 Y38.381
X15.539 Y38.221
X15.714 Y38.094
X15.911 Y38.006
X16.123 Y37.961
X16.339 Y37.961
X16.550 Y38.006
X16.748 Y38.094
X16.922 Y38.221
X17.067 Y38.381
X17.175 Y38.569
X17.242 Y38.774
X17.264 Y38.989
X17.242 Y39.204
X17.175 Y39.410
X17.067 Y39.597
X16.922 Y39.757
X16.748 Y39.884
X16.550 Y39.972
X16.339 Y40.017
X16.123 Y40.017
G0 Z3.000
G0  X8.477 Y40.017
G0  Z3.000
G01 F400 Z0
G01 F400 Z-0.100
G01F400X8.266 Y39.972
X8.068 Y39.884
X7.893 Y39.757
X7.749 Y39.597
X7.641 Y39.410
X7.574 Y39.204
X7.551 Y38.989
X7.574 Y38.774
X7.641 Y38.569
X7.749 Y38.381
X7.893 Y38.221
X8.068 Y38.094
X8.266 Y38.006
X8.477 Y37.961
X8.693 Y37.961
X8.905 Y38.006
X9.102 Y38.094
X9.277 Y38.221
X9.422 Y38.381
X9.530 Y38.569
X9.596 Y38.774
X9.619 Y38.989
X9.596 Y39.204
X9.530 Y39.410
X9.422 Y39.597
X9.277 Y39.757
X9.102 Y39.884
X8.905 Y39.972
X8.693 Y40.017
X8.477 Y40.017
G0 Z3.000
G0  X33.903 Y40.017
G0  Z3.000
G01 F400 Z0
G01 F400 Z-0.100
G01F400X33.691 Y39.972
X33.494 Y39.884
X33.319 Y39.757
X33.174 Y39.597
X33.066 Y39.410
X32.999 Y39.204
X32.977 Y38.989
X32.999 Y38.774
X33.066 Y38.569
X33.174 Y38.381
X33.319 Y38.221
X33.494 Y38.094
X33.691 Y38.006
X33.903 Y37.961
X34.119 Y37.961
X34.330 Y38.006
X34.528 Y38.094
X34.702 Y38.221
X34.847 Y38.381
X34.955 Y38.569
X35.022 Y38.774
X35.044 Y38.989
X35.022 Y39.204
X34.955 Y39.410
X34.847 Y39.597
X34.702 Y39.757
X34.528 Y39.884
X34.330 Y39.972
X34.119 Y40.017
X33.903 Y40.017
G0 Z3.000
G0  X31.363 Y40.017
G0  Z3.000
G01 F400 Z0
G01 F400 Z-0.100
G01F400X31.151 Y39.972
X30.954 Y39.884
X30.779 Y39.757
X30.634 Y39.597
X30.526 Y39.410
X30.459 Y39.204
X30.437 Y38.989
X30.459 Y38.774
X30.526 Y38.569
X30.634 Y38.381
X30.779 Y38.221
X30.954 Y38.094
X31.116 Y38.022
X31.116 Y37.299
X30.621 Y37.299
X30.621 Y35.599
X32.321 Y35.599
X32.321 Y36.631
X32.354 Y36.685
X32.377 Y36.756
X32.385 Y36.830
X32.377 Y36.904
X32.354 Y36.974
X32.326 Y37.023
X32.320 Y37.299
X31.825 Y37.299
X31.825 Y38.022
X31.988 Y38.094
X32.162 Y38.221
X32.307 Y38.381
X32.415 Y38.569
X32.482 Y38.774
X32.504 Y38.989
X32.482 Y39.204
X32.415 Y39.410
X32.307 Y39.597
X32.162 Y39.757
X31.988 Y39.884
X31.790 Y39.972
X31.579 Y40.017
X31.363 Y40.017
G0 Z3.000
G0  X38.983 Y40.017
G0  Z3.000
G01 F400 Z0
G01 F400 Z-0.100
G01F400X38.771 Y39.972
X38.574 Y39.884
X38.399 Y39.757
X38.254 Y39.597
X38.146 Y39.410
X38.079 Y39.204
X38.057 Y38.989
X38.079 Y38.774
X38.146 Y38.569
X38.254 Y38.381
X38.399 Y38.221
X38.574 Y38.094
X38.771 Y38.006
X38.983 Y37.961
X39.199 Y37.961
X39.410 Y38.006
X39.608 Y38.094
X39.782 Y38.221
X39.927 Y38.381
X40.035 Y38.569
X40.102 Y38.774
X40.124 Y38.989
X40.102 Y39.204
X40.035 Y39.410
X39.927 Y39.597
X39.782 Y39.757
X39.608 Y39.884
X39.410 Y39.972
X39.199 Y40.017
X38.983 Y40.017
G0 Z3.000
G0  X36.443 Y40.017
G0  Z3.000
G01 F400 Z0
G01 F400 Z-0.100
G01F400X36.231 Y39.972
X36.034 Y39.884
X35.859 Y39.757
X35.714 Y39.597
X35.606 Y39.410
X35.539 Y39.204
X35.517 Y38.989
X35.539 Y38.774
X35.606 Y38.569
X35.714 Y38.381
X35.859 Y38.221
X36.034 Y38.094
X36.231 Y38.006
X36.443 Y37.961
X36.659 Y37.961
X36.870 Y38.006
X37.068 Y38.094
X37.242 Y38.221
X37.387 Y38.381
X37.495 Y38.569
X37.562 Y38.774
X37.584 Y38.989
X37.562 Y39.204
X37.495 Y39.410
X37.387 Y39.597
X37.242 Y39.757
X37.068 Y39.884
X36.870 Y39.972
X36.659 Y40.017
X36.443 Y40.017
G0 Z3.000
G0  X23.742 Y40.017
G0  Z3.000
G01 F400 Z0
G01 F400 Z-0.100
G01F400X23.531 Y39.972
X23.334 Y39.884
X23.159 Y39.757
X23.014 Y39.597
X22.906 Y39.410
X22.839 Y39.204
X22.817 Y38.989
X22.839 Y38.774
X22.906 Y38.569
X23.014 Y38.381
X23.159 Y38.221
X23.334 Y38.094
X23.531 Y38.006
X23.742 Y37.961
X23.959 Y37.961
X24.170 Y38.006
X24.367 Y38.094
X24.542 Y38.221
X24.687 Y38.381
X24.795 Y38.569
X24.862 Y38.774
X24.884 Y38.989
X24.862 Y39.204
X24.795 Y39.410
X24.687 Y39.597
X24.542 Y39.757
X24.367 Y39.884
X24.170 Y39.972
X23.959 Y40.017
X23.742 Y40.017
G0 Z3.000
G0  X21.203 Y40.017
G0  Z3.000
G01 F400 Z0
G01 F400 Z-0.100
G01F400X20.991 Y39.972
X20.794 Y39.884
X20.619 Y39.757
X20.474 Y39.597
X20.366 Y39.410
X20.299 Y39.204
X20.277 Y38.989
X20.299 Y38.774
X20.366 Y38.569
X20.474 Y38.381
X20.619 Y38.221
X20.794 Y38.094
X20.991 Y38.006
X21.203 Y37.961
X21.419 Y37.961
X21.630 Y38.006
X21.828 Y38.094
X22.002 Y38.221
X22.147 Y38.381
X22.255 Y38.569
X22.322 Y38.774
X22.344 Y38.989
X22.322 Y39.204
X22.255 Y39.410
X22.147 Y39.597
X22.002 Y39.757
X21.828 Y39.884
X21.630 Y39.972
X21.419 Y40.017
X21.203 Y40.017
G0 Z3.000
G0  X26.283 Y40.017
G0  Z3.000
G01 F400 Z0
G01 F400 Z-0.100
G01F400X26.071 Y39.972
X25.874 Y39.884
X25.699 Y39.757
X25.554 Y39.597
X25.446 Y39.410
X25.379 Y39.204
X25.357 Y38.989
X25.379 Y38.774
X25.446 Y38.569
X25.554 Y38.381
X25.699 Y38.221
X25.874 Y38.094
X26.071 Y38.006
X26.283 Y37.961
X26.499 Y37.961
X26.710 Y38.006
X26.908 Y38.094
X27.082 Y38.221
X27.227 Y38.381
X27.335 Y38.569
X27.402 Y38.774
X27.424 Y38.989
X27.402 Y39.204
X27.335 Y39.410
X27.227 Y39.597
X27.082 Y39.757
X26.908 Y39.884
X26.710 Y39.972
X26.499 Y40.017
X26.283 Y40.017
G0 Z3.000
G0  X54.223 Y40.017
G0  Z3.000
G01 F400 Z0
G01 F400 Z-0.100
G01F400X54.011 Y39.972
X53.814 Y39.884
X53.639 Y39.757
X53.494 Y39.597
X53.386 Y39.410
X53.319 Y39.204
X53.297 Y38.989
X53.319 Y38.774
X53.386 Y38.569
X53.494 Y38.381
X53.639 Y38.221
X53.814 Y38.094
X54.011 Y38.006
X54.223 Y37.961
X54.439 Y37.961
X54.650 Y38.006
X54.848 Y38.094
X55.022 Y38.221
X55.167 Y38.381
X55.275 Y38.569
X55.342 Y38.774
X55.364 Y38.989
X55.342 Y39.204
X55.275 Y39.410
X55.167 Y39.597
X55.022 Y39.757
X54.848 Y39.884
X54.650 Y39.972
X54.439 Y40.017
X54.223 Y40.017
G0 Z3.000
G0  X51.657 Y40.017
G0  Z3.000
G01 F400 Z0
G01 F400 Z-0.100
G01F400X51.446 Y39.972
X51.248 Y39.884
X51.073 Y39.757
X50.929 Y39.597
X50.821 Y39.410
X50.754 Y39.204
X50.731 Y38.989
X50.754 Y38.774
X50.821 Y38.569
X50.929 Y38.381
X51.073 Y38.221
X51.248 Y38.094
X51.446 Y38.006
X51.657 Y37.961
X51.873 Y37.961
X52.085 Y38.006
X52.282 Y38.094
X52.457 Y38.221
X52.602 Y38.381
X52.710 Y38.569
X52.776 Y38.774
X52.799 Y38.989
X52.776 Y39.204
X52.710 Y39.410
X52.602 Y39.597
X52.457 Y39.757
X52.282 Y39.884
X52.085 Y39.972
X51.873 Y40.017
X51.657 Y40.017
G0 Z3.000
G0  X56.763 Y40.017
G0  Z3.000
G01 F400 Z0
G01 F400 Z-0.100
G01F400X56.551 Y39.972
X56.354 Y39.884
X56.179 Y39.757
X56.034 Y39.597
X55.926 Y39.410
X55.859 Y39.204
X55.837 Y38.989
X55.859 Y38.774
X55.926 Y38.569
X56.034 Y38.381
X56.179 Y38.221
X56.354 Y38.094
X56.551 Y38.006
X56.763 Y37.961
X56.979 Y37.961
X57.190 Y38.006
X57.388 Y38.094
X57.562 Y38.221
X57.707 Y38.381
X57.815 Y38.569
X57.882 Y38.774
X57.904 Y38.989
X57.882 Y39.204
X57.815 Y39.410
X57.707 Y39.597
X57.562 Y39.757
X57.388 Y39.884
X57.190 Y39.972
X56.979 Y40.017
X56.763 Y40.017
G0 Z3.000
G0  X44.063 Y40.017
G0  Z3.000
G01 F400 Z0
G01 F400 Z-0.100
G01F400X43.851 Y39.972
X43.654 Y39.884
X43.479 Y39.757
X43.334 Y39.597
X43.226 Y39.410
X43.159 Y39.204
X43.137 Y38.989
X43.159 Y38.774
X43.226 Y38.569
X43.334 Y38.381
X43.479 Y38.221
X43.654 Y38.094
X43.851 Y38.006
X44.063 Y37.961
X44.279 Y37.961
X44.490 Y38.006
X44.688 Y38.094
X44.862 Y38.221
X45.007 Y38.381
X45.115 Y38.569
X45.182 Y38.774
X45.204 Y38.989
X45.182 Y39.204
X45.115 Y39.410
X45.007 Y39.597
X44.862 Y39.757
X44.688 Y39.884
X44.490 Y39.972
X44.279 Y40.017
X44.063 Y40.017
G0 Z3.000
G0  X41.523 Y40.017
G0  Z3.000
G01 F400 Z0
G01 F400 Z-0.100
G01F400X41.311 Y39.972
X41.114 Y39.884
X40.939 Y39.757
X40.794 Y39.597
X40.686 Y39.410
X40.619 Y39.204
X40.597 Y38.989
X40.619 Y38.774
X40.686 Y38.569
X40.794 Y38.381
X40.939 Y38.221
X41.114 Y38.094
X41.311 Y38.006
X41.523 Y37.961
X41.739 Y37.961
X41.950 Y38.006
X42.148 Y38.094
X42.322 Y38.221
X42.467 Y38.381
X42.575 Y38.569
X42.642 Y38.774
X42.664 Y38.989
X42.642 Y39.204
X42.575 Y39.410
X42.467 Y39.597
X42.322 Y39.757
X42.148 Y39.884
X41.950 Y39.972
X41.739 Y40.017
X41.523 Y40.017
G0 Z3.000
G0  X49.117 Y40.017
G0  Z3.000
G01 F400 Z0
G01 F400 Z-0.100
G01F400X48.906 Y39.972
X48.708 Y39.884
X48.533 Y39.757
X48.389 Y39.597
X48.281 Y39.410
X48.214 Y39.204
X48.191 Y38.989
X48.214 Y38.774
X48.281 Y38.569
X48.389 Y38.381
X48.533 Y38.221
X48.708 Y38.094
X48.906 Y38.006
X49.117 Y37.961
X49.333 Y37.961
X49.545 Y38.006
X49.742 Y38.094
X49.917 Y38.221
X50.062 Y38.381
X50.170 Y38.569
X50.236 Y38.774
X50.259 Y38.989
X50.236 Y39.204
X50.170 Y39.410
X50.062 Y39.597
X49.917 Y39.757
X49.742 Y39.884
X49.545 Y39.972
X49.333 Y40.017
X49.117 Y40.017
G0 Z3.000
G0  X46.602 Y40.017
G0  Z3.000
G01 F400 Z0
G01 F400 Z-0.100
G01F400X46.391 Y39.972
X46.194 Y39.884
X46.019 Y39.757
X45.874 Y39.597
X45.766 Y39.410
X45.699 Y39.204
X45.677 Y38.989
X45.699 Y38.774
X45.766 Y38.569
X45.874 Y38.381
X46.019 Y38.221
X46.194 Y38.094
X46.391 Y38.006
X46.602 Y37.961
X46.819 Y37.961
X47.030 Y38.006
X47.227 Y38.094
X47.402 Y38.221
X47.547 Y38.381
X47.655 Y38.569
X47.722 Y38.774
X47.744 Y38.989
X47.722 Y39.204
X47.655 Y39.410
X47.547 Y39.597
X47.402 Y39.757
X47.227 Y39.884
X47.030 Y39.972
X46.819 Y40.017
X46.602 Y40.017
G0 Z3.000
G0  X28.823 Y39.966
G0  Z3.000
G01 F400 Z0
G01 F400 Z-0.100
G01F400X28.611 Y39.921
X28.414 Y39.834
X28.239 Y39.706
X28.094 Y39.546
X27.986 Y39.359
X27.919 Y39.153
X27.897 Y38.938
X27.919 Y38.723
X27.986 Y38.518
X28.094 Y38.331
X28.239 Y38.170
X28.414 Y38.043
X28.611 Y37.955
X28.823 Y37.910
X29.039 Y37.910
X29.250 Y37.955
X29.448 Y38.043
X29.622 Y38.170
X29.767 Y38.331
X29.875 Y38.518
X29.942 Y38.723
X29.964 Y38.938
X29.942 Y39.153
X29.875 Y39.359
X29.767 Y39.546
X29.622 Y39.706
X29.448 Y39.834
X29.250 Y39.921
X29.039 Y39.966
X28.823 Y39.966
G0 Z3.000
G0  X54.226 Y37.446
G0  Z3.000
G01 F400 Z0
G01 F400 Z-0.100
G01F400X54.021 Y37.403
X53.829 Y37.317
X53.660 Y37.194
X53.519 Y37.038
X53.415 Y36.857
X53.350 Y36.657
X53.328 Y36.449
X53.350 Y36.241
X53.415 Y36.041
X53.519 Y35.860
X53.660 Y35.704
X53.829 Y35.581
X54.021 Y35.495
X54.226 Y35.452
X54.435 Y35.452
X54.641 Y35.495
X54.832 Y35.581
X55.002 Y35.704
X55.142 Y35.860
X55.247 Y36.041
X55.312 Y36.241
X55.333 Y36.449
X55.312 Y36.657
X55.247 Y36.857
X55.142 Y37.038
X55.002 Y37.194
X54.832 Y37.317
X54.641 Y37.403
X54.435 Y37.446
X54.226 Y37.446
G0 Z3.000
G0  X8.506 Y34.906
G0  Z3.000
G01 F400 Z0
G01 F400 Z-0.100
G01F400X8.301 Y34.863
X8.109 Y34.777
X7.940 Y34.654
X7.799 Y34.498
X7.695 Y34.317
X7.630 Y34.117
X7.608 Y33.909
X7.630 Y33.700
X7.695 Y33.501
X7.799 Y33.320
X7.940 Y33.164
X8.109 Y33.041
X8.301 Y32.955
X8.506 Y32.912
X8.715 Y32.912
X8.921 Y32.955
X9.112 Y33.041
X9.282 Y33.164
X9.422 Y33.320
X9.527 Y33.501
X9.545 Y33.556
X55.937 Y33.556
X55.955 Y33.501
X56.059 Y33.320
X56.200 Y33.164
X56.369 Y33.041
X56.561 Y32.955
X56.766 Y32.912
X56.975 Y32.912
X57.181 Y32.955
X57.372 Y33.041
X57.542 Y33.164
X57.682 Y33.320
X57.787 Y33.501
X57.852 Y33.700
X57.873 Y33.909
X57.852 Y34.117
X57.787 Y34.317
X57.682 Y34.498
X57.542 Y34.654
X57.372 Y34.777
X57.181 Y34.863
X56.975 Y34.906
X56.766 Y34.906
X56.561 Y34.863
X56.369 Y34.777
X56.200 Y34.654
X56.059 Y34.498
X55.955 Y34.317
X55.937 Y34.262
X9.545 Y34.262
X9.527 Y34.317
X9.422 Y34.498
X9.282 Y34.654
X9.112 Y34.777
X8.921 Y34.863
X8.715 Y34.906
X8.506 Y34.906
G0 Z3.000
G0  X26.286 Y29.826
G0  Z3.000
G01 F400 Z0
G01 F400 Z-0.100
G01F400X26.081 Y29.783
X25.889 Y29.697
X25.720 Y29.574
X25.579 Y29.418
X25.475 Y29.237
X25.410 Y29.038
X25.388 Y28.829
X25.410 Y28.620
X25.475 Y28.421
X25.579 Y28.240
X25.720 Y28.084
X25.889 Y27.961
X26.081 Y27.875
X26.286 Y27.832
X26.495 Y27.832
X26.701 Y27.875
X26.892 Y27.961
X27.062 Y28.084
X27.202 Y28.240
X27.307 Y28.421
X27.316 Y28.451
X36.170 Y28.451
X36.170 Y23.696
X36.178 Y23.624
X36.201 Y23.554
X36.238 Y23.489
X36.288 Y23.434
X36.348 Y23.391
X36.416 Y23.361
X36.488 Y23.345
X36.557 Y23.345
X43.259 Y23.370
X43.266 Y23.346
X43.370 Y23.167
X43.508 Y23.013
X43.676 Y22.892
X43.865 Y22.807
X44.067 Y22.764
X44.274 Y22.764
X44.477 Y22.807
X44.666 Y22.892
X44.833 Y23.013
X44.972 Y23.167
X45.075 Y23.346
X45.139 Y23.543
X45.161 Y23.749
X45.139 Y23.955
X45.075 Y24.152
X44.972 Y24.331
X44.833 Y24.485
X44.666 Y24.606
X44.511 Y24.675
X44.500 Y25.890
X45.670 Y25.906
X45.670 Y25.248
X47.751 Y25.248
X47.751 Y27.330
X45.670 Y27.330
X45.670 Y26.614
X44.108 Y26.591
X44.035 Y26.576
X43.968 Y26.546
X43.908 Y26.502
X43.858 Y26.447
X43.821 Y26.383
X43.798 Y26.312
X43.790 Y26.241
X43.790 Y24.658
X43.676 Y24.606
X43.508 Y24.485
X43.370 Y24.331
X43.266 Y24.152
X43.242 Y24.076
X36.880 Y24.053
X36.880 Y28.806
X36.873 Y28.877
X36.850 Y28.948
X36.813 Y29.012
X36.763 Y29.068
X36.703 Y29.111
X36.635 Y29.141
X36.562 Y29.157
X27.333 Y29.157
X27.307 Y29.237
X27.202 Y29.418
X27.062 Y29.574
X26.892 Y29.697
X26.701 Y29.783
X26.495 Y29.826
X26.286 Y29.826
G0 Z3.000
G0  X21.206 Y29.826
G0  Z3.000
G01 F400 Z0
G01 F400 Z-0.100
G01F400X21.001 Y29.783
X20.809 Y29.697
X20.640 Y29.574
X20.499 Y29.418
X20.395 Y29.237
X20.330 Y29.038
X20.308 Y28.829
X20.330 Y28.620
X20.395 Y28.421
X20.499 Y28.240
X20.640 Y28.084
X20.809 Y27.961
X21.001 Y27.875
X21.206 Y27.832
X21.415 Y27.832
X21.620 Y27.875
X21.812 Y27.961
X21.982 Y28.084
X22.122 Y28.240
X22.227 Y28.421
X22.292 Y28.620
X22.313 Y28.829
X22.292 Y29.038
X22.227 Y29.237
X22.122 Y29.418
X21.982 Y29.574
X21.812 Y29.697
X21.620 Y29.783
X21.415 Y29.826
X21.206 Y29.826
G0 Z3.000
G0  X38.986 Y29.826
G0  Z3.000
G01 F400 Z0
G01 F400 Z-0.100
G01F400X38.781 Y29.783
X38.589 Y29.697
X38.420 Y29.574
X38.279 Y29.418
X38.175 Y29.237
X38.110 Y29.038
X38.088 Y28.829
X38.110 Y28.620
X38.175 Y28.421
X38.279 Y28.240
X38.420 Y28.084
X38.589 Y27.961
X38.781 Y27.875
X38.986 Y27.832
X39.195 Y27.832
X39.401 Y27.875
X39.592 Y27.961
X39.762 Y28.084
X39.902 Y28.240
X40.007 Y28.421
X40.072 Y28.620
X40.093 Y28.829
X40.072 Y29.038
X40.007 Y29.237
X39.902 Y29.418
X39.762 Y29.574
X39.592 Y29.697
X39.401 Y29.783
X39.195 Y29.826
X38.986 Y29.826
G0 Z3.000
G0  X49.142 Y27.324
G0  Z3.000
G01 F400 Z0
G01 F400 Z-0.100
G01F400X48.929 Y27.279
X48.730 Y27.190
X48.554 Y27.063
X48.409 Y26.901
X48.300 Y26.712
X48.233 Y26.505
X48.210 Y26.289
X48.233 Y26.073
X48.300 Y25.866
X48.409 Y25.677
X48.554 Y25.516
X48.730 Y25.388
X48.929 Y25.299
X49.142 Y25.254
X49.359 Y25.254
X49.572 Y25.299
X49.771 Y25.388
X49.947 Y25.516
X50.093 Y25.677
X50.202 Y25.866
X50.215 Y25.907
X51.436 Y25.890
X51.436 Y24.683
X51.289 Y24.617
X51.120 Y24.494
X50.979 Y24.338
X50.875 Y24.157
X50.810 Y23.957
X50.788 Y23.749
X50.810 Y23.541
X50.875 Y23.341
X50.979 Y23.160
X51.120 Y23.004
X51.289 Y22.881
X51.481 Y22.795
X51.686 Y22.752
X51.895 Y22.752
X52.101 Y22.795
X52.292 Y22.881
X52.462 Y23.004
X52.602 Y23.160
X52.707 Y23.341
X52.772 Y23.541
X52.793 Y23.749
X52.772 Y23.957
X52.707 Y24.157
X52.602 Y24.338
X52.462 Y24.494
X52.292 Y24.617
X52.145 Y24.683
X52.145 Y26.241
X52.138 Y26.312
X52.115 Y26.383
X52.078 Y26.447
X52.028 Y26.502
X51.968 Y26.546
X51.900 Y26.576
X51.828 Y26.591
X50.233 Y26.614
X50.202 Y26.712
X50.093 Y26.901
X49.947 Y27.063
X49.771 Y27.190
X49.572 Y27.279
X49.359 Y27.324
X49.142 Y27.324
G0 Z3.000
G0  X8.506 Y24.746
G0  Z3.000
G01 F400 Z0
G01 F400 Z-0.100
G01F400X8.301 Y24.703
X8.109 Y24.617
X7.940 Y24.494
X7.799 Y24.338
X7.695 Y24.157
X7.630 Y23.957
X7.608 Y23.749
X7.630 Y23.541
X7.695 Y23.341
X7.799 Y23.160
X7.940 Y23.004
X8.109 Y22.881
X8.301 Y22.795
X8.506 Y22.752
X8.715 Y22.752
X8.921 Y22.795
X9.112 Y22.881
X9.282 Y23.004
X9.422 Y23.160
X9.527 Y23.341
X9.591 Y23.541
X9.613 Y23.749
X9.591 Y23.957
X9.527 Y24.157
X9.422 Y24.338
X9.282 Y24.494
X9.112 Y24.617
X8.921 Y24.703
X8.715 Y24.746
X8.506 Y24.746
G0 Z3.000
G0  X54.226 Y24.746
G0  Z3.000
G01 F400 Z0
G01 F400 Z-0.100
G01F400X54.021 Y24.703
X53.829 Y24.617
X53.660 Y24.494
X53.519 Y24.338
X53.415 Y24.157
X53.350 Y23.957
X53.328 Y23.749
X53.350 Y23.541
X53.415 Y23.341
X53.519 Y23.160
X53.660 Y23.004
X53.829 Y22.881
X54.021 Y22.795
X54.226 Y22.752
X54.435 Y22.752
X54.641 Y22.795
X54.832 Y22.881
X55.002 Y23.004
X55.142 Y23.160
X55.247 Y23.341
X55.312 Y23.541
X55.333 Y23.749
X55.312 Y23.957
X55.247 Y24.157
X55.142 Y24.338
X55.002 Y24.494
X54.832 Y24.617
X54.641 Y24.703
X54.435 Y24.746
X54.226 Y24.746
G0 Z3.000
G0  X11.046 Y24.746
G0  Z3.000
G01 F400 Z0
G01 F400 Z-0.100
G01F400X10.841 Y24.703
X10.649 Y24.617
X10.480 Y24.494
X10.339 Y24.338
X10.235 Y24.157
X10.170 Y23.957
X10.148 Y23.749
X10.170 Y23.541
X10.235 Y23.341
X10.339 Y23.160
X10.480 Y23.004
X10.649 Y22.881
X10.770 Y22.827
X10.770 Y21.232
X10.778 Y21.161
X10.801 Y21.090
X10.838 Y21.026
X10.888 Y20.971
X10.948 Y20.927
X11.016 Y20.897
X11.088 Y20.881
X12.650 Y20.859
X12.650 Y20.168
X14.731 Y20.168
X14.731 Y22.250
X12.650 Y22.250
X12.650 Y21.566
X11.480 Y21.583
X11.480 Y22.807
X11.652 Y22.880
X11.822 Y23.004
X11.962 Y23.160
X12.067 Y23.341
X12.132 Y23.541
X12.153 Y23.749
X12.132 Y23.957
X12.067 Y24.157
X11.962 Y24.338
X11.822 Y24.494
X11.652 Y24.617
X11.460 Y24.703
X11.255 Y24.746
X11.046 Y24.746
G0 Z3.000
G0  X26.286 Y24.746
G0  Z3.000
G01 F400 Z0
G01 F400 Z-0.100
G01F400X26.081 Y24.703
X25.889 Y24.617
X25.720 Y24.494
X25.579 Y24.338
X25.475 Y24.157
X25.441 Y24.055
X19.700 Y24.074
X19.675 Y24.152
X19.572 Y24.331
X19.433 Y24.485
X19.266 Y24.606
X19.077 Y24.691
X18.874 Y24.734
X18.667 Y24.734
X18.465 Y24.691
X18.276 Y24.606
X18.108 Y24.485
X17.970 Y24.331
X17.866 Y24.152
X17.802 Y23.955
X17.780 Y23.749
X17.802 Y23.543
X17.866 Y23.346
X17.970 Y23.167
X18.108 Y23.013
X18.276 Y22.892
X18.416 Y22.829
X18.416 Y21.583
X17.203 Y21.566
X17.181 Y21.632
X17.073 Y21.821
X16.927 Y21.983
X16.751 Y22.110
X16.552 Y22.199
X16.339 Y22.244
X16.122 Y22.244
X15.909 Y22.199
X15.710 Y22.110
X15.534 Y21.983
X15.389 Y21.821
X15.280 Y21.632
X15.213 Y21.425
X15.190 Y21.209
X15.213 Y20.993
X15.280 Y20.786
X15.389 Y20.597
X15.534 Y20.436
X15.710 Y20.308
X15.909 Y20.219
X16.122 Y20.174
X16.339 Y20.174
X16.552 Y20.219
X16.751 Y20.308
X16.927 Y20.436
X17.073 Y20.597
X17.181 Y20.786
X17.205 Y20.858
X18.808 Y20.881
X18.880 Y20.897
X18.948 Y20.927
X19.008 Y20.971
X19.058 Y21.026
X19.095 Y21.090
X19.118 Y21.161
X19.125 Y21.232
X19.125 Y22.829
X19.266 Y22.892
X19.332 Y22.940
X19.391 Y22.939
X19.465 Y22.954
X19.532 Y22.984
X19.592 Y23.028
X19.642 Y23.083
X19.679 Y23.147
X19.702 Y23.218
X19.710 Y23.292
X19.704 Y23.348
X25.472 Y23.348
X25.475 Y23.341
X25.579 Y23.160
X25.720 Y23.004
X25.889 Y22.881
X26.030 Y22.818
X25.961 Y12.060
X25.813 Y11.994
X25.643 Y11.870
X25.503 Y11.715
X25.398 Y11.533
X25.334 Y11.334
X25.312 Y11.125
X25.334 Y10.917
X25.398 Y10.717
X25.503 Y10.536
X25.643 Y10.380
X25.813 Y10.257
X25.957 Y10.193
X25.934 Y8.507
X25.942 Y8.435
X25.965 Y8.365
X26.002 Y8.300
X26.051 Y8.245
X26.111 Y8.202
X26.179 Y8.171
X26.252 Y8.156
X43.812 Y8.156
X43.768 Y4.448
X43.593 Y4.374
X43.423 Y4.250
X43.283 Y4.095
X43.178 Y3.913
X43.114 Y3.714
X43.092 Y3.505
X43.114 Y3.297
X43.178 Y3.097
X43.283 Y2.916
X43.423 Y2.760
X43.593 Y2.637
X43.785 Y2.552
X43.990 Y2.508
X44.199 Y2.508
X44.404 Y2.552
X44.596 Y2.637
X44.765 Y2.760
X44.906 Y2.916
X45.011 Y3.097
X45.075 Y3.297
X45.097 Y3.505
X45.075 Y3.714
X45.011 Y3.913
X44.906 Y4.095
X44.765 Y4.250
X44.596 Y4.374
X44.477 Y4.426
X44.525 Y8.509
X44.480 Y10.205
X44.596 Y10.257
X44.765 Y10.380
X44.906 Y10.536
X45.011 Y10.717
X45.075 Y10.917
X45.097 Y11.125
X45.075 Y11.334
X45.011 Y11.533
X44.906 Y11.715
X44.765 Y11.870
X44.596 Y11.994
X44.404 Y12.079
X44.199 Y12.123
X43.990 Y12.123
X43.785 Y12.079
X43.593 Y11.994
X43.423 Y11.870
X43.283 Y11.715
X43.178 Y11.533
X43.114 Y11.334
X43.092 Y11.125
X43.114 Y10.917
X43.178 Y10.717
X43.283 Y10.536
X43.423 Y10.380
X43.593 Y10.257
X43.751 Y10.186
X43.806 Y8.862
X26.649 Y8.862
X26.667 Y10.190
X26.816 Y10.257
X26.985 Y10.380
X27.126 Y10.536
X27.231 Y10.717
X27.237 Y10.737
X27.949 Y10.705
X28.043 Y10.536
X28.183 Y10.380
X28.205 Y10.364
X28.260 Y10.304
X28.429 Y10.181
X28.621 Y10.095
X28.826 Y10.052
X29.035 Y10.052
X29.241 Y10.095
X29.432 Y10.181
X29.602 Y10.304
X29.742 Y10.460
X29.847 Y10.641
X29.912 Y10.841
X29.933 Y11.049
X29.912 Y11.258
X29.847 Y11.457
X29.742 Y11.638
X29.602 Y11.794
X29.580 Y11.810
X29.525 Y11.870
X29.356 Y11.994
X29.164 Y12.079
X28.959 Y12.123
X28.750 Y12.123
X28.545 Y12.079
X28.353 Y11.994
X28.183 Y11.870
X28.043 Y11.715
X27.938 Y11.533
X27.901 Y11.417
X27.259 Y11.445
X27.231 Y11.533
X27.126 Y11.715
X26.985 Y11.870
X26.816 Y11.994
X26.671 Y12.058
X26.739 Y22.737
X26.755 Y22.748
X26.805 Y22.804
X26.832 Y22.851
X26.893 Y22.881
X27.062 Y23.004
X27.202 Y23.160
X27.307 Y23.341
X27.317 Y23.372
X28.968 Y23.421
X30.703 Y23.397
X30.782 Y23.250
X30.902 Y23.117
X31.046 Y23.013
X31.208 Y22.940
X31.382 Y22.903
X31.559 Y22.903
X31.733 Y22.940
X31.896 Y23.013
X32.040 Y23.117
X32.159 Y23.249
X32.247 Y23.403
X32.302 Y23.572
X32.321 Y23.749
X32.302 Y23.926
X32.247 Y24.095
X32.159 Y24.249
X32.040 Y24.381
X31.896 Y24.485
X31.733 Y24.558
X31.559 Y24.595
X31.382 Y24.595
X31.208 Y24.558
X31.046 Y24.485
X30.902 Y24.381
X30.783 Y24.249
X30.711 Y24.125
X28.988 Y24.128
X28.923 Y24.128
X27.332 Y24.080
X27.307 Y24.157
X27.202 Y24.338
X27.062 Y24.494
X26.892 Y24.617
X26.701 Y24.703
X26.495 Y24.746
X26.286 Y24.746
G0 Z3.000
G0  X32.970 Y19.710
G0  Z3.000
G01 F400 Z0
G01 F400 Z-0.100
G01F400X32.970 Y19.031
X31.554 Y19.073
X31.484 Y19.073
X31.412 Y19.058
X31.344 Y19.027
X31.284 Y18.984
X31.234 Y18.928
X31.197 Y18.864
X31.174 Y18.794
X31.167 Y18.723
X31.068 Y12.068
X30.893 Y11.994
X30.723 Y11.870
X30.583 Y11.715
X30.478 Y11.533
X30.414 Y11.334
X30.392 Y11.125
X30.414 Y10.917
X30.478 Y10.717
X30.583 Y10.536
X30.723 Y10.380
X30.893 Y10.257
X31.085 Y10.171
X31.290 Y10.128
X31.499 Y10.128
X31.704 Y10.171
X31.896 Y10.257
X32.065 Y10.380
X32.206 Y10.536
X32.311 Y10.717
X32.375 Y10.917
X32.397 Y11.125
X32.375 Y11.334
X32.311 Y11.533
X32.206 Y11.715
X32.065 Y11.870
X31.896 Y11.994
X31.778 Y12.046
X31.871 Y18.355
X32.970 Y18.322
X32.970 Y17.628
X35.051 Y17.628
X35.051 Y19.710
X32.970 Y19.710
G0 Z3.000
G0  X36.442 Y19.704
G0  Z3.000
G01 F400 Z0
G01 F400 Z-0.100
G01F400X36.229 Y19.659
X36.030 Y19.570
X35.854 Y19.443
X35.709 Y19.281
X35.600 Y19.092
X35.532 Y18.885
X35.510 Y18.669
X35.532 Y18.453
X35.600 Y18.246
X35.709 Y18.057
X35.854 Y17.896
X36.030 Y17.768
X36.229 Y17.679
X36.442 Y17.634
X36.659 Y17.634
X36.872 Y17.679
X37.071 Y17.768
X37.247 Y17.896
X37.393 Y18.057
X37.502 Y18.246
X37.526 Y18.321
X38.757 Y18.356
X38.688 Y12.068
X38.513 Y11.994
X38.343 Y11.870
X38.203 Y11.715
X38.098 Y11.533
X38.034 Y11.334
X38.012 Y11.125
X38.034 Y10.917
X38.098 Y10.717
X38.203 Y10.536
X38.343 Y10.380
X38.513 Y10.257
X38.705 Y10.171
X38.910 Y10.128
X39.119 Y10.128
X39.324 Y10.171
X39.516 Y10.257
X39.685 Y10.380
X39.826 Y10.536
X39.931 Y10.717
X39.995 Y10.917
X40.017 Y11.125
X39.995 Y11.334
X39.931 Y11.533
X39.826 Y11.715
X39.685 Y11.870
X39.516 Y11.994
X39.397 Y12.046
X39.471 Y18.722
X39.463 Y18.794
X39.440 Y18.864
X39.403 Y18.928
X39.354 Y18.984
X39.294 Y19.027
X39.226 Y19.058
X39.153 Y19.073
X39.083 Y19.073
X37.522 Y19.029
X37.502 Y19.092
X37.393 Y19.281
X37.247 Y19.443
X37.071 Y19.570
X36.872 Y19.659
X36.659 Y19.704
X36.442 Y19.704
G0 Z3.000
G0  X3.426 Y19.666
G0  Z3.000
G01 F400 Z0
G01 F400 Z-0.100
G01F400X3.221 Y19.623
X3.029 Y19.537
X2.860 Y19.414
X2.719 Y19.258
X2.615 Y19.077
X2.550 Y18.878
X2.528 Y18.669
X2.550 Y18.460
X2.615 Y18.261
X2.719 Y18.080
X2.860 Y17.924
X3.029 Y17.801
X3.221 Y17.715
X3.426 Y17.672
X3.635 Y17.672
X3.841 Y17.715
X4.032 Y17.801
X4.202 Y17.924
X4.342 Y18.080
X4.447 Y18.261
X4.511 Y18.460
X4.533 Y18.669
X4.511 Y18.878
X4.447 Y19.077
X4.342 Y19.258
X4.202 Y19.414
X4.032 Y19.537
X3.841 Y19.623
X3.635 Y19.666
X3.426 Y19.666
G0 Z3.000
G0  X21.204 Y17.139
G0  Z3.000
G01 F400 Z0
G01 F400 Z-0.100
G01F400X20.997 Y17.095
X20.803 Y17.008
X20.631 Y16.884
X20.489 Y16.726
X20.383 Y16.542
X20.317 Y16.340
X20.295 Y16.129
X20.317 Y15.918
X20.383 Y15.716
X20.489 Y15.532
X20.631 Y15.374
X20.803 Y15.250
X20.997 Y15.163
X21.204 Y15.119
X21.417 Y15.119
X21.624 Y15.163
X21.818 Y15.250
X21.990 Y15.374
X22.132 Y15.532
X22.238 Y15.716
X22.304 Y15.918
X22.326 Y16.129
X22.304 Y16.340
X22.238 Y16.542
X22.132 Y16.726
X21.990 Y16.884
X21.818 Y17.008
X21.624 Y17.095
X21.417 Y17.139
X21.204 Y17.139
G0 Z3.000
G0  X23.745 Y17.139
G0  Z3.000
G01 F400 Z0
G01 F400 Z-0.100
G01F400X23.537 Y17.095
X23.343 Y17.008
X23.171 Y16.884
X23.029 Y16.726
X22.923 Y16.542
X22.857 Y16.340
X22.835 Y16.129
X22.857 Y15.918
X22.923 Y15.716
X23.029 Y15.532
X23.171 Y15.374
X23.343 Y15.250
X23.537 Y15.163
X23.745 Y15.119
X23.957 Y15.119
X24.164 Y15.163
X24.358 Y15.250
X24.530 Y15.374
X24.672 Y15.532
X24.778 Y15.716
X24.844 Y15.918
X24.866 Y16.129
X24.844 Y16.340
X24.778 Y16.542
X24.672 Y16.726
X24.530 Y16.884
X24.358 Y17.008
X24.164 Y17.095
X23.957 Y17.139
X23.745 Y17.139
G0 Z3.000
G0  X16.125 Y17.139
G0  Z3.000
G01 F400 Z0
G01 F400 Z-0.100
G01F400X15.917 Y17.095
X15.723 Y17.008
X15.551 Y16.884
X15.409 Y16.726
X15.303 Y16.542
X15.237 Y16.340
X15.215 Y16.129
X15.237 Y15.918
X15.303 Y15.716
X15.409 Y15.532
X15.551 Y15.374
X15.723 Y15.250
X15.917 Y15.163
X16.125 Y15.119
X16.337 Y15.119
X16.544 Y15.163
X16.738 Y15.250
X16.910 Y15.374
X17.052 Y15.532
X17.158 Y15.716
X17.224 Y15.918
X17.246 Y16.129
X17.224 Y16.340
X17.158 Y16.542
X17.052 Y16.726
X16.910 Y16.884
X16.738 Y17.008
X16.544 Y17.095
X16.337 Y17.139
X16.125 Y17.139
G0 Z3.000
G0  X18.665 Y17.139
G0  Z3.000
G01 F400 Z0
G01 F400 Z-0.100
G01F400X18.457 Y17.095
X18.263 Y17.008
X18.091 Y16.884
X17.949 Y16.726
X17.843 Y16.542
X17.777 Y16.340
X17.755 Y16.129
X17.777 Y15.918
X17.843 Y15.716
X17.949 Y15.532
X18.091 Y15.374
X18.263 Y15.250
X18.457 Y15.163
X18.665 Y15.119
X18.877 Y15.119
X19.084 Y15.163
X19.278 Y15.250
X19.450 Y15.374
X19.592 Y15.532
X19.698 Y15.716
X19.764 Y15.918
X19.786 Y16.129
X19.764 Y16.340
X19.698 Y16.542
X19.592 Y16.726
X19.450 Y16.884
X19.278 Y17.008
X19.084 Y17.095
X18.877 Y17.139
X18.665 Y17.139
G0 Z3.000
G0  X5.965 Y17.139
G0  Z3.000
G01 F400 Z0
G01 F400 Z-0.100
G01F400X5.757 Y17.095
X5.563 Y17.008
X5.391 Y16.884
X5.249 Y16.726
X5.143 Y16.542
X5.077 Y16.340
X5.055 Y16.129
X5.077 Y15.918
X5.143 Y15.716
X5.249 Y15.532
X5.391 Y15.374
X5.563 Y15.250
X5.757 Y15.163
X5.965 Y15.119
X6.177 Y15.119
X6.384 Y15.163
X6.578 Y15.250
X6.750 Y15.374
X6.892 Y15.532
X6.998 Y15.716
X7.064 Y15.918
X7.086 Y16.129
X7.064 Y16.340
X6.998 Y16.542
X6.892 Y16.726
X6.750 Y16.884
X6.578 Y17.008
X6.384 Y17.095
X6.177 Y17.139
X5.965 Y17.139
G0 Z3.000
G0  X13.585 Y17.139
G0  Z3.000
G01 F400 Z0
G01 F400 Z-0.100
G01F400X13.377 Y17.095
X13.183 Y17.008
X13.011 Y16.884
X12.869 Y16.726
X12.763 Y16.542
X12.697 Y16.340
X12.675 Y16.129
X12.697 Y15.918
X12.763 Y15.716
X12.869 Y15.532
X13.011 Y15.374
X13.183 Y15.250
X13.377 Y15.163
X13.585 Y15.119
X13.797 Y15.119
X14.004 Y15.163
X14.198 Y15.250
X14.370 Y15.374
X14.512 Y15.532
X14.618 Y15.716
X14.684 Y15.918
X14.706 Y16.129
X14.684 Y16.340
X14.618 Y16.542
X14.512 Y16.726
X14.370 Y16.884
X14.198 Y17.008
X14.004 Y17.095
X13.797 Y17.139
X13.585 Y17.139
G0 Z3.000
G0  X8.505 Y17.139
G0  Z3.000
G01 F400 Z0
G01 F400 Z-0.100
G01F400X8.297 Y17.095
X8.103 Y17.008
X7.931 Y16.884
X7.789 Y16.726
X7.683 Y16.542
X7.617 Y16.340
X7.595 Y16.129
X7.617 Y15.918
X7.683 Y15.716
X7.789 Y15.532
X7.931 Y15.374
X8.103 Y15.250
X8.297 Y15.163
X8.505 Y15.119
X8.717 Y15.119
X8.924 Y15.163
X9.118 Y15.250
X9.290 Y15.374
X9.432 Y15.532
X9.538 Y15.716
X9.604 Y15.918
X9.626 Y16.129
X9.604 Y16.340
X9.538 Y16.542
X9.432 Y16.726
X9.290 Y16.884
X9.118 Y17.008
X8.924 Y17.095
X8.717 Y17.139
X8.505 Y17.139
G0 Z3.000
G0  X11.045 Y17.139
G0  Z3.000
G01 F400 Z0
G01 F400 Z-0.100
G01F400X10.837 Y17.095
X10.643 Y17.008
X10.471 Y16.884
X10.329 Y16.726
X10.223 Y16.542
X10.157 Y16.340
X10.135 Y16.129
X10.157 Y15.918
X10.223 Y15.716
X10.329 Y15.532
X10.471 Y15.374
X10.643 Y15.250
X10.837 Y15.163
X11.045 Y15.119
X11.257 Y15.119
X11.464 Y15.163
X11.658 Y15.250
X11.830 Y15.374
X11.972 Y15.532
X12.078 Y15.716
X12.144 Y15.918
X12.166 Y16.129
X12.144 Y16.340
X12.078 Y16.542
X11.972 Y16.726
X11.830 Y16.884
X11.658 Y17.008
X11.464 Y17.095
X11.257 Y17.139
X11.045 Y17.139
G0 Z3.000
G0  X33.906 Y17.126
G0  Z3.000
G01 F400 Z0
G01 F400 Z-0.100
G01F400X33.701 Y17.083
X33.509 Y16.997
X33.340 Y16.874
X33.199 Y16.718
X33.095 Y16.537
X33.030 Y16.338
X33.008 Y16.129
X33.030 Y15.921
X33.095 Y15.721
X33.199 Y15.540
X33.340 Y15.384
X33.509 Y15.261
X33.629 Y15.207
X33.607 Y12.068
X33.433 Y11.994
X33.263 Y11.870
X33.123 Y11.715
X33.018 Y11.533
X32.953 Y11.334
X32.932 Y11.125
X32.953 Y10.917
X33.018 Y10.717
X33.123 Y10.536
X33.263 Y10.380
X33.433 Y10.257
X33.625 Y10.171
X33.830 Y10.128
X34.039 Y10.128
X34.244 Y10.171
X34.436 Y10.257
X34.605 Y10.380
X34.746 Y10.536
X34.851 Y10.717
X34.868 Y10.772
X35.541 Y10.772
X35.558 Y10.717
X35.663 Y10.536
X35.803 Y10.380
X35.973 Y10.257
X36.165 Y10.171
X36.370 Y10.128
X36.579 Y10.128
X36.784 Y10.171
X36.976 Y10.257
X37.145 Y10.380
X37.286 Y10.536
X37.391 Y10.717
X37.455 Y10.917
X37.477 Y11.125
X37.455 Y11.334
X37.391 Y11.533
X37.286 Y11.715
X37.145 Y11.870
X36.976 Y11.994
X36.784 Y12.079
X36.579 Y12.123
X36.370 Y12.123
X36.165 Y12.079
X35.973 Y11.994
X35.803 Y11.870
X35.663 Y11.715
X35.558 Y11.533
X35.541 Y11.478
X34.868 Y11.478
X34.851 Y11.533
X34.746 Y11.715
X34.605 Y11.870
X34.436 Y11.994
X34.316 Y12.047
X34.339 Y15.187
X34.512 Y15.260
X34.682 Y15.384
X34.822 Y15.540
X34.927 Y15.721
X34.992 Y15.921
X35.013 Y16.129
X34.992 Y16.338
X34.927 Y16.537
X34.822 Y16.718
X34.682 Y16.874
X34.512 Y16.997
X34.321 Y17.083
X34.115 Y17.126
X33.906 Y17.126
G0 Z3.000
G0  X49.152 Y17.063
G0  Z3.000
G01 F400 Z0
G01 F400 Z-0.100
G01F400X48.960 Y17.022
X48.781 Y16.942
X48.622 Y16.827
X48.491 Y16.681
X48.393 Y16.511
X48.332 Y16.324
X48.311 Y16.129
X48.332 Y15.934
X48.393 Y15.747
X48.491 Y15.577
X48.622 Y15.431
X48.781 Y15.316
X48.960 Y15.236
X49.152 Y15.195
X49.349 Y15.195
X49.541 Y15.236
X49.720 Y15.316
X49.879 Y15.431
X50.011 Y15.577
X50.109 Y15.747
X50.169 Y15.934
X50.190 Y16.129
X50.169 Y16.324
X50.109 Y16.511
X50.011 Y16.681
X49.879 Y16.827
X49.720 Y16.942
X49.541 Y17.022
X49.349 Y17.063
X49.152 Y17.063
G0 Z3.000
G0  X51.692 Y17.063
G0  Z3.000
G01 F400 Z0
G01 F400 Z-0.100
G01F400X51.500 Y17.022
X51.321 Y16.942
X51.162 Y16.827
X51.031 Y16.681
X50.933 Y16.511
X50.872 Y16.324
X50.851 Y16.129
X50.872 Y15.934
X50.933 Y15.747
X51.031 Y15.577
X51.162 Y15.431
X51.321 Y15.316
X51.500 Y15.236
X51.692 Y15.195
X51.889 Y15.195
X52.081 Y15.236
X52.260 Y15.316
X52.419 Y15.431
X52.550 Y15.577
X52.649 Y15.747
X52.709 Y15.934
X52.730 Y16.129
X52.709 Y16.324
X52.649 Y16.511
X52.550 Y16.681
X52.419 Y16.827
X52.260 Y16.942
X52.081 Y17.022
X51.889 Y17.063
X51.692 Y17.063
G0 Z3.000
G0  X46.612 Y17.063
G0  Z3.000
G01 F400 Z0
G01 F400 Z-0.100
G01F400X46.420 Y17.022
X46.241 Y16.942
X46.082 Y16.827
X45.951 Y16.681
X45.852 Y16.511
X45.792 Y16.324
X45.771 Y16.129
X45.792 Y15.934
X45.852 Y15.747
X45.951 Y15.577
X46.082 Y15.431
X46.241 Y15.316
X46.420 Y15.236
X46.612 Y15.195
X46.809 Y15.195
X47.001 Y15.236
X47.180 Y15.316
X47.339 Y15.431
X47.471 Y15.577
X47.569 Y15.747
X47.629 Y15.934
X47.650 Y16.129
X47.629 Y16.324
X47.569 Y16.511
X47.471 Y16.681
X47.339 Y16.827
X47.180 Y16.942
X47.001 Y17.022
X46.809 Y17.063
X46.612 Y17.063
G0 Z3.000
G0  X54.232 Y17.063
G0  Z3.000
G01 F400 Z0
G01 F400 Z-0.100
G01F400X54.040 Y17.022
X53.861 Y16.942
X53.702 Y16.827
X53.571 Y16.681
X53.473 Y16.511
X53.412 Y16.324
X53.391 Y16.129
X53.412 Y15.934
X53.473 Y15.747
X53.571 Y15.577
X53.702 Y15.431
X53.861 Y15.316
X54.040 Y15.236
X54.232 Y15.195
X54.429 Y15.195
X54.621 Y15.236
X54.800 Y15.316
X54.959 Y15.431
X55.091 Y15.577
X55.189 Y15.747
X55.249 Y15.934
X55.270 Y16.129
X55.249 Y16.324
X55.189 Y16.511
X55.091 Y16.681
X54.959 Y16.827
X54.800 Y16.942
X54.621 Y17.022
X54.429 Y17.063
X54.232 Y17.063
G0 Z3.000
G0  X56.772 Y17.063
G0  Z3.000
G01 F400 Z0
G01 F400 Z-0.100
G01F400X56.676 Y17.043
X55.932 Y17.043
X55.932 Y15.165
X57.810 Y15.165
X57.810 Y17.043
X57.065 Y17.043
X56.969 Y17.063
X56.772 Y17.063
G0 Z3.000
G0  X3.426 Y12.046
G0  Z3.000
G01 F400 Z0
G01 F400 Z-0.100
G01F400X3.221 Y12.003
X3.029 Y11.917
X2.860 Y11.794
X2.719 Y11.638
X2.615 Y11.457
X2.550 Y11.258
X2.528 Y11.049
X2.550 Y10.841
X2.615 Y10.641
X2.719 Y10.460
X2.860 Y10.304
X3.029 Y10.181
X3.221 Y10.095
X3.426 Y10.052
X3.635 Y10.052
X3.841 Y10.095
X4.032 Y10.181
X4.202 Y10.304
X4.342 Y10.460
X4.447 Y10.641
X4.511 Y10.841
X4.533 Y11.049
X4.511 Y11.258
X4.447 Y11.457
X4.342 Y11.638
X4.202 Y11.794
X4.032 Y11.917
X3.841 Y12.003
X3.635 Y12.046
X3.426 Y12.046
G0 Z3.000
G0  X25.312 Y4.508
G0  Z3.000
G01 F400 Z0
G01 F400 Z-0.100
G01F400X25.312 Y2.503
X27.317 Y2.503
X27.317 Y4.508
X25.312 Y4.508
G0 Z3.000
G0  X28.750 Y4.503
G0  Z3.000
G01 F400 Z0
G01 F400 Z-0.100
G01F400X28.545 Y4.459
X28.353 Y4.374
X28.183 Y4.250
X28.043 Y4.095
X27.938 Y3.913
X27.873 Y3.714
X27.852 Y3.505
X27.873 Y3.297
X27.938 Y3.097
X28.043 Y2.916
X28.183 Y2.760
X28.353 Y2.637
X28.545 Y2.552
X28.750 Y2.508
X28.959 Y2.508
X29.164 Y2.552
X29.356 Y2.637
X29.525 Y2.760
X29.666 Y2.916
X29.771 Y3.097
X29.835 Y3.297
X29.857 Y3.505
X29.835 Y3.714
X29.771 Y3.913
X29.666 Y4.095
X29.525 Y4.250
X29.356 Y4.374
X29.164 Y4.459
X28.959 Y4.503
X28.750 Y4.503
G0 Z3.000
G0  X31.290 Y4.503
G0  Z3.000
G01 F400 Z0
G01 F400 Z-0.100
G01F400X31.085 Y4.459
X30.893 Y4.374
X30.723 Y4.250
X30.583 Y4.095
X30.478 Y3.913
X30.414 Y3.714
X30.392 Y3.505
X30.414 Y3.297
X30.478 Y3.097
X30.583 Y2.916
X30.723 Y2.760
X30.893 Y2.637
X31.085 Y2.552
X31.290 Y2.508
X31.499 Y2.508
X31.704 Y2.552
X31.896 Y2.637
X32.065 Y2.760
X32.206 Y2.916
X32.311 Y3.097
X32.375 Y3.297
X32.397 Y3.505
X32.375 Y3.714
X32.311 Y3.913
X32.206 Y4.095
X32.065 Y4.250
X31.896 Y4.374
X31.704 Y4.459
X31.499 Y4.503
X31.290 Y4.503
G0 Z3.000
G0  X38.910 Y4.503
G0  Z3.000
G01 F400 Z0
G01 F400 Z-0.100
G01F400X38.705 Y4.459
X38.513 Y4.374
X38.343 Y4.250
X38.203 Y4.095
X38.098 Y3.913
X38.034 Y3.714
X38.012 Y3.505
X38.034 Y3.297
X38.098 Y3.097
X38.203 Y2.916
X38.343 Y2.760
X38.513 Y2.637
X38.705 Y2.552
X38.910 Y2.508
X39.119 Y2.508
X39.324 Y2.552
X39.516 Y2.637
X39.685 Y2.760
X39.826 Y2.916
X39.931 Y3.097
X39.995 Y3.297
X40.017 Y3.505
X39.995 Y3.714
X39.931 Y3.913
X39.826 Y4.095
X39.685 Y4.250
X39.516 Y4.374
X39.324 Y4.459
X39.119 Y4.503
X38.910 Y4.503
G0 Z3.000
G0  X41.450 Y4.503
G0  Z3.000
G01 F400 Z0
G01 F400 Z-0.100
G01F400X41.245 Y4.459
X41.053 Y4.374
X40.883 Y4.250
X40.743 Y4.095
X40.638 Y3.913
X40.574 Y3.714
X40.552 Y3.505
X40.574 Y3.297
X40.638 Y3.097
X40.743 Y2.916
X40.883 Y2.760
X41.053 Y2.637
X41.245 Y2.552
X41.450 Y2.508
X41.659 Y2.508
X41.864 Y2.552
X42.056 Y2.637
X42.225 Y2.760
X42.366 Y2.916
X42.471 Y3.097
X42.535 Y3.297
X42.557 Y3.505
X42.535 Y3.714
X42.471 Y3.913
X42.366 Y4.095
X42.225 Y4.250
X42.056 Y4.374
X41.864 Y4.459
X41.659 Y4.503
X41.450 Y4.503
G0 Z3.000
G0  X33.830 Y4.503
G0  Z3.000
G01 F400 Z0
G01 F400 Z-0.100
G01F400X33.625 Y4.459
X33.433 Y4.374
X33.263 Y4.250
X33.123 Y4.095
X33.018 Y3.913
X32.953 Y3.714
X32.932 Y3.505
X32.953 Y3.297
X33.018 Y3.097
X33.123 Y2.916
X33.263 Y2.760
X33.433 Y2.637
X33.625 Y2.552
X33.830 Y2.508
X34.039 Y2.508
X34.244 Y2.552
X34.436 Y2.637
X34.605 Y2.760
X34.746 Y2.916
X34.851 Y3.097
X34.915 Y3.297
X34.937 Y3.505
X34.915 Y3.714
X34.851 Y3.913
X34.746 Y4.095
X34.605 Y4.250
X34.436 Y4.374
X34.244 Y4.459
X34.039 Y4.503
X33.830 Y4.503
G0 Z3.000
G0  X36.370 Y4.503
G0  Z3.000
G01 F400 Z0
G01 F400 Z-0.100
G01F400X36.165 Y4.459
X35.973 Y4.374
X35.803 Y4.250
X35.663 Y4.095
X35.558 Y3.913
X35.494 Y3.714
X35.472 Y3.505
X35.494 Y3.297
X35.558 Y3.097
X35.663 Y2.916
X35.803 Y2.760
X35.973 Y2.637
X36.165 Y2.552
X36.370 Y2.508
X36.579 Y2.508
X36.784 Y2.552
X36.976 Y2.637
X37.145 Y2.760
X37.286 Y2.916
X37.391 Y3.097
X37.455 Y3.297
X37.477 Y3.505
X37.455 Y3.714
X37.391 Y3.913
X37.286 Y4.095
X37.145 Y4.250
X36.976 Y4.374
X36.784 Y4.459
X36.579 Y4.503
X36.370 Y4.503
G0 Z3.000
G0  X0.924 Y49.786
G0  Z3.000
G01 F400 Z0
G01 F400 Z-0.100
G01F400X0.793 Y49.758
X0.670 Y49.704
X0.562 Y49.625
X0.472 Y49.526
X0.405 Y49.410
X0.364 Y49.282
X0.350 Y49.149
X0.364 Y49.016
X0.405 Y48.888
X0.472 Y48.772
X0.548 Y48.689
X0.546 Y48.677
X0.546 Y1.347
X0.472 Y1.266
X0.405 Y1.150
X0.364 Y1.022
X0.350 Y0.889
X0.364 Y0.756
X0.405 Y0.628
X0.472 Y0.512
X0.562 Y0.413
X0.670 Y0.334
X0.793 Y0.280
X0.924 Y0.252
X1.058 Y0.252
X1.189 Y0.280
X1.311 Y0.334
X1.419 Y0.413
X1.449 Y0.446
X66.572 Y0.446
X66.602 Y0.413
X66.710 Y0.334
X66.833 Y0.280
X66.964 Y0.252
X67.098 Y0.252
X67.229 Y0.280
X67.351 Y0.334
X67.459 Y0.413
X67.549 Y0.512
X67.616 Y0.628
X67.657 Y0.756
X67.671 Y0.889
X67.657 Y1.022
X67.616 Y1.150
X67.549 Y1.266
X67.475 Y1.347
X67.475 Y48.674
X67.474 Y48.689
X67.549 Y48.772
X67.616 Y48.888
X67.657 Y49.016
X67.671 Y49.149
X67.657 Y49.282
X67.616 Y49.410
X67.549 Y49.526
X67.459 Y49.625
X67.351 Y49.704
X67.229 Y49.758
X67.098 Y49.786
X66.964 Y49.786
X66.833 Y49.758
X66.710 Y49.704
X66.602 Y49.625
X66.572 Y49.592
X1.449 Y49.592
X1.419 Y49.625
X1.311 Y49.704
X1.189 Y49.758
X1.058 Y49.786
X0.924 Y49.786
G0 Z3.000
G0  X1.449 Y48.706
G0  Z3.000
G01 F400 Z0
G01 F400 Z-0.100
G01F400X66.572 Y48.706
X66.588 Y48.689
X66.586 Y48.677
X66.586 Y1.347
X66.572 Y1.332
X1.449 Y1.332
X1.435 Y1.347
X1.435 Y48.674
X1.434 Y48.689
X1.449 Y48.706
G0 Z3.000
G0  X12.560 Y47.740
G0  Z3.000
G01 F400 Z0
G01 F400 Z-0.100
G01F400X12.560 Y45.478
X13.246 Y45.478
X13.246 Y42.555
X13.129 Y42.503
X12.938 Y42.365
X12.781 Y42.190
X12.664 Y41.986
X12.591 Y41.763
X12.566 Y41.529
X12.591 Y41.295
X12.664 Y41.072
X12.781 Y40.868
X12.938 Y40.693
X13.129 Y40.555
X13.343 Y40.460
X13.573 Y40.411
X13.808 Y40.411
X14.038 Y40.460
X14.253 Y40.555
X14.443 Y40.693
X14.600 Y40.868
X14.718 Y41.072
X14.790 Y41.295
X14.815 Y41.529
X14.790 Y41.763
X14.718 Y41.986
X14.600 Y42.190
X14.443 Y42.365
X14.253 Y42.503
X14.135 Y42.555
X14.135 Y45.478
X14.821 Y45.478
X14.821 Y47.740
X12.560 Y47.740
G0 Z3.000
G0  X8.492 Y47.734
G0  Z3.000
G01 F400 Z0
G01 F400 Z-0.100
G01F400X8.261 Y47.685
X8.045 Y47.589
X7.854 Y47.450
X7.695 Y47.274
X7.577 Y47.069
X7.504 Y46.844
X7.479 Y46.609
X7.504 Y46.374
X7.577 Y46.149
X7.695 Y45.944
X7.854 Y45.768
X8.045 Y45.629
X8.261 Y45.533
X8.492 Y45.484
X8.729 Y45.484
X8.960 Y45.533
X9.176 Y45.629
X9.368 Y45.768
X9.526 Y45.944
X9.644 Y46.149
X9.717 Y46.374
X9.742 Y46.609
X9.717 Y46.844
X9.644 Y47.069
X9.526 Y47.274
X9.368 Y47.450
X9.176 Y47.589
X8.960 Y47.685
X8.729 Y47.734
X8.492 Y47.734
G0 Z3.000
G0  X11.032 Y47.734
G0  Z3.000
G01 F400 Z0
G01 F400 Z-0.100
G01F400X10.801 Y47.685
X10.585 Y47.589
X10.394 Y47.450
X10.235 Y47.274
X10.117 Y47.069
X10.044 Y46.844
X10.019 Y46.609
X10.044 Y46.374
X10.117 Y46.149
X10.235 Y45.944
X10.394 Y45.768
X10.585 Y45.629
X10.705 Y45.576
X10.706 Y42.555
X10.588 Y42.503
X10.398 Y42.365
X10.241 Y42.190
X10.123 Y41.986
X10.051 Y41.763
X10.026 Y41.529
X10.051 Y41.295
X10.123 Y41.072
X10.241 Y40.868
X10.398 Y40.693
X10.588 Y40.555
X10.803 Y40.460
X11.033 Y40.411
X11.268 Y40.411
X11.498 Y40.460
X11.713 Y40.555
X11.903 Y40.693
X12.060 Y40.868
X12.178 Y41.072
X12.250 Y41.295
X12.275 Y41.529
X12.250 Y41.763
X12.178 Y41.986
X12.060 Y42.190
X11.903 Y42.365
X11.713 Y42.503
X11.595 Y42.555
X11.595 Y45.576
X11.716 Y45.629
X11.908 Y45.768
X12.066 Y45.944
X12.184 Y46.149
X12.257 Y46.374
X12.282 Y46.609
X12.257 Y46.844
X12.184 Y47.069
X12.066 Y47.274
X11.908 Y47.450
X11.716 Y47.589
X11.500 Y47.685
X11.269 Y47.734
X11.032 Y47.734
G0 Z3.000
G0  X26.293 Y47.078
G0  Z3.000
G01 F400 Z0
G01 F400 Z-0.100
G01F400X26.202 Y47.058
X26.117 Y47.020
X26.042 Y46.966
X25.979 Y46.896
X25.933 Y46.816
X25.904 Y46.727
X25.895 Y46.641
X25.919 Y42.543
X25.829 Y42.503
X25.638 Y42.365
X25.481 Y42.190
X25.364 Y41.986
X25.291 Y41.763
X25.266 Y41.529
X25.291 Y41.295
X25.364 Y41.072
X25.481 Y40.868
X25.638 Y40.693
X25.829 Y40.555
X26.043 Y40.460
X26.273 Y40.411
X26.508 Y40.411
X26.738 Y40.460
X26.953 Y40.555
X27.143 Y40.693
X27.300 Y40.868
X27.418 Y41.072
X27.490 Y41.295
X27.515 Y41.529
X27.490 Y41.763
X27.418 Y41.986
X27.300 Y42.190
X27.143 Y42.365
X26.953 Y42.503
X26.809 Y42.567
X26.787 Y46.191
X64.020 Y46.141
X64.020 Y19.112
X41.559 Y19.112
X41.468 Y19.093
X41.383 Y19.055
X41.307 Y19.000
X41.245 Y18.931
X41.198 Y18.850
X41.169 Y18.762
X41.160 Y18.677
X41.112 Y12.118
X41.008 Y12.072
X40.823 Y11.938
X40.670 Y11.768
X40.556 Y11.570
X40.485 Y11.353
X40.461 Y11.125
X40.485 Y10.898
X40.556 Y10.681
X40.670 Y10.483
X40.823 Y10.313
X41.008 Y10.178
X41.217 Y10.085
X41.440 Y10.038
X41.669 Y10.038
X41.892 Y10.085
X42.101 Y10.178
X42.286 Y10.313
X42.439 Y10.483
X42.553 Y10.681
X42.624 Y10.898
X42.648 Y11.125
X42.624 Y11.353
X42.553 Y11.570
X42.439 Y11.768
X42.286 Y11.938
X42.101 Y12.072
X42.001 Y12.116
X42.047 Y18.226
X64.512 Y18.226
X64.603 Y18.245
X64.688 Y18.283
X64.763 Y18.338
X64.826 Y18.407
X64.872 Y18.488
X64.901 Y18.576
X64.910 Y18.662
X64.910 Y46.591
X64.901 Y46.676
X64.872 Y46.765
X64.826 Y46.846
X64.763 Y46.915
X64.688 Y46.970
X64.603 Y47.007
X64.512 Y47.027
X26.372 Y47.078
X26.293 Y47.078
G0 Z3.000
G0  X28.884 Y44.538
G0  Z3.000
G01 F400 Z0
G01 F400 Z-0.100
G01F400X28.793 Y44.518
X28.708 Y44.480
X28.633 Y44.426
X28.570 Y44.356
X28.524 Y44.276
X28.495 Y44.187
X28.486 Y44.102
X28.486 Y42.555
X28.369 Y42.503
X28.178 Y42.365
X28.021 Y42.190
X27.904 Y41.986
X27.831 Y41.763
X27.806 Y41.529
X27.831 Y41.295
X27.904 Y41.072
X28.021 Y40.868
X28.178 Y40.693
X28.369 Y40.555
X28.583 Y40.460
X28.813 Y40.411
X29.048 Y40.411
X29.278 Y40.460
X29.493 Y40.555
X29.683 Y40.693
X29.840 Y40.868
X29.958 Y41.072
X30.030 Y41.295
X30.055 Y41.529
X30.030 Y41.763
X29.958 Y41.986
X29.840 Y42.190
X29.683 Y42.365
X29.493 Y42.503
X29.375 Y42.555
X29.375 Y43.651
X61.531 Y43.626
X61.531 Y21.677
X29.930 Y21.652
X29.929 Y21.654
X29.815 Y21.852
X29.662 Y22.021
X29.477 Y22.156
X29.269 Y22.249
X29.045 Y22.296
X28.816 Y22.296
X28.593 Y22.249
X28.384 Y22.156
X28.199 Y22.021
X28.046 Y21.852
X27.932 Y21.654
X27.861 Y21.436
X27.837 Y21.209
X27.861 Y20.982
X27.932 Y20.764
X28.046 Y20.566
X28.199 Y20.396
X28.384 Y20.262
X28.593 Y20.169
X28.816 Y20.122
X29.045 Y20.122
X29.269 Y20.169
X29.477 Y20.262
X29.662 Y20.396
X29.815 Y20.566
X29.929 Y20.764
X29.930 Y20.766
X62.023 Y20.791
X62.114 Y20.811
X62.199 Y20.849
X62.274 Y20.903
X62.337 Y20.973
X62.383 Y21.053
X62.412 Y21.142
X62.421 Y21.227
X62.421 Y44.076
X62.412 Y44.162
X62.383 Y44.250
X62.337 Y44.331
X62.274 Y44.400
X62.199 Y44.455
X62.114 Y44.493
X62.023 Y44.512
X61.969 Y44.512
X28.963 Y44.538
X28.884 Y44.538
G0 Z3.000
G0  X8.493 Y42.647
G0  Z3.000
G01 F400 Z0
G01 F400 Z-0.100
G01F400X8.263 Y42.598
X8.049 Y42.503
X7.858 Y42.365
X7.701 Y42.190
X7.584 Y41.986
X7.511 Y41.763
X7.486 Y41.529
X7.511 Y41.295
X7.584 Y41.072
X7.701 Y40.868
X7.858 Y40.693
X8.049 Y40.555
X8.263 Y40.460
X8.493 Y40.411
X8.728 Y40.411
X8.958 Y40.460
X9.173 Y40.555
X9.363 Y40.693
X9.520 Y40.868
X9.638 Y41.072
X9.710 Y41.295
X9.735 Y41.529
X9.710 Y41.763
X9.638 Y41.986
X9.520 Y42.190
X9.363 Y42.365
X9.173 Y42.503
X8.958 Y42.598
X8.728 Y42.647
X8.493 Y42.647
G0 Z3.000
G0  X56.753 Y42.647
G0  Z3.000
G01 F400 Z0
G01 F400 Z-0.100
G01F400X56.523 Y42.598
X56.309 Y42.503
X56.118 Y42.365
X55.961 Y42.190
X55.844 Y41.986
X55.808 Y41.877
X55.785 Y41.860
X55.723 Y41.791
X55.676 Y41.710
X55.647 Y41.622
X55.638 Y41.529
X55.647 Y41.436
X55.676 Y41.348
X55.723 Y41.267
X55.785 Y41.198
X55.808 Y41.181
X55.844 Y41.072
X55.961 Y40.868
X56.118 Y40.693
X56.309 Y40.555
X56.523 Y40.460
X56.753 Y40.411
X56.988 Y40.411
X57.218 Y40.460
X57.433 Y40.555
X57.623 Y40.693
X57.780 Y40.868
X57.898 Y41.072
X57.970 Y41.295
X57.973 Y41.320
X57.989 Y41.348
X58.018 Y41.436
X58.027 Y41.529
X58.018 Y41.622
X57.989 Y41.710
X57.973 Y41.738
X57.970 Y41.763
X57.898 Y41.986
X57.780 Y42.190
X57.623 Y42.365
X57.433 Y42.503
X57.218 Y42.598
X56.988 Y42.647
X56.753 Y42.647
G0 Z3.000
G0  X33.893 Y42.647
G0  Z3.000
G01 F400 Z0
G01 F400 Z-0.100
G01F400X33.663 Y42.598
X33.449 Y42.503
X33.258 Y42.365
X33.101 Y42.190
X32.983 Y41.986
X32.911 Y41.763
X32.886 Y41.529
X32.911 Y41.295
X32.983 Y41.072
X33.101 Y40.868
X33.258 Y40.693
X33.449 Y40.555
X33.663 Y40.460
X33.893 Y40.411
X34.128 Y40.411
X34.358 Y40.460
X34.573 Y40.555
X34.763 Y40.693
X34.920 Y40.868
X35.038 Y41.072
X35.110 Y41.295
X35.135 Y41.529
X35.110 Y41.763
X35.038 Y41.986
X34.920 Y42.190
X34.763 Y42.365
X34.573 Y42.503
X34.358 Y42.598
X34.128 Y42.647
X33.893 Y42.647
G0 Z3.000
G0  X31.328 Y42.647
G0  Z3.000
G01 F400 Z0
G01 F400 Z-0.100
G01F400X31.098 Y42.598
X30.883 Y42.503
X30.693 Y42.365
X30.536 Y42.190
X30.418 Y41.986
X30.346 Y41.763
X30.321 Y41.529
X30.346 Y41.295
X30.418 Y41.072
X30.536 Y40.868
X30.693 Y40.693
X30.883 Y40.555
X31.098 Y40.460
X31.328 Y40.411
X31.563 Y40.411
X31.793 Y40.460
X32.007 Y40.555
X32.197 Y40.693
X32.355 Y40.868
X32.472 Y41.072
X32.545 Y41.295
X32.570 Y41.529
X32.545 Y41.763
X32.472 Y41.986
X32.355 Y42.190
X32.197 Y42.365
X32.007 Y42.503
X31.793 Y42.598
X31.563 Y42.647
X31.328 Y42.647
G0 Z3.000
G0  X18.653 Y42.647
G0  Z3.000
G01 F400 Z0
G01 F400 Z-0.100
G01F400X18.423 Y42.598
X18.209 Y42.503
X18.018 Y42.365
X17.861 Y42.190
X17.744 Y41.986
X17.671 Y41.763
X17.646 Y41.529
X17.671 Y41.295
X17.744 Y41.072
X17.861 Y40.868
X18.018 Y40.693
X18.209 Y40.555
X18.423 Y40.460
X18.653 Y40.411
X18.888 Y40.411
X19.118 Y40.460
X19.333 Y40.555
X19.523 Y40.693
X19.680 Y40.868
X19.798 Y41.072
X19.870 Y41.295
X19.895 Y41.529
X19.870 Y41.763
X19.798 Y41.986
X19.680 Y42.190
X19.523 Y42.365
X19.333 Y42.503
X19.118 Y42.598
X18.888 Y42.647
X18.653 Y42.647
G0 Z3.000
G0  X16.113 Y42.647
G0  Z3.000
G01 F400 Z0
G01 F400 Z-0.100
G01F400X15.883 Y42.598
X15.668 Y42.503
X15.478 Y42.365
X15.321 Y42.190
X15.204 Y41.986
X15.131 Y41.763
X15.106 Y41.529
X15.131 Y41.295
X15.204 Y41.072
X15.321 Y40.868
X15.478 Y40.693
X15.668 Y40.555
X15.883 Y40.460
X16.113 Y40.411
X16.348 Y40.411
X16.578 Y40.460
X16.793 Y40.555
X16.983 Y40.693
X17.140 Y40.868
X17.258 Y41.072
X17.330 Y41.295
X17.355 Y41.529
X17.330 Y41.763
X17.258 Y41.986
X17.140 Y42.190
X16.983 Y42.365
X16.793 Y42.503
X16.578 Y42.598
X16.348 Y42.647
X16.113 Y42.647
G0 Z3.000
G0  X23.733 Y42.647
G0  Z3.000
G01 F400 Z0
G01 F400 Z-0.100
G01F400X23.503 Y42.598
X23.289 Y42.503
X23.098 Y42.365
X22.941 Y42.190
X22.824 Y41.986
X22.751 Y41.763
X22.726 Y41.529
X22.751 Y41.295
X22.824 Y41.072
X22.941 Y40.868
X23.098 Y40.693
X23.289 Y40.555
X23.503 Y40.460
X23.733 Y40.411
X23.968 Y40.411
X24.198 Y40.460
X24.413 Y40.555
X24.603 Y40.693
X24.760 Y40.868
X24.878 Y41.072
X24.950 Y41.295
X24.975 Y41.529
X24.950 Y41.763
X24.878 Y41.986
X24.760 Y42.190
X24.603 Y42.365
X24.413 Y42.503
X24.198 Y42.598
X23.968 Y42.647
X23.733 Y42.647
G0 Z3.000
G0  X21.193 Y42.647
G0  Z3.000
G01 F400 Z0
G01 F400 Z-0.100
G01F400X20.963 Y42.598
X20.748 Y42.503
X20.558 Y42.365
X20.401 Y42.190
X20.284 Y41.986
X20.211 Y41.763
X20.186 Y41.529
X20.211 Y41.295
X20.284 Y41.072
X20.401 Y40.868
X20.558 Y40.693
X20.748 Y40.555
X20.963 Y40.460
X21.193 Y40.411
X21.428 Y40.411
X21.658 Y40.460
X21.873 Y40.555
X22.063 Y40.693
X22.220 Y40.868
X22.338 Y41.072
X22.410 Y41.295
X22.435 Y41.529
X22.410 Y41.763
X22.338 Y41.986
X22.220 Y42.190
X22.063 Y42.365
X21.873 Y42.503
X21.658 Y42.598
X21.428 Y42.647
X21.193 Y42.647
G0 Z3.000
G0  X49.108 Y42.647
G0  Z3.000
G01 F400 Z0
G01 F400 Z-0.100
G01F400X48.878 Y42.598
X48.663 Y42.503
X48.473 Y42.365
X48.316 Y42.190
X48.198 Y41.986
X48.126 Y41.763
X48.101 Y41.529
X48.126 Y41.295
X48.198 Y41.072
X48.316 Y40.868
X48.473 Y40.693
X48.663 Y40.555
X48.878 Y40.460
X49.108 Y40.411
X49.343 Y40.411
X49.573 Y40.460
X49.787 Y40.555
X49.977 Y40.693
X50.135 Y40.868
X50.252 Y41.072
X50.325 Y41.295
X50.349 Y41.529
X50.325 Y41.763
X50.252 Y41.986
X50.135 Y42.190
X49.977 Y42.365
X49.787 Y42.503
X49.573 Y42.598
X49.343 Y42.647
X49.108 Y42.647
G0 Z3.000
G0  X46.593 Y42.647
G0  Z3.000
G01 F400 Z0
G01 F400 Z-0.100
G01F400X46.363 Y42.598
X46.149 Y42.503
X45.958 Y42.365
X45.801 Y42.190
X45.684 Y41.986
X45.611 Y41.763
X45.586 Y41.529
X45.611 Y41.295
X45.684 Y41.072
X45.801 Y40.868
X45.958 Y40.693
X46.149 Y40.555
X46.363 Y40.460
X46.593 Y40.411
X46.828 Y40.411
X47.058 Y40.460
X47.273 Y40.555
X47.463 Y40.693
X47.620 Y40.868
X47.738 Y41.072
X47.810 Y41.295
X47.835 Y41.529
X47.810 Y41.763
X47.738 Y41.986
X47.620 Y42.190
X47.463 Y42.365
X47.273 Y42.503
X47.058 Y42.598
X46.828 Y42.647
X46.593 Y42.647
G0 Z3.000
G0  X54.213 Y42.647
G0  Z3.000
G01 F400 Z0
G01 F400 Z-0.100
G01F400X53.983 Y42.598
X53.769 Y42.503
X53.578 Y42.365
X53.421 Y42.190
X53.303 Y41.986
X53.268 Y41.877
X53.245 Y41.860
X53.183 Y41.791
X53.136 Y41.710
X53.107 Y41.622
X53.098 Y41.529
X53.107 Y41.436
X53.136 Y41.348
X53.183 Y41.267
X53.245 Y41.198
X53.268 Y41.181
X53.303 Y41.072
X53.421 Y40.868
X53.578 Y40.693
X53.769 Y40.555
X53.983 Y40.460
X54.213 Y40.411
X54.448 Y40.411
X54.678 Y40.460
X54.893 Y40.555
X55.083 Y40.693
X55.240 Y40.868
X55.358 Y41.072
X55.430 Y41.295
X55.433 Y41.320
X55.449 Y41.348
X55.478 Y41.436
X55.487 Y41.529
X55.478 Y41.622
X55.449 Y41.710
X55.433 Y41.738
X55.430 Y41.763
X55.358 Y41.986
X55.240 Y42.190
X55.083 Y42.365
X54.893 Y42.503
X54.678 Y42.598
X54.448 Y42.647
X54.213 Y42.647
G0 Z3.000
G0  X51.648 Y42.647
G0  Z3.000
G01 F400 Z0
G01 F400 Z-0.100
G01F400X51.418 Y42.598
X51.203 Y42.503
X51.013 Y42.365
X50.856 Y42.190
X50.738 Y41.986
X50.666 Y41.763
X50.641 Y41.529
X50.666 Y41.295
X50.738 Y41.072
X50.856 Y40.868
X51.013 Y40.693
X51.203 Y40.555
X51.418 Y40.460
X51.648 Y40.411
X51.883 Y40.411
X52.113 Y40.460
X52.327 Y40.555
X52.518 Y40.693
X52.675 Y40.868
X52.792 Y41.072
X52.865 Y41.295
X52.890 Y41.529
X52.865 Y41.763
X52.792 Y41.986
X52.675 Y42.190
X52.518 Y42.365
X52.327 Y42.503
X52.113 Y42.598
X51.883 Y42.647
X51.648 Y42.647
G0 Z3.000
G0  X38.973 Y42.647
G0  Z3.000
G01 F400 Z0
G01 F400 Z-0.100
G01F400X38.743 Y42.598
X38.529 Y42.503
X38.338 Y42.365
X38.181 Y42.190
X38.064 Y41.986
X37.991 Y41.763
X37.966 Y41.529
X37.991 Y41.295
X38.064 Y41.072
X38.181 Y40.868
X38.338 Y40.693
X38.529 Y40.555
X38.743 Y40.460
X38.973 Y40.411
X39.208 Y40.411
X39.438 Y40.460
X39.653 Y40.555
X39.843 Y40.693
X40.000 Y40.868
X40.118 Y41.072
X40.190 Y41.295
X40.215 Y41.529
X40.190 Y41.763
X40.118 Y41.986
X40.000 Y42.190
X39.843 Y42.365
X39.653 Y42.503
X39.438 Y42.598
X39.208 Y42.647
X38.973 Y42.647
G0 Z3.000
G0  X36.433 Y42.647
G0  Z3.000
G01 F400 Z0
G01 F400 Z-0.100
G01F400X36.203 Y42.598
X35.989 Y42.503
X35.798 Y42.365
X35.641 Y42.190
X35.523 Y41.986
X35.451 Y41.763
X35.426 Y41.529
X35.451 Y41.295
X35.523 Y41.072
X35.641 Y40.868
X35.798 Y40.693
X35.989 Y40.555
X36.203 Y40.460
X36.433 Y40.411
X36.668 Y40.411
X36.898 Y40.460
X37.113 Y40.555
X37.303 Y40.693
X37.460 Y40.868
X37.578 Y41.072
X37.650 Y41.295
X37.675 Y41.529
X37.650 Y41.763
X37.578 Y41.986
X37.460 Y42.190
X37.303 Y42.365
X37.113 Y42.503
X36.898 Y42.598
X36.668 Y42.647
X36.433 Y42.647
G0 Z3.000
G0  X44.053 Y42.647
G0  Z3.000
G01 F400 Z0
G01 F400 Z-0.100
G01F400X43.823 Y42.598
X43.608 Y42.503
X43.418 Y42.365
X43.261 Y42.190
X43.144 Y41.986
X43.071 Y41.763
X43.046 Y41.529
X43.071 Y41.295
X43.144 Y41.072
X43.261 Y40.868
X43.418 Y40.693
X43.608 Y40.555
X43.823 Y40.460
X44.053 Y40.411
X44.288 Y40.411
X44.518 Y40.460
X44.733 Y40.555
X44.923 Y40.693
X45.080 Y40.868
X45.198 Y41.072
X45.270 Y41.295
X45.295 Y41.529
X45.270 Y41.763
X45.198 Y41.986
X45.080 Y42.190
X44.923 Y42.365
X44.733 Y42.503
X44.518 Y42.598
X44.288 Y42.647
X44.053 Y42.647
G0 Z3.000
G0  X41.513 Y42.647
G0  Z3.000
G01 F400 Z0
G01 F400 Z-0.100
G01F400X41.283 Y42.598
X41.069 Y42.503
X40.878 Y42.365
X40.721 Y42.190
X40.604 Y41.986
X40.531 Y41.763
X40.506 Y41.529
X40.531 Y41.295
X40.604 Y41.072
X40.721 Y40.868
X40.878 Y40.693
X41.069 Y40.555
X41.283 Y40.460
X41.513 Y40.411
X41.748 Y40.411
X41.978 Y40.460
X42.193 Y40.555
X42.383 Y40.693
X42.540 Y40.868
X42.658 Y41.072
X42.730 Y41.295
X42.755 Y41.529
X42.730 Y41.763
X42.658 Y41.986
X42.540 Y42.190
X42.383 Y42.365
X42.193 Y42.503
X41.978 Y42.598
X41.748 Y42.647
X41.513 Y42.647
G0 Z3.000
G0  X46.593 Y40.107
G0  Z3.000
G01 F400 Z0
G01 F400 Z-0.100
G01F400X46.363 Y40.058
X46.149 Y39.963
X45.958 Y39.825
X45.801 Y39.650
X45.684 Y39.446
X45.611 Y39.223
X45.586 Y38.989
X45.611 Y38.755
X45.684 Y38.532
X45.801 Y38.328
X45.958 Y38.153
X46.149 Y38.015
X46.363 Y37.920
X46.593 Y37.871
X46.828 Y37.871
X47.058 Y37.920
X47.273 Y38.015
X47.463 Y38.153
X47.620 Y38.328
X47.738 Y38.532
X47.810 Y38.755
X47.835 Y38.989
X47.810 Y39.223
X47.738 Y39.446
X47.620 Y39.650
X47.463 Y39.825
X47.273 Y39.963
X47.058 Y40.058
X46.828 Y40.107
X46.593 Y40.107
G0 Z3.000
G0  X49.108 Y40.107
G0  Z3.000
G01 F400 Z0
G01 F400 Z-0.100
G01F400X48.878 Y40.058
X48.663 Y39.963
X48.473 Y39.825
X48.316 Y39.650
X48.198 Y39.446
X48.126 Y39.223
X48.101 Y38.989
X48.126 Y38.755
X48.198 Y38.532
X48.316 Y38.328
X48.473 Y38.153
X48.663 Y38.015
X48.878 Y37.920
X49.108 Y37.871
X49.343 Y37.871
X49.573 Y37.920
X49.787 Y38.015
X49.977 Y38.153
X50.135 Y38.328
X50.252 Y38.532
X50.325 Y38.755
X50.349 Y38.989
X50.325 Y39.223
X50.252 Y39.446
X50.135 Y39.650
X49.977 Y39.825
X49.787 Y39.963
X49.573 Y40.058
X49.343 Y40.107
X49.108 Y40.107
G0 Z3.000
G0  X41.513 Y40.107
G0  Z3.000
G01 F400 Z0
G01 F400 Z-0.100
G01F400X41.283 Y40.058
X41.069 Y39.963
X40.878 Y39.825
X40.721 Y39.650
X40.604 Y39.446
X40.531 Y39.223
X40.506 Y38.989
X40.531 Y38.755
X40.604 Y38.532
X40.721 Y38.328
X40.878 Y38.153
X41.069 Y38.015
X41.283 Y37.920
X41.513 Y37.871
X41.748 Y37.871
X41.978 Y37.920
X42.193 Y38.015
X42.383 Y38.153
X42.540 Y38.328
X42.658 Y38.532
X42.730 Y38.755
X42.755 Y38.989
X42.730 Y39.223
X42.658 Y39.446
X42.540 Y39.650
X42.383 Y39.825
X42.193 Y39.963
X41.978 Y40.058
X41.748 Y40.107
X41.513 Y40.107
G0 Z3.000
G0  X44.053 Y40.107
G0  Z3.000
G01 F400 Z0
G01 F400 Z-0.100
G01F400X43.823 Y40.058
X43.608 Y39.963
X43.418 Y39.825
X43.261 Y39.650
X43.144 Y39.446
X43.071 Y39.223
X43.046 Y38.989
X43.071 Y38.755
X43.144 Y38.532
X43.261 Y38.328
X43.418 Y38.153
X43.608 Y38.015
X43.823 Y37.920
X44.053 Y37.871
X44.288 Y37.871
X44.518 Y37.920
X44.733 Y38.015
X44.923 Y38.153
X45.080 Y38.328
X45.198 Y38.532
X45.270 Y38.755
X45.295 Y38.989
X45.270 Y39.223
X45.198 Y39.446
X45.080 Y39.650
X44.923 Y39.825
X44.733 Y39.963
X44.518 Y40.058
X44.288 Y40.107
X44.053 Y40.107
G0 Z3.000
G0  X56.753 Y40.107
G0  Z3.000
G01 F400 Z0
G01 F400 Z-0.100
G01F400X56.523 Y40.058
X56.309 Y39.963
X56.118 Y39.825
X55.961 Y39.650
X55.844 Y39.446
X55.771 Y39.223
X55.746 Y38.989
X55.771 Y38.755
X55.844 Y38.532
X55.961 Y38.328
X56.118 Y38.153
X56.309 Y38.015
X56.523 Y37.920
X56.753 Y37.871
X56.988 Y37.871
X57.218 Y37.920
X57.433 Y38.015
X57.623 Y38.153
X57.780 Y38.328
X57.898 Y38.532
X57.970 Y38.755
X57.995 Y38.989
X57.970 Y39.223
X57.898 Y39.446
X57.780 Y39.650
X57.623 Y39.825
X57.433 Y39.963
X57.218 Y40.058
X56.988 Y40.107
X56.753 Y40.107
G0 Z3.000
G0  X51.648 Y40.107
G0  Z3.000
G01 F400 Z0
G01 F400 Z-0.100
G01F400X51.418 Y40.058
X51.203 Y39.963
X51.013 Y39.825
X50.856 Y39.650
X50.738 Y39.446
X50.666 Y39.223
X50.641 Y38.989
X50.666 Y38.755
X50.738 Y38.532
X50.856 Y38.328
X51.013 Y38.153
X51.203 Y38.015
X51.418 Y37.920
X51.648 Y37.871
X51.883 Y37.871
X52.113 Y37.920
X52.327 Y38.015
X52.518 Y38.153
X52.675 Y38.328
X52.792 Y38.532
X52.865 Y38.755
X52.890 Y38.989
X52.865 Y39.223
X52.792 Y39.446
X52.675 Y39.650
X52.518 Y39.825
X52.327 Y39.963
X52.113 Y40.058
X51.883 Y40.107
X51.648 Y40.107
G0 Z3.000
G0  X54.213 Y40.107
G0  Z3.000
G01 F400 Z0
G01 F400 Z-0.100
G01F400X53.983 Y40.058
X53.769 Y39.963
X53.578 Y39.825
X53.421 Y39.650
X53.303 Y39.446
X53.231 Y39.223
X53.206 Y38.989
X53.231 Y38.755
X53.303 Y38.532
X53.421 Y38.328
X53.578 Y38.153
X53.769 Y38.015
X53.983 Y37.920
X54.213 Y37.871
X54.448 Y37.871
X54.678 Y37.920
X54.893 Y38.015
X55.083 Y38.153
X55.240 Y38.328
X55.358 Y38.532
X55.430 Y38.755
X55.455 Y38.989
X55.430 Y39.223
X55.358 Y39.446
X55.240 Y39.650
X55.083 Y39.825
X54.893 Y39.963
X54.678 Y40.058
X54.448 Y40.107
X54.213 Y40.107
G0 Z3.000
G0  X26.273 Y40.107
G0  Z3.000
G01 F400 Z0
G01 F400 Z-0.100
G01F400X26.043 Y40.058
X25.829 Y39.963
X25.638 Y39.825
X25.481 Y39.650
X25.364 Y39.446
X25.291 Y39.223
X25.266 Y38.989
X25.291 Y38.755
X25.364 Y38.532
X25.481 Y38.328
X25.638 Y38.153
X25.829 Y38.015
X26.043 Y37.920
X26.273 Y37.871
X26.508 Y37.871
X26.738 Y37.920
X26.953 Y38.015
X27.143 Y38.153
X27.300 Y38.328
X27.418 Y38.532
X27.490 Y38.755
X27.515 Y38.989
X27.490 Y39.223
X27.418 Y39.446
X27.300 Y39.650
X27.143 Y39.825
X26.953 Y39.963
X26.738 Y40.058
X26.508 Y40.107
X26.273 Y40.107
G0 Z3.000
G0  X21.193 Y40.107
G0  Z3.000
G01 F400 Z0
G01 F400 Z-0.100
G01F400X20.963 Y40.058
X20.748 Y39.963
X20.558 Y39.825
X20.401 Y39.650
X20.284 Y39.446
X20.211 Y39.223
X20.186 Y38.989
X20.211 Y38.755
X20.284 Y38.532
X20.401 Y38.328
X20.558 Y38.153
X20.748 Y38.015
X20.963 Y37.920
X21.193 Y37.871
X21.428 Y37.871
X21.658 Y37.920
X21.873 Y38.015
X22.063 Y38.153
X22.220 Y38.328
X22.338 Y38.532
X22.410 Y38.755
X22.435 Y38.989
X22.410 Y39.223
X22.338 Y39.446
X22.220 Y39.650
X22.063 Y39.825
X21.873 Y39.963
X21.658 Y40.058
X21.428 Y40.107
X21.193 Y40.107
G0 Z3.000
G0  X23.733 Y40.107
G0  Z3.000
G01 F400 Z0
G01 F400 Z-0.100
G01F400X23.503 Y40.058
X23.289 Y39.963
X23.098 Y39.825
X22.941 Y39.650
X22.824 Y39.446
X22.751 Y39.223
X22.726 Y38.989
X22.751 Y38.755
X22.824 Y38.532
X22.941 Y38.328
X23.098 Y38.153
X23.289 Y38.015
X23.503 Y37.920
X23.733 Y37.871
X23.968 Y37.871
X24.198 Y37.920
X24.413 Y38.015
X24.603 Y38.153
X24.760 Y38.328
X24.878 Y38.532
X24.950 Y38.755
X24.975 Y38.989
X24.950 Y39.223
X24.878 Y39.446
X24.760 Y39.650
X24.603 Y39.825
X24.413 Y39.963
X24.198 Y40.058
X23.968 Y40.107
X23.733 Y40.107
G0 Z3.000
G0  X36.433 Y40.107
G0  Z3.000
G01 F400 Z0
G01 F400 Z-0.100
G01F400X36.203 Y40.058
X35.989 Y39.963
X35.798 Y39.825
X35.641 Y39.650
X35.523 Y39.446
X35.451 Y39.223
X35.426 Y38.989
X35.451 Y38.755
X35.523 Y38.532
X35.641 Y38.328
X35.798 Y38.153
X35.989 Y38.015
X36.203 Y37.920
X36.433 Y37.871
X36.668 Y37.871
X36.898 Y37.920
X37.113 Y38.015
X37.303 Y38.153
X37.460 Y38.328
X37.578 Y38.532
X37.650 Y38.755
X37.675 Y38.989
X37.650 Y39.223
X37.578 Y39.446
X37.460 Y39.650
X37.303 Y39.825
X37.113 Y39.963
X36.898 Y40.058
X36.668 Y40.107
X36.433 Y40.107
G0 Z3.000
G0  X38.973 Y40.107
G0  Z3.000
G01 F400 Z0
G01 F400 Z-0.100
G01F400X38.743 Y40.058
X38.529 Y39.963
X38.338 Y39.825
X38.181 Y39.650
X38.064 Y39.446
X37.991 Y39.223
X37.966 Y38.989
X37.991 Y38.755
X38.064 Y38.532
X38.181 Y38.328
X38.338 Y38.153
X38.529 Y38.015
X38.743 Y37.920
X38.973 Y37.871
X39.208 Y37.871
X39.438 Y37.920
X39.653 Y38.015
X39.843 Y38.153
X40.000 Y38.328
X40.118 Y38.532
X40.190 Y38.755
X40.215 Y38.989
X40.190 Y39.223
X40.118 Y39.446
X40.000 Y39.650
X39.843 Y39.825
X39.653 Y39.963
X39.438 Y40.058
X39.208 Y40.107
X38.973 Y40.107
G0 Z3.000
G0  X31.353 Y40.107
G0  Z3.000
G01 F400 Z0
G01 F400 Z-0.100
G01F400X31.123 Y40.058
X30.909 Y39.963
X30.718 Y39.825
X30.561 Y39.650
X30.444 Y39.446
X30.371 Y39.223
X30.346 Y38.989
X30.371 Y38.755
X30.444 Y38.532
X30.561 Y38.328
X30.718 Y38.153
X30.909 Y38.015
X31.026 Y37.963
X31.026 Y37.389
X30.531 Y37.389
X30.531 Y35.509
X32.411 Y35.509
X32.411 Y36.606
X32.436 Y36.647
X32.465 Y36.737
X32.475 Y36.830
X32.465 Y36.923
X32.437 Y37.011
X32.415 Y37.048
X32.407 Y37.389
X31.915 Y37.389
X31.915 Y37.963
X32.033 Y38.015
X32.223 Y38.153
X32.380 Y38.328
X32.498 Y38.532
X32.570 Y38.755
X32.595 Y38.989
X32.570 Y39.223
X32.498 Y39.446
X32.380 Y39.650
X32.223 Y39.825
X32.033 Y39.963
X31.818 Y40.058
X31.588 Y40.107
X31.353 Y40.107
G0 Z3.000
G0  X33.893 Y40.107
G0  Z3.000
G01 F400 Z0
G01 F400 Z-0.100
G01F400X33.663 Y40.058
X33.449 Y39.963
X33.258 Y39.825
X33.101 Y39.650
X32.983 Y39.446
X32.911 Y39.223
X32.886 Y38.989
X32.911 Y38.755
X32.983 Y38.532
X33.101 Y38.328
X33.258 Y38.153
X33.449 Y38.015
X33.663 Y37.920
X33.893 Y37.871
X34.128 Y37.871
X34.358 Y37.920
X34.573 Y38.015
X34.763 Y38.153
X34.920 Y38.328
X35.038 Y38.532
X35.110 Y38.755
X35.135 Y38.989
X35.110 Y39.223
X35.038 Y39.446
X34.920 Y39.650
X34.763 Y39.825
X34.573 Y39.963
X34.358 Y40.058
X34.128 Y40.107
X33.893 Y40.107
G0 Z3.000
G0  X8.468 Y40.107
G0  Z3.000
G01 F400 Z0
G01 F400 Z-0.100
G01F400X8.238 Y40.058
X8.023 Y39.963
X7.833 Y39.825
X7.676 Y39.650
X7.558 Y39.446
X7.486 Y39.223
X7.461 Y38.989
X7.486 Y38.755
X7.558 Y38.532
X7.676 Y38.328
X7.833 Y38.153
X8.023 Y38.015
X8.238 Y37.920
X8.468 Y37.871
X8.703 Y37.871
X8.933 Y37.920
X9.147 Y38.015
X9.338 Y38.153
X9.495 Y38.328
X9.612 Y38.532
X9.685 Y38.755
X9.710 Y38.989
X9.685 Y39.223
X9.612 Y39.446
X9.495 Y39.650
X9.338 Y39.825
X9.147 Y39.963
X8.933 Y40.058
X8.703 Y40.107
X8.468 Y40.107
G0 Z3.000
G0  X16.113 Y40.107
G0  Z3.000
G01 F400 Z0
G01 F400 Z-0.100
G01F400X15.883 Y40.058
X15.668 Y39.963
X15.478 Y39.825
X15.321 Y39.650
X15.204 Y39.446
X15.131 Y39.223
X15.106 Y38.989
X15.131 Y38.755
X15.204 Y38.532
X15.321 Y38.328
X15.478 Y38.153
X15.668 Y38.015
X15.883 Y37.920
X16.113 Y37.871
X16.348 Y37.871
X16.578 Y37.920
X16.793 Y38.015
X16.983 Y38.153
X17.140 Y38.328
X17.258 Y38.532
X17.330 Y38.755
X17.355 Y38.989
X17.330 Y39.223
X17.258 Y39.446
X17.140 Y39.650
X16.983 Y39.825
X16.793 Y39.963
X16.578 Y40.058
X16.348 Y40.107
X16.113 Y40.107
G0 Z3.000
G0  X18.653 Y40.107
G0  Z3.000
G01 F400 Z0
G01 F400 Z-0.100
G01F400X18.423 Y40.058
X18.209 Y39.963
X18.018 Y39.825
X17.861 Y39.650
X17.744 Y39.446
X17.671 Y39.223
X17.646 Y38.989
X17.671 Y38.755
X17.744 Y38.532
X17.861 Y38.328
X18.018 Y38.153
X18.209 Y38.015
X18.300 Y37.974
X18.300 Y36.867
X3.459 Y36.867
X3.368 Y36.847
X3.283 Y36.809
X3.207 Y36.755
X3.145 Y36.686
X3.098 Y36.605
X3.069 Y36.516
X3.060 Y36.431
X3.086 Y31.369
X3.086 Y26.240
X3.060 Y23.742
X3.069 Y23.656
X3.098 Y23.568
X3.145 Y23.487
X3.207 Y23.418
X3.283 Y23.363
X3.368 Y23.325
X3.459 Y23.306
X5.071 Y23.306
X5.072 Y23.304
X5.186 Y23.106
X5.339 Y22.937
X5.524 Y22.802
X5.733 Y22.709
X5.956 Y22.662
X6.185 Y22.662
X6.409 Y22.709
X6.617 Y22.802
X6.802 Y22.937
X6.955 Y23.106
X7.069 Y23.304
X7.140 Y23.522
X7.164 Y23.749
X7.140 Y23.976
X7.069 Y24.194
X6.955 Y24.392
X6.802 Y24.562
X6.617 Y24.696
X6.409 Y24.789
X6.185 Y24.836
X5.956 Y24.836
X5.733 Y24.789
X5.524 Y24.696
X5.339 Y24.562
X5.186 Y24.392
X5.072 Y24.194
X5.071 Y24.192
X3.955 Y24.192
X3.971 Y25.795
X33.566 Y25.795
X33.566 Y24.741
X33.464 Y24.696
X33.455 Y24.689
X33.020 Y24.689
X33.020 Y24.208
X33.012 Y24.194
X32.974 Y24.079
X32.913 Y24.011
X32.867 Y23.930
X32.838 Y23.842
X32.828 Y23.749
X32.838 Y23.656
X32.867 Y23.568
X32.913 Y23.487
X32.974 Y23.420
X33.012 Y23.304
X33.020 Y23.290
X33.020 Y22.809
X33.455 Y22.809
X33.464 Y22.802
X33.673 Y22.709
X33.896 Y22.662
X34.125 Y22.662
X34.349 Y22.709
X34.557 Y22.802
X34.567 Y22.809
X34.900 Y22.809
X34.900 Y23.114
X35.009 Y23.304
X35.080 Y23.522
X35.104 Y23.749
X35.080 Y23.976
X35.009 Y24.194
X34.900 Y24.384
X34.900 Y24.689
X34.567 Y24.689
X34.557 Y24.696
X34.455 Y24.741
X34.455 Y26.245
X34.446 Y26.331
X34.418 Y26.419
X34.371 Y26.500
X34.309 Y26.569
X34.233 Y26.624
X34.148 Y26.662
X34.057 Y26.681
X3.975 Y26.681
X3.975 Y30.926
X4.394 Y30.925
X4.480 Y30.661
X4.662 Y30.346
X4.906 Y30.075
X5.200 Y29.861
X5.533 Y29.713
X5.889 Y29.638
X6.253 Y29.638
X6.609 Y29.713
X6.941 Y29.861
X7.235 Y30.075
X7.479 Y30.346
X7.661 Y30.661
X7.746 Y30.924
X22.180 Y30.917
X22.260 Y30.662
X22.442 Y30.346
X22.686 Y30.075
X22.980 Y29.861
X23.313 Y29.713
X23.669 Y29.638
X24.033 Y29.638
X24.389 Y29.713
X24.721 Y29.861
X25.015 Y30.075
X25.259 Y30.346
X25.441 Y30.661
X25.517 Y30.896
X56.426 Y30.901
X56.426 Y24.741
X56.324 Y24.696
X56.139 Y24.562
X55.986 Y24.392
X55.872 Y24.194
X55.801 Y23.976
X55.777 Y23.749
X55.801 Y23.522
X55.872 Y23.304
X55.986 Y23.106
X56.139 Y22.937
X56.324 Y22.802
X56.533 Y22.709
X56.756 Y22.662
X56.985 Y22.662
X57.209 Y22.709
X57.417 Y22.802
X57.602 Y22.937
X57.755 Y23.106
X57.869 Y23.304
X57.940 Y23.522
X57.964 Y23.749
X57.940 Y23.976
X57.869 Y24.194
X57.755 Y24.392
X57.602 Y24.562
X57.417 Y24.696
X57.315 Y24.741
X57.315 Y31.351
X57.306 Y31.436
X57.278 Y31.525
X57.231 Y31.606
X57.169 Y31.675
X57.093 Y31.730
X57.008 Y31.767
X56.917 Y31.787
X25.530 Y31.802
X25.441 Y32.077
X25.259 Y32.392
X25.015 Y32.663
X24.721 Y32.877
X24.389 Y33.025
X24.033 Y33.100
X23.669 Y33.100
X23.313 Y33.025
X22.980 Y32.877
X22.686 Y32.663
X22.442 Y32.392
X22.260 Y32.077
X22.171 Y31.803
X7.748 Y31.810
X7.661 Y32.077
X7.479 Y32.392
X7.235 Y32.663
X6.941 Y32.877
X6.609 Y33.025
X6.253 Y33.100
X5.889 Y33.100
X5.533 Y33.025
X5.200 Y32.877
X4.906 Y32.663
X4.662 Y32.392
X4.480 Y32.077
X4.394 Y31.812
X3.973 Y31.812
X3.952 Y35.980
X28.146 Y35.980
X28.195 Y35.896
X28.327 Y35.750
X28.486 Y35.634
X28.665 Y35.554
X28.858 Y35.513
X29.054 Y35.513
X29.247 Y35.554
X29.426 Y35.634
X29.585 Y35.750
X29.717 Y35.896
X29.816 Y36.066
X29.876 Y36.253
X29.897 Y36.449
X29.876 Y36.645
X29.816 Y36.832
X29.717 Y37.002
X29.585 Y37.148
X29.426 Y37.264
X29.247 Y37.344
X29.054 Y37.385
X28.858 Y37.385
X28.665 Y37.344
X28.486 Y37.264
X28.327 Y37.148
X28.195 Y37.002
X28.117 Y36.867
X19.190 Y36.867
X19.190 Y37.952
X19.333 Y38.015
X19.523 Y38.153
X19.680 Y38.328
X19.798 Y38.532
X19.870 Y38.755
X19.895 Y38.989
X19.870 Y39.223
X19.798 Y39.446
X19.680 Y39.650
X19.523 Y39.825
X19.333 Y39.963
X19.118 Y40.058
X18.888 Y40.107
X18.653 Y40.107
G0 Z3.000
G0  X11.033 Y40.107
G0  Z3.000
G01 F400 Z0
G01 F400 Z-0.100
G01F400X10.803 Y40.058
X10.588 Y39.963
X10.398 Y39.825
X10.241 Y39.650
X10.123 Y39.446
X10.051 Y39.223
X10.026 Y38.989
X10.051 Y38.755
X10.123 Y38.532
X10.241 Y38.328
X10.398 Y38.153
X10.588 Y38.015
X10.803 Y37.920
X11.033 Y37.871
X11.268 Y37.871
X11.498 Y37.920
X11.713 Y38.015
X11.903 Y38.153
X12.060 Y38.328
X12.178 Y38.532
X12.250 Y38.755
X12.275 Y38.989
X12.250 Y39.223
X12.178 Y39.446
X12.060 Y39.650
X11.903 Y39.825
X11.713 Y39.963
X11.498 Y40.058
X11.268 Y40.107
X11.033 Y40.107
G0 Z3.000
G0  X13.573 Y40.107
G0  Z3.000
G01 F400 Z0
G01 F400 Z-0.100
G01F400X13.343 Y40.058
X13.129 Y39.963
X12.938 Y39.825
X12.781 Y39.650
X12.664 Y39.446
X12.591 Y39.223
X12.566 Y38.989
X12.591 Y38.755
X12.664 Y38.532
X12.781 Y38.328
X12.938 Y38.153
X13.129 Y38.015
X13.343 Y37.920
X13.573 Y37.871
X13.808 Y37.871
X14.038 Y37.920
X14.253 Y38.015
X14.443 Y38.153
X14.600 Y38.328
X14.718 Y38.532
X14.790 Y38.755
X14.815 Y38.989
X14.790 Y39.223
X14.718 Y39.446
X14.600 Y39.650
X14.443 Y39.825
X14.253 Y39.963
X14.038 Y40.058
X13.808 Y40.107
X13.573 Y40.107
G0 Z3.000
G0  X28.813 Y40.056
G0  Z3.000
G01 F400 Z0
G01 F400 Z-0.100
G01F400X28.583 Y40.008
X28.369 Y39.912
X28.178 Y39.774
X28.021 Y39.599
X27.904 Y39.395
X27.831 Y39.172
X27.806 Y38.938
X27.831 Y38.705
X27.904 Y38.481
X28.021 Y38.277
X28.178 Y38.103
X28.369 Y37.965
X28.583 Y37.869
X28.813 Y37.820
X29.048 Y37.820
X29.278 Y37.869
X29.493 Y37.965
X29.683 Y38.103
X29.840 Y38.277
X29.958 Y38.481
X30.030 Y38.705
X30.055 Y38.938
X30.030 Y39.172
X29.958 Y39.395
X29.840 Y39.599
X29.683 Y39.774
X29.493 Y39.912
X29.278 Y40.008
X29.048 Y40.056
X28.813 Y40.056
G0 Z3.000
G0  X54.216 Y37.536
G0  Z3.000
G01 F400 Z0
G01 F400 Z-0.100
G01F400X53.993 Y37.489
X53.784 Y37.396
X53.599 Y37.262
X53.446 Y37.092
X53.332 Y36.894
X53.261 Y36.676
X53.237 Y36.449
X53.261 Y36.222
X53.332 Y36.004
X53.446 Y35.806
X53.599 Y35.637
X53.784 Y35.502
X53.993 Y35.409
X54.216 Y35.362
X54.445 Y35.362
X54.669 Y35.409
X54.877 Y35.502
X55.062 Y35.637
X55.215 Y35.806
X55.329 Y36.004
X55.400 Y36.222
X55.424 Y36.449
X55.400 Y36.676
X55.329 Y36.894
X55.215 Y37.092
X55.062 Y37.262
X54.877 Y37.396
X54.669 Y37.489
X54.445 Y37.536
X54.216 Y37.536
G0 Z3.000
G0  X8.496 Y34.996
G0  Z3.000
G01 F400 Z0
G01 F400 Z-0.100
G01F400X8.273 Y34.949
X8.064 Y34.856
X7.879 Y34.721
X7.726 Y34.552
X7.612 Y34.354
X7.541 Y34.136
X7.517 Y33.909
X7.541 Y33.682
X7.612 Y33.464
X7.726 Y33.266
X7.879 Y33.096
X8.064 Y32.962
X8.273 Y32.869
X8.496 Y32.822
X8.725 Y32.822
X8.949 Y32.869
X9.157 Y32.962
X9.342 Y33.096
X9.495 Y33.266
X9.609 Y33.464
X9.610 Y33.466
X55.871 Y33.466
X55.872 Y33.464
X55.986 Y33.266
X56.139 Y33.096
X56.324 Y32.962
X56.533 Y32.869
X56.756 Y32.822
X56.985 Y32.822
X57.209 Y32.869
X57.417 Y32.962
X57.602 Y33.096
X57.755 Y33.266
X57.869 Y33.464
X57.940 Y33.682
X57.964 Y33.909
X57.940 Y34.136
X57.869 Y34.354
X57.755 Y34.552
X57.602 Y34.721
X57.417 Y34.856
X57.209 Y34.949
X56.985 Y34.996
X56.756 Y34.996
X56.533 Y34.949
X56.324 Y34.856
X56.139 Y34.721
X55.986 Y34.552
X55.872 Y34.354
X55.871 Y34.352
X9.610 Y34.352
X9.609 Y34.354
X9.495 Y34.552
X9.342 Y34.721
X9.157 Y34.856
X8.949 Y34.949
X8.725 Y34.996
X8.496 Y34.996
G0 Z3.000
G0  X38.976 Y29.916
G0  Z3.000
G01 F400 Z0
G01 F400 Z-0.100
G01F400X38.753 Y29.869
X38.544 Y29.776
X38.359 Y29.642
X38.206 Y29.472
X38.092 Y29.274
X38.021 Y29.056
X37.997 Y28.829
X38.021 Y28.602
X38.092 Y28.384
X38.206 Y28.186
X38.359 Y28.017
X38.544 Y27.882
X38.753 Y27.789
X38.976 Y27.742
X39.205 Y27.742
X39.428 Y27.789
X39.637 Y27.882
X39.822 Y28.017
X39.975 Y28.186
X40.089 Y28.384
X40.160 Y28.602
X40.184 Y28.829
X40.160 Y29.056
X40.089 Y29.274
X39.975 Y29.472
X39.822 Y29.642
X39.637 Y29.776
X39.428 Y29.869
X39.205 Y29.916
X38.976 Y29.916
G0 Z3.000
G0  X21.196 Y29.916
G0  Z3.000
G01 F400 Z0
G01 F400 Z-0.100
G01F400X20.973 Y29.869
X20.764 Y29.776
X20.579 Y29.642
X20.426 Y29.472
X20.312 Y29.274
X20.241 Y29.056
X20.217 Y28.829
X20.241 Y28.602
X20.312 Y28.384
X20.426 Y28.186
X20.579 Y28.017
X20.764 Y27.882
X20.973 Y27.789
X21.196 Y27.742
X21.425 Y27.742
X21.649 Y27.789
X21.857 Y27.882
X22.042 Y28.017
X22.195 Y28.186
X22.309 Y28.384
X22.380 Y28.602
X22.404 Y28.829
X22.380 Y29.056
X22.309 Y29.274
X22.195 Y29.472
X22.042 Y29.642
X21.857 Y29.776
X21.649 Y29.869
X21.425 Y29.916
X21.196 Y29.916
G0 Z3.000
G0  X26.276 Y29.916
G0  Z3.000
G01 F400 Z0
G01 F400 Z-0.100
G01F400X26.053 Y29.869
X25.844 Y29.776
X25.659 Y29.642
X25.506 Y29.472
X25.392 Y29.274
X25.321 Y29.056
X25.297 Y28.829
X25.321 Y28.602
X25.392 Y28.384
X25.506 Y28.186
X25.659 Y28.017
X25.844 Y27.882
X26.053 Y27.789
X26.276 Y27.742
X26.505 Y27.742
X26.729 Y27.789
X26.937 Y27.882
X27.122 Y28.017
X27.275 Y28.186
X27.376 Y28.361
X36.080 Y28.361
X36.080 Y23.691
X36.089 Y23.606
X36.118 Y23.517
X36.165 Y23.436
X36.227 Y23.367
X36.303 Y23.312
X36.388 Y23.274
X36.479 Y23.255
X36.557 Y23.255
X43.201 Y23.280
X43.296 Y23.114
X43.448 Y22.946
X43.630 Y22.813
X43.837 Y22.721
X44.058 Y22.674
X44.284 Y22.674
X44.505 Y22.721
X44.711 Y22.813
X44.894 Y22.946
X45.045 Y23.114
X45.158 Y23.309
X45.227 Y23.524
X45.251 Y23.749
X45.227 Y23.974
X45.158 Y24.189
X45.045 Y24.384
X44.894 Y24.552
X44.711 Y24.685
X44.600 Y24.734
X44.591 Y25.801
X45.580 Y25.815
X45.580 Y25.158
X47.841 Y25.158
X47.841 Y27.420
X45.580 Y27.420
X45.580 Y26.702
X44.098 Y26.681
X44.008 Y26.662
X43.922 Y26.624
X43.847 Y26.569
X43.785 Y26.500
X43.738 Y26.419
X43.709 Y26.331
X43.700 Y26.245
X43.700 Y24.716
X43.630 Y24.685
X43.448 Y24.552
X43.296 Y24.384
X43.183 Y24.189
X43.176 Y24.166
X36.970 Y24.143
X36.970 Y28.811
X36.961 Y28.896
X36.932 Y28.985
X36.886 Y29.066
X36.823 Y29.135
X36.748 Y29.190
X36.663 Y29.227
X36.572 Y29.247
X27.398 Y29.247
X27.389 Y29.274
X27.275 Y29.472
X27.122 Y29.642
X26.937 Y29.776
X26.729 Y29.869
X26.505 Y29.916
X26.276 Y29.916
G0 Z3.000
G0  X49.132 Y27.414
G0  Z3.000
G01 F400 Z0
G01 F400 Z-0.100
G01F400X48.901 Y27.365
X48.685 Y27.269
X48.494 Y27.130
X48.335 Y26.954
X48.217 Y26.749
X48.144 Y26.524
X48.119 Y26.289
X48.144 Y26.054
X48.217 Y25.829
X48.335 Y25.624
X48.494 Y25.448
X48.685 Y25.309
X48.901 Y25.213
X49.132 Y25.164
X49.369 Y25.164
X49.600 Y25.213
X49.816 Y25.309
X50.008 Y25.448
X50.166 Y25.624
X50.277 Y25.816
X51.346 Y25.801
X51.346 Y24.741
X51.244 Y24.696
X51.059 Y24.562
X50.906 Y24.392
X50.792 Y24.194
X50.721 Y23.976
X50.697 Y23.749
X50.721 Y23.522
X50.792 Y23.304
X50.906 Y23.106
X51.059 Y22.937
X51.244 Y22.802
X51.453 Y22.709
X51.676 Y22.662
X51.905 Y22.662
X52.129 Y22.709
X52.337 Y22.802
X52.522 Y22.937
X52.675 Y23.106
X52.789 Y23.304
X52.860 Y23.522
X52.884 Y23.749
X52.860 Y23.976
X52.789 Y24.194
X52.675 Y24.392
X52.522 Y24.562
X52.337 Y24.696
X52.235 Y24.741
X52.235 Y26.245
X52.226 Y26.331
X52.198 Y26.419
X52.151 Y26.500
X52.089 Y26.569
X52.013 Y26.624
X51.928 Y26.662
X51.838 Y26.681
X50.299 Y26.703
X50.284 Y26.749
X50.166 Y26.954
X50.008 Y27.130
X49.816 Y27.269
X49.600 Y27.365
X49.369 Y27.414
X49.132 Y27.414
G0 Z3.000
G0  X26.276 Y24.836
G0  Z3.000
G01 F400 Z0
G01 F400 Z-0.100
G01F400X26.053 Y24.789
X25.844 Y24.696
X25.659 Y24.562
X25.506 Y24.392
X25.392 Y24.194
X25.376 Y24.145
X19.766 Y24.164
X19.758 Y24.189
X19.645 Y24.384
X19.494 Y24.552
X19.311 Y24.685
X19.105 Y24.777
X18.884 Y24.824
X18.658 Y24.824
X18.437 Y24.777
X18.230 Y24.685
X18.048 Y24.552
X17.896 Y24.384
X17.783 Y24.189
X17.714 Y23.974
X17.690 Y23.749
X17.714 Y23.524
X17.783 Y23.309
X17.896 Y23.114
X18.048 Y22.946
X18.230 Y22.813
X18.326 Y22.771
X18.326 Y21.672
X17.268 Y21.657
X17.264 Y21.669
X17.146 Y21.874
X16.988 Y22.050
X16.796 Y22.189
X16.580 Y22.285
X16.349 Y22.334
X16.112 Y22.334
X15.881 Y22.285
X15.665 Y22.189
X15.474 Y22.050
X15.315 Y21.874
X15.197 Y21.669
X15.124 Y21.444
X15.099 Y21.209
X15.124 Y20.974
X15.197 Y20.749
X15.315 Y20.544
X15.474 Y20.368
X15.665 Y20.229
X15.881 Y20.133
X16.112 Y20.084
X16.349 Y20.084
X16.580 Y20.133
X16.796 Y20.229
X16.988 Y20.368
X17.146 Y20.544
X17.264 Y20.749
X17.271 Y20.769
X18.818 Y20.791
X18.908 Y20.811
X18.993 Y20.849
X19.069 Y20.903
X19.131 Y20.973
X19.178 Y21.053
X19.206 Y21.142
X19.215 Y21.227
X19.215 Y22.771
X19.311 Y22.813
X19.360 Y22.849
X19.400 Y22.848
X19.492 Y22.868
X19.578 Y22.906
X19.653 Y22.961
X19.715 Y23.030
X19.762 Y23.111
X19.791 Y23.199
X19.797 Y23.258
X25.419 Y23.258
X25.506 Y23.106
X25.659 Y22.937
X25.844 Y22.802
X25.940 Y22.760
